Project4/BlueHour.cube
TITLE "BlueHour"
# Created by Photon 3D ColorGrading
DOMAIN_MIN 0 0 0
DOMAIN_MAX 1 1 1
LUT_3D_SIZE 9
-0.000010 -0.000010 -0.000010
0.173730 -0.055853 -0.055049
0.347367 -0.113808 -0.111445
0.523791 -0.172873 -0.167698
0.707462 -0.228694 -0.219106
0.899761 -0.272885 -0.257002
1.089909 -0.288955 -0.264955
1.249012 -0.257862 -0.225788
1.361071 -0.176148 -0.137840
-0.095716 0.248901 -0.095792
0.124729 0.183129 -0.119984
0.325549 0.115639 -0.155963
0.511628 0.048134 -0.203068
0.699706 -0.013459 -0.252379
0.899521 -0.062095 -0.291782
1.100416 -0.083771 -0.300010
1.264517 -0.061921 -0.252407
1.375652 0.001524 -0.151371
-0.199436 0.497184 -0.199710
0.060218 0.421678 -0.204963
0.289926 0.346271 -0.225730
0.493695 0.273052 -0.261617
0.693118 0.208500 -0.302846
0.903365 0.158691 -0.336340
1.115330 0.132956 -0.339725
1.285424 0.141321 -0.283617
1.395775 0.179155 -0.170949
-0.311269 0.750549 -0.311783
-0.023287 0.666745 -0.312607
0.235013 0.586080 -0.326573
0.465232 0.510200 -0.352404
0.686257 0.444550 -0.381513
0.913740 0.394477 -0.402515
1.139093 0.364071 -0.394974
1.314833 0.354295 -0.327059
1.420514 0.359769 -0.198278
-0.422382 1.013149 -0.423053
-0.116241 0.926777 -0.429462
0.166329 0.845657 -0.444601
0.425836 0.770554 -0.464807
0.675243 0.704798 -0.481766
0.924929 0.652251 -0.486878
1.164010 0.612604 -0.463822
1.344063 0.579157 -0.380279
1.442107 0.545897 -0.229440
-0.513929 1.276021 -0.514677
-0.200523 1.197883 -0.532997
0.097292 1.124654 -0.555528
0.380803 1.055203 -0.575224
0.656432 0.989506 -0.582529
0.925520 0.929474 -0.570933
1.174010 0.873752 -0.529694
1.357949 0.812342 -0.430178
1.452348 0.736544 -0.258822
-0.559454 1.511531 -0.560216
-0.253054 1.454222 -0.593857
0.045527 1.399265 -0.627857
0.339053 1.342018 -0.652351
0.628285 1.277501 -0.655043
0.906213 1.206004 -0.629774
1.157571 1.130433 -0.572363
1.347567 1.043026 -0.463569
1.451449 0.930653 -0.286318
-0.531950 1.679498 -0.532669
-0.252884 1.653090 -0.582677
0.026321 1.624553 -0.629823
0.308979 1.585268 -0.663344
0.592482 1.527022 -0.669510
0.866185 1.451031 -0.642269
1.115703 1.363724 -0.580728
1.315212 1.261316 -0.475965
1.443246 1.128594 -0.313465
-0.443838 1.781243 -0.444486
-0.206342 1.785270 -0.505500
0.037200 1.783005 -0.562877
0.290938 1.762801 -0.605671
0.552255 1.716869 -0.621034
0.812376 1.651533 -0.607206
1.059015 1.570520 -0.560531
1.270755 1.467746 -0.473745
1.428652 1.329753 -0.338635
-0.122414 -0.123824 0.299842
0.114649 -0.141051 0.207581
0.324175 -0.171396 0.125011
0.510516 -0.217933 0.052278
0.694593 -0.268843 -0.007937
0.887417 -0.310230 -0.050230
1.081998 -0.325165 -0.064004
1.250628 -0.294658 -0.038394
1.376762 -0.216513 0.024173
-0.195388 0.163942 0.200169
0.047772 0.100862 0.124980
0.268492 0.043301 0.058408
0.469639 -0.009911 0.001981
0.667443 -0.056668 -0.043024
0.870515 -0.089990 -0.071129
1.068097 -0.098816 -0.071589
1.238131 -0.076560 -0.039224
1.376489 -0.029155 0.017654
-0.274547 0.441523 0.099183
-0.021966 0.348990 0.036447
0.215279 0.272045 -0.015495
0.435706 0.211387 -0.056366
0.649739 0.164529 -0.086927
0.863427 0.134276 -0.101463
1.063962 0.125603 -0.088938
1.234818 0.135779 -0.048255
1.379543 0.156392 0.008970
-0.374506 0.704446 -0.011062
-0.103141 0.603033 -0.063356
0.158728 0.519384 -0.102271
0.404400 0.453196 -0.130373
0.639731 0.402208 -0.148724
0.868200 0.367808 -0.150829
1.074749 0.350122 -0.124710
1.244545 0.343113 -0.070824
1.385456 0.340665 -0.002661
-0.489126 0.965283 -0.125354
-0.192186 0.867587 -0.166677
0.096664 0.785417 -0.196412
0.369431 0.717525 -0.217055
0.629633 0.661936 -0.227162
0.877440 0.618195 -0.218432
1.092877 0.583056 -0.177226
1.259556 0.552253 -0.104538
1.389368 0.524334 -0.016154
-0.590318 1.230035 -0.223663
-0.271725 1.139704 -0.255964
0.038103 1.061941 -0.280445
0.331822 0.995730 -0.298472
0.612195 0.937428 -0.304685
0.876813 0.882716 -0.287394
1.101430 0.825949 -0.232183
1.266688 0.765887 -0.140668
1.386437 0.706376 -0.030293
-0.647631 1.478488 -0.284420
-0.321619 1.398762 -0.311822
-0.004204 1.326877 -0.333724
0.296573 1.263947 -0.351344
0.583547 1.203569 -0.355398
0.854845 1.138545 -0.332355
1.089322 1.064448 -0.271758
1.258477 0.978320 -0.169978
1.375850 0.886182 -0.045500
-0.637835 1.677241 -0.291103
-0.327936 1.616450 -0.320849
-0.024639 1.556843 -0.345975
0.265831 1.498616 -0.364914
0.545303 1.434211 -0.366526
0.811492 1.360238 -0.340388
1.049780 1.277986 -0.282247
1.232659 1.180758 -0.186992
1.360143 1.065004 -0.062703
-0.563560 1.816010 -0.248538
-0.297812 1.789666 -0.292233
-0.030402 1.753863 -0.328834
0.237913 1.701453 -0.350526
0.502230 1.630788 -0.349058
0.756254 1.549190 -0.322032
0.993034 1.465703 -0.272057
1.195139 1.371827 -0.195321
1.342055 1.244285 -0.081374
-0.256877 -0.260998 0.597590
0.036703 -0.252544 0.478548
0.284461 -0.260776 0.370398
0.489713 -0.290923 0.279576
0.681953 -0.330379 0.209069
0.879171 -0.362733 0.161049
1.079032 -0.370555 0.141637
1.255614 -0.336968 0.153423
1.391744 -0.259084 0.191075
-0.309873 0.063123 0.501846
-0.045404 -0.000854 0.384980
0.204625 -0.044977 0.292083
0.429683 -0.079274 0.222435
0.640273 -0.108961 0.173663
0.847372 -0.127059 0.147649
1.044457 -0.124259 0.146701
1.220061 -0.099816 0.163689
1.374624 -0.059706 0.189798
-0.377300 0.366986 0.400488
-0.120805 0.265276 0.295481
0.136799 0.193284 0.217256
0.382325 0.149190 0.166714
0.611135 0.120678 0.136949
0.826229 0.107815 0.129489
1.019994 0.111786 0.144217
1.194451 0.123332 0.167325
1.359062 0.135833 0.189692
-0.472423 0.645322 0.288604
-0.201456 0.536728 0.200276
0.076744 0.454579 0.140091
0.345626 0.399466 0.105966
0.594312 0.362576 0.089845
0.820266 0.341882 0.095743
1.013494 0.334080 0.125562
1.184236 0.329650 0.160547
1.345318 0.325352 0.190969
-0.587333 0.912883 0.171388
-0.286370 0.810525 0.103963
0.019363 0.728682 0.061468
0.311954 0.666346 0.038815
0.581387 0.618789 0.029969
0.822846 0.582646 0.044724
1.019896 0.552665 0.090472
1.183616 0.527305 0.144266
1.332400 0.507113 0.191855
-0.689477 1.183279 0.067938
-0.357975 1.084856 0.022551
-0.029696 1.002699 -0.005440
0.279382 0.935235 -0.021416
0.563290 0.879773 -0.027695
0.818619 0.829321 -0.008403
1.022924 0.775054 0.049613
1.181750 0.723165 0.122151
1.318984 0.680608 0.188865
-0.747048 1.442234 -0.004708
-0.400908 1.346502 -0.033100
-0.063945 1.260845 -0.050078
0.248694 1.186378 -0.060824
0.534500 1.123215 -0.064121
0.795533 1.062128 -0.043259
1.009870 0.992114 0.017178
1.172562 0.917393 0.098346
1.304775 0.848274 0.178873
-0.742367 1.662924 -0.037701
-0.408897 1.579341 -0.060200
-0.082843 1.493522 -0.073997
0.219863 1.412058 -0.081003
0.497687 1.337032 -0.077912
0.754746 1.264673 -0.054273
0.978290 1.190256 -0.000765
1.155027 1.107005 0.075113
1.290607 1.014526 0.161455
-0.684851 1.840837 -0.037326
-0.387598 1.780729 -0.067824
-0.093021 1.707909 -0.087895
0.191628 1.622142 -0.093049
0.458716 1.531413 -0.081771
0.706472 1.445598 -0.053863
0.934438 1.371082 -0.009925
1.130717 1.291484 0.052208
1.277126 1.181957 0.139352
-0.408147 -0.415315 0.896101
-0.068800 -0.398066 0.762167
0.218003 -0.393920 0.634628
0.453702 -0.404923 0.525779
0.665748 -0.422689 0.442967
0.873983 -0.434912 0.386380
1.079243 -0.426699 0.358129
1.260501 -0.384177 0.353632
1.401444 -0.301739 0.365875
-0.453613 -0.064170 0.804907
-0.165162 -0.132408 0.662169
0.122283 -0.163813 0.551960
0.383190 -0.175598 0.467064
0.615562 -0.182321 0.405526
0.832139 -0.181788 0.369338
1.032072 -0.165459 0.357508
1.209336 -0.132615 0.358914
1.365561 -0.087374 0.365720
-0.520004 0.262269 0.702116
-0.248145 0.154899 0.573108
0.042171 0.093301 0.477618
0.324826 0.070810 0.413253
0.575653 0.064545 0.371735
0.797384 0.068342 0.353468
0.991174 0.083412 0.355038
1.166013 0.102208 0.362277
1.330958 0.120159 0.369156
-0.616114 0.559986 0.587900
-0.330099 0.450584 0.481447
-0.024059 0.375815 0.405247
0.279174 0.336507 0.359202
0.547390 0.317062 0.333867
0.775213 0.309541 0.329912
0.965997 0.310596 0.344765
1.137729 0.313308 0.362054
1.299101 0.316270 0.377109
-0.724960 0.844231 0.470483
-0.407931 0.742599 0.387012
-0.077758 0.664523 0.331457
0.243079 0.609661 0.300799
0.526226 0.571145 0.286313
0.764527 0.543240 0.293204
0.956606 0.521657 0.323637
1.122025 0.506341 0.356912
1.272436 0.496890 0.386000
-0.812799 1.125933 0.364824
-0.463011 1.025158 0.305680
-0.113882 0.941303 0.267436
0.214772 0.872901 0.247432
0.505497 0.817690 0.239337
0.753976 0.771605 0.252697
0.950559 0.727029 0.295891
1.110953 0.689515 0.345046
1.251927 0.662141 0.388712
-0.852086 1.392658 0.283310
-0.487603 1.288786 0.244009
-0.135678 1.197312 0.219537
0.190632 1.113221 0.207626
0.479525 1.042593 0.205265
0.732165 0.983995 0.221601
0.937770 0.925634 0.267957
1.100480 0.868336 0.325380
1.237090 0.818372 0.379473
-0.833368 1.622624 0.230278
-0.486431 1.528989 0.201518
-0.145040 1.428003 0.185172
0.171681 1.326907 0.180049
0.451226 1.240633 0.184603
0.699719 1.171026 0.203198
0.914063 1.109981 0.244075
1.088284 1.045281 0.299116
1.227099 0.974100 0.358247
-0.784188 1.827849 0.196017
-0.464096 1.743384 0.171411
-0.143551 1.637348 0.158098
0.156657 1.523057 0.159116
0.423940 1.420026 0.171794
0.662074 1.338856 0.193266
0.880021 1.279630 0.224545
1.071416 1.219828 0.269292
1.220313 1.133040 0.330107
-0.563899 -0.572327 1.194340
-0.199593 -0.564520 1.057018
0.123447 -0.558661 0.921747
0.397624 -0.552503 0.799982
0.639271 -0.541391 0.702444
0.863835 -0.520952 0.632254
1.073648 -0.486419 0.587713
1.256308 -0.428906 0.562288
1.402351 -0.342021 0.547835
-0.622999 -0.214782 1.104181
-0.302662 -0.278637 0.954266
0.022264 -0.303260 0.835500
0.322430 -0.298216 0.737690
0.584861 -0.278910 0.658685
0.816972 -0.252059 0.603824
1.021615 -0.215845 0.571868
1.196187 -0.167380 0.554035
1.346310 -0.109248 0.542453
-0.696833 0.126312 1.002545
-0.391103 0.027900 0.865617
-0.064058 -0.023658 0.759744
0.256271 -0.029752 0.680602
0.537020 -0.012806 0.619053
0.773578 0.012052 0.578509
0.971687 0.043235 0.557445
1.141286 0.077480 0.547368
1.295529 0.110268 0.542250
-0.789588 0.445711 0.890853
-0.472065 0.344013 0.776577
-0.134353 0.277919 0.687160
0.200859 0.252154 0.624786
0.496420 0.252733 0.579241
0.737498 0.263738 0.551670
0.932486 0.279280 0.542415
1.099409 0.295988 0.543250
1.250568 0.312458 0.548434
-0.879788 0.752054 0.776077
-0.536281 0.654985 0.681965
-0.181516 0.581630 0.609625
0.162560 0.535511 0.561915
0.464684 0.511433 0.531828
0.711664 0.498942 0.518718
0.908176 0.491608 0.524552
1.071765 0.489760 0.539745
1.215061 0.492920 0.557079
-0.935826 1.047240 0.668233
-0.565275 0.947495 0.593094
-0.198968 0.864628 0.536822
0.142027 0.801204 0.501357
0.441429 0.753931 0.483196
0.693008 0.718083 0.482613
0.892348 0.688303 0.502767
1.053328 0.666039 0.531370
1.190596 0.652433 0.559683
-0.938146 1.316841 0.576258
-0.559879 1.210578 0.519253
-0.201317 1.119709 0.477929
0.128619 1.038662 0.453573
0.422196 0.969205 0.443448
0.673374 0.916937 0.449833
0.877766 0.873111 0.477187
1.040675 0.833036 0.513776
1.175772 0.799786 0.549113
-0.887617 1.542141 0.502626
-0.537980 1.447076 0.461838
-0.196057 1.346882 0.433587
0.125821 1.241522 0.418752
0.407878 1.152473 0.415499
0.650353 1.089626 0.424967
0.857838 1.042876 0.450925
1.029286 0.996598 0.487261
1.168831 0.946102 0.525326
-0.813127 1.736773 0.440799
-0.508062 1.665546 0.415690
-0.177063 1.546768 0.398536
0.132674 1.418385 0.392587
0.397392 1.313432 0.396740
0.624234 1.241608 0.407710
0.828693 1.197888 0.426254
1.013436 1.157542 0.455246
1.166942 1.096421 0.494188
-0.701573 -0.709437 1.476356
-0.326647 -0.717219 1.348430
0.018509 -0.719533 1.220933
0.326689 -0.704215 1.095850
0.599323 -0.665222 0.983422
0.840126 -0.606573 0.892165
1.052016 -0.537410 0.822657
1.234176 -0.460493 0.771351
1.387242 -0.371816 0.731560
-0.779499 -0.356741 1.392665
-0.434894 -0.417805 1.252079
-0.081576 -0.438680 1.133550
0.252668 -0.422202 1.024678
0.543396 -0.380416 0.926956
0.790541 -0.324649 0.848801
1.000178 -0.263128 0.791304
1.172883 -0.195972 0.749305
1.316961 -0.123833 0.715629
-0.864306 -0.012934 1.300525
-0.523216 -0.096933 1.164665
-0.170136 -0.142060 1.061041
0.180167 -0.138111 0.966626
0.489983 -0.099749 0.876406
0.743154 -0.050409 0.807917
0.948002 0.001425 0.760841
1.113869 0.054087 0.728437
1.257042 0.103639 0.705549
-0.948542 0.320548 1.195711
-0.592481 0.233918 1.071992
-0.233506 0.174466 0.980160
0.116866 0.152967 0.906667
0.437539 0.173223 0.828275
0.698859 0.208787 0.767545
0.901444 0.244867 0.731589
1.064017 0.278434 0.712245
1.205760 0.309250 0.702233
-1.008791 0.643826 1.081611
-0.633278 0.555715 0.972049
-0.261924 0.488527 0.884961
0.084139 0.447452 0.822941
0.398612 0.439393 0.766272
0.662468 0.448963 0.723864
0.866978 0.461667 0.704995
1.028751 0.474858 0.700968
1.165800 0.490483 0.702925
-1.020606 0.947115 0.965845
-0.630886 0.851549 0.870988
-0.255710 0.772316 0.792942
0.078957 0.716957 0.739621
0.376546 0.684774 0.703458
0.636453 0.666540 0.681901
0.843534 0.655516 0.680162
1.004944 0.648665 0.689378
1.138968 0.648160 0.700625
-0.976721 1.211281 0.856308
-0.593405 1.107862 0.779132
-0.236668 1.020713 0.717730
0.079225 0.953308 0.678416
0.365829 0.898229 0.654458
0.618486 0.858875 0.645071
0.826028 0.831392 0.653899
0.989563 0.807957 0.671484
1.123641 0.790718 0.688312
-0.889766 1.422848 0.757872
-0.547163 1.332200 0.704487
-0.220464 1.245444 0.663858
0.088736 1.154860 0.636050
0.366198 1.075180 0.618152
0.604178 1.022863 0.614241
0.807461 0.989625 0.625367
0.976776 0.960164 0.644978
1.118084 0.929676 0.664787
-0.782076 1.594925 0.668979
-0.507718 1.547400 0.646203
-0.194048 1.448212 0.622633
0.114435 1.324666 0.601375
0.373766 1.227072 0.590211
0.590057 1.166452 0.588474
0.782639 1.133494 0.595103
0.960314 1.108510 0.611283
1.119133 1.071673 0.634755
-0.814428 -0.821236 1.751763
-0.429496 -0.831752 1.624130
-0.073604 -0.836240 1.506020
0.252393 -0.816085 1.387258
0.545749 -0.758076 1.264590
0.798538 -0.668931 1.147152
1.009152 -0.567671 1.046769
1.186260 -0.469512 0.968491
1.343746 -0.376393 0.905742
-0.895280 -0.469041 1.663874
-0.552862 -0.540915 1.563580
-0.181411 -0.556323 1.447135
0.177429 -0.524284 1.319333
0.488423 -0.462457 1.196961
0.748103 -0.382561 1.089587
0.961819 -0.298228 1.004433
1.135001 -0.214759 0.938684
1.279598 -0.131554 0.882348
-0.976437 -0.126519 1.575923
-0.635135 -0.209532 1.477370
-0.272181 -0.252215 1.385356
0.100405 -0.236552 1.265689
0.431373 -0.179365 1.138256
0.699582 -0.107345 1.033783
0.912277 -0.035850 0.959099
1.080364 0.031862 0.905008
1.221615 0.095011 0.861192
-1.045024 0.209234 1.478985
-0.678739 0.135042 1.366679
-0.323479 0.079406 1.286862
0.038237 0.066226 1.189964
0.378458 0.100037 1.069874
0.653216 0.154583 0.972985
0.864284 0.209431 0.911468
1.029583 0.257972 0.872598
1.170201 0.300445 0.844492
-1.072283 0.536159 1.363634
-0.685147 0.460678 1.245477
-0.327182 0.401384 1.160163
0.012839 0.369842 1.080662
0.340011 0.372454 0.983779
0.613436 0.397002 0.908514
0.825315 0.427995 0.868547
0.990594 0.456340 0.847362
1.128723 0.482377 0.832480
-1.040664 0.835838 1.232810
-0.650709 0.750650 1.122201
-0.293481 0.682377 1.034642
0.022211 0.639638 0.969302
0.320584 0.617483 0.902819
0.584386 0.612103 0.853337
0.797091 0.620027 0.833844
0.963374 0.629942 0.827276
1.099870 0.640671 0.822038
-0.956870 1.086530 1.099092
-0.586725 0.994528 1.007124
-0.250136 0.919284 0.932937
0.039966 0.870480 0.885618
0.315586 0.830225 0.842567
0.566743 0.802149 0.811200
0.776803 0.791578 0.804157
0.944813 0.785744 0.806840
1.082667 0.781798 0.807719
-0.842813 1.282005 0.975049
-0.521085 1.204077 0.914044
-0.222258 1.137417 0.867238
0.058319 1.074174 0.832959
0.325055 1.010522 0.798982
0.559248 0.967201 0.777507
0.760085 0.945719 0.774957
0.930174 0.930963 0.781222
1.075782 0.916057 0.786653
-0.718433 1.440142 0.862098
-0.474183 1.411794 0.846212
-0.201156 1.352453 0.826270
0.091464 1.253017 0.792239
0.346210 1.167039 0.763548
0.557283 1.113742 0.747729
0.742128 1.087047 0.743736
0.914266 1.070707 0.749299
1.076355 1.051152 0.761048
-0.848779 -0.854955 1.970027
-0.493744 -0.895680 1.878745
-0.142770 -0.902752 1.771797
0.188781 -0.872548 1.651172
0.487787 -0.800117 1.515610
0.742822 -0.693209 1.374530
0.949570 -0.572351 1.246339
1.122213 -0.460027 1.143784
1.277876 -0.360523 1.062191
-0.962219 -0.540758 1.920900
-0.622241 -0.612812 1.853848
-0.250706 -0.631160 1.745131
0.111529 -0.597109 1.606752
0.430707 -0.521827 1.457895
0.696762 -0.422599 1.316902
0.911674 -0.320653 1.202744
1.088469 -0.226886 1.115855
1.240057 -0.139119 1.043451
-1.037141 -0.210229 1.838870
-0.708841 -0.288251 1.783169
-0.337076 -0.321439 1.683819
0.042142 -0.300313 1.540158
0.377613 -0.236255 1.384526
0.651455 -0.151471 1.247000
0.868224 -0.066972 1.145575
1.043557 0.009316 1.073174
1.193305 0.078530 1.015129
-1.072073 0.122920 1.729589
-0.743806 0.052786 1.666651
-0.385679 0.011046 1.576171
-0.006979 0.014246 1.435788
0.334734 0.055536 1.282579
0.609197 0.115274 1.158760
0.822960 0.177021 1.077666
0.996195 0.232744 1.024979
1.145999 0.281404 0.985405
-1.061482 0.441397 1.598348
-0.722464 0.377387 1.516832
-0.381783 0.331940 1.431783
-0.024569 0.316352 1.308052
0.306451 0.327796 1.171436
0.573703 0.356382 1.071152
0.784329 0.393513 1.015967
0.956814 0.430282 0.983988
1.105232 0.463313 0.959692
-0.998070 0.725704 1.448276
-0.654696 0.660362 1.355831
-0.332990 0.611852 1.277332
-0.012695 0.582109 1.182655
0.291985 0.565349 1.076326
0.547473 0.564462 1.000890
0.754374 0.581000 0.968463
0.927117 0.602552 0.952679
1.074797 0.622820 0.939155
-0.890683 0.959102 1.291783
-0.565840 0.892310 1.209313
-0.270471 0.842829 1.145837
0.010910 0.808216 1.083738
0.287399 0.772665 1.009367
0.529383 0.749207 0.954236
0.731840 0.748341 0.934330
0.905270 0.756378 0.927942
1.054428 0.764667 0.920976
-0.764745 1.140632 1.147403
-0.483512 1.087285 1.094094
-0.224788 1.049523 1.057805
0.033859 1.010184 1.019238
0.293554 0.958182 0.965440
0.521264 0.919725 0.924758
0.716092 0.904562 0.908937
0.888727 0.900270 0.905161
1.042699 0.897200 0.901812
-0.638367 1.289530 1.018441
-0.423705 1.277582 1.012180
-0.201444 1.263381 1.009909
0.062326 1.200973 0.976081
0.312340 1.129709 0.932622
0.523280 1.080973 0.902232
0.705334 1.055514 0.887123
0.874840 1.040841 0.881717
1.037176 1.027786 0.881311
-0.790112 -0.796043 2.095248
-0.494831 -0.878766 2.073819
-0.185852 -0.929363 2.024368
0.130668 -0.912356 1.916450
0.427186 -0.814520 1.747489
0.677611 -0.687438 1.574855
0.881629 -0.558737 1.424140
1.051384 -0.440904 1.302161
1.204768 -0.338755 1.204704
-0.951629 -0.549596 2.127023
-0.623366 -0.616237 2.079330
-0.282339 -0.651321 1.998945
0.059773 -0.633818 1.871673
0.375447 -0.560037 1.707302
0.642254 -0.451624 1.537705
0.858519 -0.337609 1.392885
1.039174 -0.237677 1.285138
1.203123 -0.152182 1.203176
-1.074628 -0.270586 2.113093
-0.730018 -0.326816 2.049457
-0.360764 -0.348767 1.936720
0.004927 -0.325556 1.780166
0.332622 -0.262379 1.606385
0.603551 -0.177146 1.447013
0.822014 -0.090285 1.322699
1.005097 -0.013620 1.235457
1.170916 0.053184 1.170997
-1.090999 0.047003 1.993806
-0.782149 -0.009565 1.955781
-0.404020 -0.028488 1.826591
-0.023482 -0.009357 1.647760
0.305308 0.037010 1.471753
0.569221 0.094924 1.331229
0.781954 0.152522 1.234709
0.963331 0.205088 1.172935
1.129557 0.252733 1.129643
-1.018375 0.356193 1.806055
-0.758585 0.307174 1.796275
-0.401574 0.283386 1.678939
-0.024540 0.284897 1.500390
0.293433 0.304680 1.338191
0.543497 0.333348 1.223880
0.747251 0.365593 1.155467
0.925350 0.399839 1.116545
1.090803 0.434304 1.090871
-0.919490 0.621135 1.621722
-0.671503 0.586876 1.602431
-0.359566 0.560998 1.519648
-0.009189 0.540168 1.368701
0.289549 0.530903 1.232443
0.524204 0.533634 1.143964
0.719244 0.546655 1.096795
0.894409 0.568583 1.073515
1.059381 0.595166 1.059419
-0.800588 0.836606 1.446926
-0.559760 0.813271 1.418849
-0.300002 0.795392 1.377094
0.008587 0.761046 1.270495
0.285959 0.728510 1.163989
0.508257 0.710893 1.095246
0.696743 0.708538 1.059751
0.869899 0.719785 1.043913
1.035435 0.738934 1.035445
-0.674668 1.007111 1.288830
-0.457767 0.995516 1.272169
-0.244043 0.995571 1.265881
0.020984 0.963427 1.205497
0.280033 0.916888 1.126833
0.495362 0.884245 1.071872
0.680225 0.868033 1.040936
0.851237 0.865786 1.025418
1.016501 0.871947 1.016500
-0.556552 1.150515 1.150736
-0.371982 1.154581 1.155019
-0.196921 1.177809 1.178122
0.028412 1.160016 1.160221
0.272836 1.106475 1.106775
0.485677 1.062444 1.062798
0.669790 1.033649 1.033926
0.838044 1.014652 1.014791
0.999996 0.999995 0.999995
