Project4/BlueHour.cube
TITLE "BlueHour"
# Created by Photon 3D ColorGrading
DOMAIN_MIN 0 0 0
DOMAIN_MAX 1 1 1
LUT_3D_SIZE 33
-0.000010 -0.000010 -0.000010
0.043466 -0.013854 -0.013686
0.086922 -0.027747 -0.027398
0.130344 -0.041736 -0.041179
0.173730 -0.055853 -0.055049
0.217091 -0.070120 -0.069021
0.260453 -0.084544 -0.083091
0.303861 -0.099114 -0.097243
0.347367 -0.113808 -0.111445
0.391039 -0.128587 -0.125653
0.434949 -0.143401 -0.139812
0.479174 -0.158188 -0.153854
0.523791 -0.172873 -0.167698
0.568872 -0.187373 -0.181257
0.614483 -0.201588 -0.194426
0.660671 -0.215407 -0.207090
0.707462 -0.228694 -0.219106
0.754847 -0.241290 -0.230314
0.802767 -0.253021 -0.240536
0.851120 -0.263661 -0.249543
0.899761 -0.272885 -0.257002
0.948388 -0.280284 -0.262505
0.996562 -0.285472 -0.265681
1.043916 -0.288507 -0.266634
1.089909 -0.288955 -0.264955
1.133950 -0.286402 -0.260274
1.175450 -0.280512 -0.252302
1.213909 -0.271030 -0.240826
1.249012 -0.257862 -0.225788
1.280741 -0.241166 -0.207363
1.309450 -0.221408 -0.186013
1.335876 -0.199383 -0.162502
1.361071 -0.176148 -0.137840
-0.023533 0.062337 -0.023546
0.023228 0.047855 -0.035004
0.069847 0.033332 -0.046562
0.116202 0.018725 -0.058309
0.162204 0.003997 -0.070315
0.207810 -0.010881 -0.082624
0.253027 -0.025918 -0.095252
0.297902 -0.041109 -0.108188
0.342524 -0.056422 -0.121396
0.387006 -0.071810 -0.134817
0.431483 -0.087211 -0.148375
0.476094 -0.102550 -0.161979
0.520975 -0.117747 -0.175528
0.566255 -0.132711 -0.188908
0.612043 -0.147348 -0.201999
0.658428 -0.161549 -0.214668
0.705464 -0.175188 -0.226763
0.753167 -0.188116 -0.238110
0.801493 -0.200174 -0.248523
0.850345 -0.211143 -0.257755
0.899585 -0.220710 -0.265459
0.948891 -0.228471 -0.271185
0.997782 -0.234036 -0.274515
1.045835 -0.237459 -0.275516
1.092460 -0.238303 -0.273737
1.137014 -0.236165 -0.268774
1.178881 -0.230733 -0.260327
1.217548 -0.221786 -0.248202
1.252724 -0.209276 -0.232384
1.284426 -0.193394 -0.213102
1.313049 -0.174618 -0.190869
1.339363 -0.153715 -0.166480
1.364436 -0.131684 -0.140950
-0.047227 0.124626 -0.047256
0.002778 0.109509 -0.056559
0.052523 0.094358 -0.066024
0.101779 0.079134 -0.075794
0.150378 0.063797 -0.085985
0.198224 0.048315 -0.096669
0.245301 0.032670 -0.107882
0.291664 0.016869 -0.119617
0.337430 0.000949 -0.131834
0.382761 -0.015034 -0.144461
0.427845 -0.031006 -0.157402
0.472883 -0.046881 -0.170546
0.518069 -0.062570 -0.183769
0.563584 -0.077982 -0.196937
0.609583 -0.093020 -0.209913
0.656190 -0.107581 -0.222547
0.703491 -0.121548 -0.234674
0.751524 -0.134783 -0.246110
0.800260 -0.147137 -0.256655
0.849613 -0.158409 -0.266054
0.899448 -0.168296 -0.273944
0.949426 -0.176397 -0.279849
0.999025 -0.182325 -0.283303
1.047773 -0.186127 -0.284342
1.095026 -0.187368 -0.282463
1.140097 -0.185656 -0.277225
1.182338 -0.180703 -0.268317
1.221229 -0.172326 -0.255562
1.256494 -0.160516 -0.238987
1.288185 -0.145496 -0.218874
1.316738 -0.127751 -0.195785
1.342952 -0.108020 -0.170543
1.367918 -0.087241 -0.144170
-0.071245 0.186818 -0.071294
-0.018080 0.171067 -0.078569
0.034714 0.155289 -0.086061
0.086812 0.139451 -0.093965
0.137970 0.123512 -0.102433
0.188042 0.107433 -0.111568
0.236992 0.091194 -0.121419
0.284879 0.074803 -0.131985
0.331846 0.058298 -0.143220
0.378096 0.041747 -0.155042
0.423867 0.025235 -0.167339
0.469414 0.008855 -0.179981
0.514984 -0.007295 -0.192824
0.560806 -0.023120 -0.205718
0.607078 -0.038526 -0.218510
0.653958 -0.053415 -0.231035
0.701563 -0.067676 -0.243119
0.749954 -0.081183 -0.254566
0.799118 -0.093798 -0.265167
0.848977 -0.105329 -0.274657
0.899402 -0.115485 -0.282662
0.950042 -0.123878 -0.288674
1.000339 -0.130129 -0.292190
1.049771 -0.134283 -0.293209
1.097651 -0.135914 -0.291191
1.143246 -0.134646 -0.285660
1.185876 -0.130213 -0.276295
1.225012 -0.122466 -0.262932
1.260393 -0.111433 -0.245634
1.292102 -0.097362 -0.224732
1.320611 -0.080739 -0.200832
1.346747 -0.062271 -0.174781
1.371626 -0.042839 -0.147612
-0.095716 0.248901 -0.095792
-0.039515 0.232516 -0.101219
0.016218 0.216114 -0.106910
0.071070 0.199665 -0.113103
0.124729 0.183129 -0.119984
0.177006 0.166466 -0.127678
0.227843 0.149653 -0.136246
0.277303 0.132696 -0.145691
0.325549 0.115639 -0.155963
0.372817 0.098557 -0.166970
0.419387 0.081544 -0.178588
0.465560 0.064702 -0.190674
0.511628 0.048134 -0.203068
0.557863 0.031939 -0.215607
0.604501 0.016211 -0.228123
0.651734 0.001044 -0.240442
0.699706 -0.013459 -0.252379
0.748500 -0.027181 -0.263732
0.798122 -0.039997 -0.274286
0.848503 -0.051727 -0.283765
0.899521 -0.062095 -0.291782
0.950817 -0.070730 -0.297805
1.001802 -0.077265 -0.301294
1.051911 -0.081749 -0.302220
1.100416 -0.083771 -0.300010
1.146543 -0.082971 -0.294159
1.189581 -0.079113 -0.284337
1.228990 -0.072077 -0.270389
1.264517 -0.061921 -0.252407
1.296274 -0.048911 -0.230763
1.324762 -0.033528 -0.206100
1.350844 -0.016445 -0.179292
1.375652 0.001524 -0.151371
-0.120734 0.310900 -0.120847
-0.061654 0.293881 -0.124647
-0.003125 0.276854 -0.128751
0.054366 0.259797 -0.133428
0.110450 0.242672 -0.138891
0.164899 0.225439 -0.145281
0.217638 0.208073 -0.152668
0.268728 0.190582 -0.161057
0.318345 0.173012 -0.170395
0.366751 0.155443 -0.180584
0.414257 0.137976 -0.191492
0.461200 0.120720 -0.202965
0.507910 0.103782 -0.214835
0.554692 0.087266 -0.226928
0.601818 0.071265 -0.239065
0.649509 0.055869 -0.251064
0.697934 0.041178 -0.262731
0.747201 0.027297 -0.273858
0.797329 0.014341 -0.284223
0.848266 0.002472 -0.293546
0.899894 -0.008047 -0.301435
0.951849 -0.016867 -0.307348
1.003520 -0.023644 -0.310716
1.054304 -0.028433 -0.311482
1.103439 -0.030844 -0.309038
1.150109 -0.030544 -0.302852
1.193574 -0.027321 -0.292577
1.233280 -0.021084 -0.278064
1.268980 -0.011916 -0.259432
1.300804 -0.000091 -0.237084
1.329287 0.013921 -0.211698
1.355320 0.029489 -0.184168
1.380062 0.045863 -0.155532
-0.146355 0.372879 -0.146514
-0.084581 0.355223 -0.148940
-0.023425 0.337571 -0.151698
0.036570 0.319908 -0.155081
0.094985 0.302203 -0.159320
0.151563 0.284417 -0.164566
0.206211 0.266524 -0.170895
0.258988 0.248534 -0.178310
0.310075 0.230492 -0.186758
0.359750 0.212484 -0.196137
0.408345 0.194613 -0.206312
0.456222 0.176993 -0.217124
0.503737 0.159737 -0.228399
0.551226 0.142947 -0.239957
0.598985 0.126721 -0.251612
0.647264 0.111146 -0.263179
0.696254 0.096315 -0.274457
0.746083 0.082327 -0.285236
0.796787 0.069283 -0.295292
0.848328 0.057332 -0.304339
0.900598 0.046717 -0.311985
0.953232 0.037761 -0.317669
1.005601 0.030781 -0.320802
1.057072 0.025708 -0.321306
1.106847 0.022904 -0.318546
1.154077 0.022673 -0.311971
1.197988 0.025198 -0.301218
1.238009 0.030545 -0.286140
1.273895 0.038614 -0.266869
1.305793 0.049128 -0.243835
1.334266 0.061640 -0.217742
1.360238 0.075562 -0.189503
1.384889 0.090211 -0.160159
-0.172596 0.434934 -0.172809
-0.108332 0.416640 -0.174129
-0.044734 0.398363 -0.175797
0.017609 0.380100 -0.178124
0.078248 0.361825 -0.181348
0.136900 0.343505 -0.185625
0.193456 0.325115 -0.191033
0.247970 0.306662 -0.197573
0.300624 0.288195 -0.205191
0.351700 0.269796 -0.213785
0.401543 0.251572 -0.223220
0.450526 0.233639 -0.233335
0.499025 0.216111 -0.243956
0.547394 0.199095 -0.254901
0.595952 0.182687 -0.265981
0.644969 0.166975 -0.277006
0.694659 0.152046 -0.287775
0.745167 0.137993 -0.298073
0.796547 0.124905 -0.307676
0.848772 0.112915 -0.316301
0.901746 0.102247 -0.323558
0.955098 0.093194 -0.328885
1.008187 0.086037 -0.331680
1.060359 0.080692 -0.331842
1.110784 0.077485 -0.328710
1.158581 0.076687 -0.321708
1.202946 0.078452 -0.310455
1.243288 0.082821 -0.294799
1.279358 0.089685 -0.274883
1.311317 0.098773 -0.251154
1.339753 0.109663 -0.224340
1.365621 0.121817 -0.195369
1.390138 0.134621 -0.165292
-0.199436 0.497184 -0.199710
-0.132897 0.478257 -0.200192
-0.067055 0.459360 -0.201031
-0.002525 0.440506 -0.202541
0.060218 0.421678 -0.204963
0.120875 0.402847 -0.208455
0.179328 0.383992 -0.213088
0.235619 0.365118 -0.218865
0.289926 0.346271 -0.225730
0.342529 0.327531 -0.233582
0.393771 0.309004 -0.242288
0.444032 0.290806 -0.251690
0.493695 0.273052 -0.261617
0.543126 0.255851 -0.271887
0.592659 0.239300 -0.282312
0.642579 0.223488 -0.292698
0.693118 0.208500 -0.302846
0.744438 0.194425 -0.312540
0.796609 0.181341 -0.321554
0.849615 0.169365 -0.329613
0.903365 0.158691 -0.336340
0.957491 0.149571 -0.341185
1.011338 0.142242 -0.343542
1.064236 0.136606 -0.343284
1.115330 0.132956 -0.339725
1.163705 0.131533 -0.332252
1.208529 0.132462 -0.320469
1.249189 0.135763 -0.304209
1.285424 0.141321 -0.283617
1.317412 0.148872 -0.259160
1.345763 0.158029 -0.231579
1.371465 0.168305 -0.201821
1.395775 0.179155 -0.170949
-0.226822 0.559759 -0.227160
-0.158223 0.540211 -0.227063
-0.090336 0.520710 -0.227320
-0.023788 0.501283 -0.228245
0.040933 0.481925 -0.230076
0.103520 0.462614 -0.232964
0.163842 0.443331 -0.236976
0.221934 0.424080 -0.242112
0.277964 0.404901 -0.248315
0.332201 0.385870 -0.255484
0.384982 0.367089 -0.263493
0.436682 0.348672 -0.272187
0.487683 0.330735 -0.281400
0.538356 0.313384 -0.290955
0.589039 0.296719 -0.300668
0.640029 0.280826 -0.310351
0.691568 0.265788 -0.319807
0.743830 0.251683 -0.328825
0.796901 0.238584 -0.337195
0.850778 0.226594 -0.344649
0.905382 0.215895 -0.350743
0.960347 0.206710 -0.354995
1.015010 0.199228 -0.356788
1.068683 0.193324 -0.355977
1.120483 0.189241 -0.351866
1.169461 0.187176 -0.343825
1.214751 0.187224 -0.331433
1.255719 0.189388 -0.314508
1.292097 0.193549 -0.293185
1.324067 0.199466 -0.267935
1.352266 0.206787 -0.239513
1.377723 0.215084 -0.208881
1.401739 0.223878 -0.177120
-0.254673 0.622781 -0.255073
-0.184221 0.602641 -0.254633
-0.114481 0.582565 -0.254539
-0.046083 0.562595 -0.255095
0.020488 0.542741 -0.256532
0.084916 0.522989 -0.258992
0.147068 0.503322 -0.262536
0.206967 0.483742 -0.267159
0.264768 0.464282 -0.272800
0.320726 0.445012 -0.279364
0.375166 0.426026 -0.286724
0.428448 0.407436 -0.294735
0.480948 0.389356 -0.303234
0.533035 0.371895 -0.312050
0.585049 0.355152 -0.321002
0.637295 0.339220 -0.329904
0.690024 0.324180 -0.338562
0.743420 0.310110 -0.346769
0.797564 0.297052 -0.354332
0.852420 0.285025 -0.361056
0.907975 0.274320 -0.366438
0.963822 0.265030 -0.370035
1.019308 0.257326 -0.371218
1.073756 0.251081 -0.369812
1.126257 0.246494 -0.365105
1.175830 0.243716 -0.356447
1.221575 0.242805 -0.343396
1.262829 0.243746 -0.325749
1.299312 0.246419 -0.303631
1.331211 0.250605 -0.277511
1.359191 0.255992 -0.248158
1.384310 0.262212 -0.216541
1.407933 0.268854 -0.183773
-0.282872 0.686354 -0.283331
-0.210764 0.665669 -0.282758
-0.139355 0.645065 -0.282517
-0.069266 0.624600 -0.282900
-0.000979 0.604299 -0.284124
0.065198 0.584155 -0.286322
0.129124 0.564156 -0.289547
0.190815 0.544300 -0.293785
0.250413 0.524613 -0.298975
0.308155 0.505157 -0.305019
0.364344 0.486017 -0.311796
0.419326 0.467298 -0.319168
0.473459 0.449109 -0.326978
0.527099 0.431556 -0.335064
0.580575 0.414732 -0.343258
0.634184 0.398722 -0.351386
0.688173 0.383597 -0.359268
0.742730 0.369422 -0.366717
0.797991 0.356294 -0.373497
0.854013 0.344337 -0.379331
0.910682 0.333681 -0.383837
0.967555 0.324339 -0.386618
1.023975 0.316446 -0.387040
1.079268 0.309862 -0.384912
1.132508 0.304740 -0.379507
1.182688 0.301194 -0.370152
1.228881 0.299255 -0.356370
1.270401 0.298890 -0.337934
1.306951 0.299985 -0.314947
1.338719 0.302344 -0.287866
1.366402 0.305701 -0.257471
1.391104 0.309745 -0.224756
1.414240 0.314138 -0.190852
-0.311269 0.750549 -0.311783
-0.237687 0.729387 -0.311259
-0.164784 0.708322 -0.311051
-0.093161 0.687429 -0.311433
-0.023287 0.666745 -0.312607
0.044536 0.646273 -0.314697
0.110168 0.626005 -0.317742
0.173618 0.605934 -0.321723
0.235013 0.586080 -0.326573
0.294571 0.566494 -0.332193
0.352576 0.547253 -0.338464
0.409350 0.528453 -0.345250
0.465232 0.510200 -0.352404
0.520562 0.492595 -0.359770
0.575658 0.475732 -0.367187
0.630809 0.459694 -0.374491
0.686257 0.444550 -0.381513
0.742189 0.430360 -0.388075
0.798740 0.417212 -0.393957
0.855962 0.405215 -0.398891
0.913740 0.394477 -0.402515
0.971635 0.384978 -0.404442
1.028984 0.376807 -0.404050
1.085120 0.369803 -0.401141
1.139093 0.364071 -0.394974
1.189870 0.359681 -0.384857
1.236495 0.356631 -0.370282
1.278253 0.354872 -0.350991
1.314833 0.354295 -0.327059
1.346428 0.354730 -0.298934
1.373748 0.355957 -0.267391
1.397951 0.357726 -0.233450
1.420514 0.359769 -0.198278
-0.339676 0.815391 -0.340237
-0.264793 0.793844 -0.339922
-0.190560 0.772409 -0.339902
-0.117554 0.751175 -0.340433
-0.046225 0.730190 -0.341705
0.023136 0.709470 -0.343823
0.090392 0.689006 -0.346821
0.155547 0.668792 -0.350667
0.218715 0.648838 -0.355288
0.280096 0.629184 -0.360583
0.339951 0.609898 -0.366430
0.398577 0.591066 -0.372697
0.456290 0.572789 -0.379242
0.513410 0.555164 -0.385916
0.570237 0.538283 -0.392568
0.627045 0.522226 -0.399043
0.684069 0.507060 -0.405184
0.741486 0.492839 -0.410826
0.799424 0.479643 -0.415762
0.857926 0.467566 -0.419740
0.916870 0.456693 -0.422413
0.975825 0.446974 -0.423415
1.034119 0.438455 -0.422134
1.091099 0.430955 -0.418369
1.145796 0.424534 -0.411370
1.197152 0.419216 -0.400425
1.244187 0.414967 -0.384996
1.286159 0.411725 -0.364786
1.322742 0.409381 -0.339842
1.354121 0.407794 -0.310587
1.381030 0.406791 -0.277799
1.404675 0.406181 -0.242519
1.426600 0.405768 -0.205957
-0.367857 0.880847 -0.368460
-0.291838 0.859033 -0.368491
-0.216436 0.837343 -0.368796
-0.142199 0.815876 -0.369611
-0.069550 0.794694 -0.371109
0.001231 0.773820 -0.373383
0.070015 0.753250 -0.376454
0.136802 0.732974 -0.380280
0.201696 0.712996 -0.384781
0.264878 0.693345 -0.389847
0.326586 0.674075 -0.395357
0.387093 0.655265 -0.401176
0.446689 0.637007 -0.407168
0.505666 0.619393 -0.413191
0.564303 0.602512 -0.419101
0.622856 0.586441 -0.424753
0.681542 0.571244 -0.429999
0.740527 0.556968 -0.434691
0.799922 0.543684 -0.438648
0.859758 0.531474 -0.441617
0.919903 0.520398 -0.443298
0.979928 0.510382 -0.443314
1.039164 0.501429 -0.441078
1.096968 0.493346 -0.436386
1.152364 0.486145 -0.428489
1.204274 0.479807 -0.416657
1.251696 0.474270 -0.400318
1.293864 0.469452 -0.379137
1.330425 0.465248 -0.353120
1.361566 0.461542 -0.322666
1.388036 0.458206 -0.288551
1.411085 0.455112 -0.251838
1.432330 0.452137 -0.213783
-0.395534 0.946823 -0.396173
-0.318544 0.924882 -0.396672
-0.242133 0.903073 -0.397423
-0.166815 0.881506 -0.398642
-0.092990 0.860250 -0.400484
-0.020915 0.839337 -0.403028
0.049285 0.818766 -0.406285
0.117611 0.798524 -0.410201
0.184158 0.778609 -0.414684
0.249092 0.759037 -0.419618
0.312628 0.739851 -0.424876
0.375012 0.721121 -0.430322
0.436505 0.702926 -0.435821
0.497372 0.685356 -0.441239
0.557865 0.668492 -0.446438
0.618215 0.652408 -0.451287
0.678617 0.637164 -0.455654
0.739218 0.622802 -0.459403
0.800110 0.609383 -0.462357
0.861303 0.596974 -0.464292
0.922652 0.585615 -0.464902
0.983734 0.575207 -0.463864
1.043880 0.565720 -0.460608
1.102473 0.556951 -0.454927
1.158529 0.548869 -0.446075
1.210957 0.541417 -0.433301
1.258740 0.534500 -0.416006
1.301085 0.528017 -0.393810
1.337620 0.521864 -0.366678
1.368519 0.515947 -0.334980
1.394545 0.510181 -0.299480
1.416992 0.504500 -0.261267
1.437547 0.498857 -0.221645
-0.422382 1.013149 -0.423053
-0.344588 0.991244 -0.424131
-0.267332 0.969477 -0.425437
-0.191094 0.947963 -0.427169
-0.116241 0.926777 -0.429462
-0.043016 0.905958 -0.432384
0.028472 0.885507 -0.435930
0.098224 0.865411 -0.440037
0.166329 0.845657 -0.444601
0.232937 0.826252 -0.449497
0.298242 0.807226 -0.454587
0.362465 0.788637 -0.459736
0.425836 0.770554 -0.464807
0.488589 0.753056 -0.469671
0.550946 0.736222 -0.474200
0.613108 0.720118 -0.478271
0.675243 0.704798 -0.481766
0.737474 0.690303 -0.484563
0.799865 0.676682 -0.486499
0.862405 0.663991 -0.487366
0.924929 0.652251 -0.486878
0.987025 0.641350 -0.484742
1.048024 0.631224 -0.480407
1.107348 0.621664 -0.473683
1.164010 0.612604 -0.463822
1.216914 0.603945 -0.450064
1.265031 0.595563 -0.431779
1.307546 0.587336 -0.408544
1.344063 0.579157 -0.380279
1.374740 0.570947 -0.347316
1.400346 0.562664 -0.310407
1.422217 0.554304 -0.270664
1.442107 0.545897 -0.229440
-0.448041 1.079583 -0.448738
-0.369615 1.057899 -0.450495
-0.291686 1.036353 -0.452457
-0.214693 1.015062 -0.454800
-0.138978 0.994111 -0.457645
-0.064757 0.973537 -0.461044
0.007872 0.953345 -0.464979
0.078915 0.933519 -0.469373
0.148454 0.914039 -0.474112
0.216630 0.894899 -0.479058
0.283616 0.876117 -0.484065
0.349605 0.857735 -0.488993
0.414799 0.839812 -0.493704
0.479397 0.822417 -0.498071
0.543588 0.805618 -0.501977
0.607540 0.789477 -0.505306
0.671387 0.774046 -0.507952
0.735221 0.759358 -0.509808
0.799076 0.745462 -0.510722
0.862911 0.732400 -0.510501
0.926544 0.720178 -0.508879
0.989577 0.708673 -0.505598
1.051351 0.697796 -0.500138
1.111330 0.687338 -0.492320
1.168532 0.677198 -0.481407
1.221868 0.667243 -0.466632
1.270296 0.657319 -0.447338
1.312985 0.647281 -0.423062
1.349510 0.637012 -0.393671
1.380011 0.626447 -0.359458
1.405254 0.615580 -0.321157
1.426612 0.604467 -0.279897
1.445903 0.593218 -0.237085
-0.472125 1.145811 -0.472842
-0.393246 1.124543 -0.475366
-0.314823 1.103411 -0.478072
-0.237255 1.082533 -0.481117
-0.160851 1.061993 -0.484604
-0.085805 1.041831 -0.488570
-0.012201 1.022053 -0.492986
0.059974 1.002637 -0.497759
0.130801 0.983556 -0.502764
0.200409 0.964791 -0.507848
0.268952 0.946346 -0.512856
0.336599 0.928248 -0.517641
0.403520 0.910541 -0.522062
0.469881 0.893284 -0.525998
0.535832 0.876534 -0.529332
0.601505 0.860349 -0.531963
0.666998 0.844772 -0.533794
0.732366 0.829838 -0.534725
0.797610 0.815584 -0.534619
0.862656 0.802048 -0.533292
0.927304 0.789223 -0.530505
0.991176 0.776986 -0.526040
1.053630 0.765231 -0.519413
1.114172 0.753757 -0.510460
1.171847 0.742439 -0.498475
1.225564 0.731108 -0.482671
1.274288 0.719579 -0.462374
1.317166 0.707681 -0.437079
1.353747 0.695283 -0.406604
1.384143 0.682325 -0.371196
1.409119 0.668833 -0.331569
1.430069 0.654923 -0.288861
1.448872 0.640782 -0.244531
-0.494227 1.211445 -0.494961
-0.415083 1.190795 -0.498325
-0.336351 1.170278 -0.501850
-0.258396 1.150009 -0.505674
-0.181492 1.130069 -0.509882
-0.105809 1.110499 -0.514498
-0.031415 1.091300 -0.519476
0.041711 1.072448 -0.524717
0.113650 1.053903 -0.530073
0.184523 1.035634 -0.535383
0.254468 1.017628 -0.540477
0.323626 0.999896 -0.545198
0.392138 0.982469 -0.549404
0.460132 0.965392 -0.552972
0.527723 0.948712 -0.555793
0.594999 0.932477 -0.557772
0.662020 0.916727 -0.558821
0.728807 0.901489 -0.558855
0.795323 0.886795 -0.557743
0.861465 0.872673 -0.555318
0.927015 0.859115 -0.551357
0.991614 0.846010 -0.545689
1.054641 0.833251 -0.537870
1.115661 0.820652 -0.527770
1.173731 0.808061 -0.514686
1.227788 0.795286 -0.497856
1.276797 0.782110 -0.476583
1.319895 0.768329 -0.450323
1.356601 0.753791 -0.418843
1.386997 0.738436 -0.382341
1.411838 0.722316 -0.341506
1.432531 0.705602 -0.297480
1.451007 0.688562 -0.251768
-0.513929 1.276021 -0.514677
-0.434713 1.256193 -0.518935
-0.355869 1.236491 -0.523337
-0.277725 1.217029 -0.528000
-0.200523 1.197883 -0.532997
-0.124409 1.179089 -0.538333
-0.049431 1.160645 -0.543952
0.024442 1.142517 -0.549736
0.097292 1.124654 -0.555528
0.169234 1.107011 -0.561147
0.240389 1.089556 -0.566412
0.310876 1.072282 -0.571154
0.380803 1.055203 -0.575224
0.450262 1.038348 -0.578495
0.519325 1.021755 -0.580862
0.588042 1.005463 -0.582233
0.656432 0.989506 -0.582529
0.724479 0.973907 -0.581678
0.792113 0.958693 -0.579568
0.859205 0.943884 -0.576049
0.925520 0.929474 -0.570933
0.990723 0.915378 -0.564082
1.054214 0.901503 -0.555087
1.115614 0.887684 -0.543850
1.174010 0.873752 -0.529694
1.228367 0.859491 -0.511873
1.277663 0.844650 -0.489681
1.321027 0.828993 -0.462544
1.357949 0.812342 -0.430178
1.388480 0.794626 -0.392732
1.413355 0.775919 -0.350863
1.433989 0.756441 -0.305714
1.452348 0.736544 -0.258822
-0.530792 1.338992 -0.531548
-0.451710 1.320183 -0.536741
-0.372964 1.301497 -0.542063
-0.294843 1.283037 -0.547613
-0.217563 1.264878 -0.553449
-0.141239 1.247047 -0.559563
-0.065902 1.229534 -0.565885
0.008490 1.212295 -0.572284
0.082024 1.195266 -0.578586
0.154807 1.178384 -0.584595
0.226949 1.161598 -0.590117
0.298544 1.144880 -0.594969
0.369671 1.128223 -0.598991
0.440386 1.111640 -0.602055
0.510721 1.095155 -0.604053
0.580684 1.078797 -0.604900
0.650256 1.062596 -0.604529
0.719386 1.046573 -0.602876
0.787967 1.030757 -0.599836
0.855843 1.015170 -0.595267
0.922760 0.999815 -0.588993
0.988416 0.984650 -0.580950
1.052241 0.969585 -0.570771
1.113917 0.954486 -0.558403
1.172567 0.939175 -0.543205
1.227190 0.923413 -0.524446
1.276782 0.906924 -0.501420
1.320469 0.889432 -0.473525
1.357718 0.870731 -0.440432
1.388546 0.850735 -0.402239
1.413660 0.829531 -0.359566
1.434473 0.807386 -0.313550
1.452975 0.784729 -0.265749
-0.544339 1.399720 -0.545101
-0.465622 1.382128 -0.551262
-0.387207 1.364652 -0.557536
-0.309349 1.347390 -0.564011
-0.232228 1.330406 -0.570727
-0.155939 1.313720 -0.577664
-0.080490 1.297310 -0.584739
-0.005829 1.281123 -0.591809
0.068136 1.265077 -0.598686
0.141506 1.249092 -0.605162
0.214379 1.233097 -0.611026
0.286827 1.217037 -0.616080
0.358902 1.200886 -0.620152
0.430624 1.184634 -0.623103
0.501988 1.168293 -0.624827
0.572961 1.151882 -0.625235
0.643487 1.135426 -0.624259
0.713480 1.118953 -0.621852
0.782802 1.102490 -0.617938
0.851272 1.086067 -0.612363
0.918631 1.069707 -0.605031
0.984596 1.053401 -0.595859
1.048640 1.037097 -0.584559
1.110498 1.020684 -0.571123
1.169339 1.003984 -0.554951
1.224201 0.986742 -0.535343
1.274108 0.968652 -0.511598
1.318187 0.949406 -0.483096
1.355886 0.928760 -0.449468
1.387191 0.906610 -0.410767
1.412779 0.883051 -0.367570
1.434046 0.858393 -0.320997
1.452979 0.833131 -0.272610
-0.554065 1.457488 -0.554828
-0.475984 1.441310 -0.561994
-0.398168 1.425242 -0.569258
-0.320841 1.409370 -0.576693
-0.244151 1.393747 -0.584325
-0.168166 1.378382 -0.592120
-0.092876 1.363242 -0.599985
-0.018217 1.348255 -0.607765
0.055902 1.333333 -0.615269
0.129580 1.318375 -0.622275
0.202899 1.303284 -0.628555
0.275914 1.287990 -0.633905
0.348650 1.272430 -0.638127
0.421096 1.256581 -0.641078
0.493211 1.240437 -0.642641
0.564928 1.224006 -0.642728
0.636153 1.207312 -0.641279
0.706769 1.190388 -0.638253
0.776606 1.173270 -0.633552
0.845463 1.155994 -0.627066
0.913107 1.138611 -0.618734
0.979246 1.121157 -0.608518
1.043394 1.103611 -0.596183
1.105349 1.085899 -0.581769
1.164325 1.067842 -0.564724
1.219406 1.049177 -0.544384
1.269650 1.029574 -0.520064
1.314196 1.008689 -0.491134
1.352479 0.986244 -0.457196
1.384455 0.962112 -0.418256
1.410762 0.936389 -0.374846
1.432768 0.909420 -0.328062
1.452450 0.881767 -0.279459
-0.559454 1.511531 -0.560216
-0.482345 1.496996 -0.568464
-0.405463 1.482558 -0.576793
-0.328995 1.468288 -0.585255
-0.253054 1.454222 -0.593857
-0.177677 1.440348 -0.602544
-0.102838 1.426619 -0.611215
-0.028465 1.412958 -0.619716
0.045527 1.399265 -0.627857
0.119224 1.385431 -0.635418
0.192692 1.371341 -0.642167
0.265968 1.356897 -0.647879
0.339053 1.342018 -0.652351
0.411912 1.326651 -0.655414
0.484473 1.310773 -0.656942
0.556639 1.294383 -0.656839
0.628285 1.277501 -0.655043
0.699272 1.260177 -0.651530
0.769409 1.242448 -0.646212
0.838480 1.224369 -0.638992
0.906213 1.206004 -0.629774
0.972383 1.187449 -0.618641
1.036535 1.168718 -0.605406
1.098511 1.149770 -0.590149
1.157571 1.130433 -0.572363
1.212865 1.110450 -0.551450
1.263476 1.089458 -0.526727
1.308568 1.067088 -0.497575
1.347567 1.043026 -0.463569
1.380403 1.017122 -0.424676
1.407675 0.989469 -0.381386
1.430710 0.960441 -0.334756
1.451449 0.930653 -0.286318
-0.560065 1.561137 -0.560821
-0.484264 1.548424 -0.570174
-0.408650 1.535790 -0.579588
-0.333368 1.523290 -0.589093
-0.258500 1.510937 -0.598676
-0.184053 1.498701 -0.608271
-0.109987 1.486521 -0.617770
-0.036228 1.474311 -0.627022
0.037302 1.461966 -0.635842
0.110679 1.449365 -0.644013
0.183953 1.436379 -0.651301
0.257145 1.422885 -0.657464
0.330237 1.408777 -0.662286
0.403170 1.393981 -0.665580
0.475852 1.378456 -0.667207
0.548155 1.362198 -0.667066
0.619935 1.345229 -0.665095
0.691027 1.327602 -0.661266
0.761227 1.309374 -0.655510
