Project4/BlueHour.cube
TITLE "BlueHour"
# Created by Photon 3D ColorGrading
DOMAIN_MIN 0 0 0
DOMAIN_MAX 1 1 1
LUT_3D_SIZE 5
-0.000010 -0.000010 -0.000010
0.347367 -0.113808 -0.111445
0.707462 -0.228694 -0.219106
1.089909 -0.288955 -0.264955
1.361071 -0.176148 -0.137840
-0.199436 0.497184 -0.199710
0.289926 0.346271 -0.225730
0.693118 0.208500 -0.302846
1.115330 0.132956 -0.339725
1.395775 0.179155 -0.170949
-0.422382 1.013149 -0.423053
0.166329 0.845657 -0.444601
0.675243 0.704798 -0.481766
1.164010 0.612604 -0.463822
1.442107 0.545897 -0.229440
-0.559454 1.511531 -0.560216
0.045527 1.399265 -0.627857
0.628285 1.277501 -0.655043
1.157571 1.130433 -0.572363
1.451449 0.930653 -0.286318
-0.443838 1.781243 -0.444486
0.037200 1.783005 -0.562877
0.552255 1.716869 -0.621034
1.059015 1.570520 -0.560531
1.428652 1.329753 -0.338635
-0.256877 -0.260998 0.597590
0.284461 -0.260776 0.370398
0.681953 -0.330379 0.209069
1.079032 -0.370555 0.141637
1.391744 -0.259084 0.191075
-0.377300 0.366986 0.400488
0.136799 0.193284 0.217256
0.611135 0.120678 0.136949
1.019994 0.111786 0.144217
1.359062 0.135833 0.189692
-0.587333 0.912883 0.171388
0.019363 0.728682 0.061468
0.581387 0.618789 0.029969
1.019896 0.552665 0.090472
1.332400 0.507113 0.191855
-0.747048 1.442234 -0.004708
-0.063945 1.260845 -0.050078
0.534500 1.123215 -0.064121
1.009870 0.992114 0.017178
1.304775 0.848274 0.178873
-0.684851 1.840837 -0.037326
-0.093021 1.707909 -0.087895
0.458716 1.531413 -0.081771
0.934438 1.371082 -0.009925
1.277126 1.181957 0.139352
-0.563899 -0.572327 1.194340
0.123447 -0.558661 0.921747
0.639271 -0.541391 0.702444
1.073648 -0.486419 0.587713
1.402351 -0.342021 0.547835
-0.696833 0.126312 1.002545
-0.064058 -0.023658 0.759744
0.537020 -0.012806 0.619053
0.971687 0.043235 0.557445
1.295529 0.110268 0.542250
-0.879788 0.752054 0.776077
-0.181516 0.581630 0.609625
0.464684 0.511433 0.531828
0.908176 0.491608 0.524552
1.215061 0.492920 0.557079
-0.938146 1.316841 0.576258
-0.201317 1.119709 0.477929
0.422196 0.969205 0.443448
0.877766 0.873111 0.477187
1.175772 0.799786 0.549113
-0.813127 1.736773 0.440799
-0.177063 1.546768 0.398536
0.397392 1.313432 0.396740
0.828693 1.197888 0.426254
1.166942 1.096421 0.494188
-0.814428 -0.821236 1.751763
-0.073604 -0.836240 1.506020
0.545749 -0.758076 1.264590
1.009152 -0.567671 1.046769
1.343746 -0.376393 0.905742
-0.976437 -0.126519 1.575923
-0.272181 -0.252215 1.385356
0.431373 -0.179365 1.138256
0.912277 -0.035850 0.959099
1.221615 0.095011 0.861192
-1.072283 0.536159 1.363634
-0.327182 0.401384 1.160163
0.340011 0.372454 0.983779
0.825315 0.427995 0.868547
1.128723 0.482377 0.832480
-0.956870 1.086530 1.099092
-0.250136 0.919284 0.932937
0.315586 0.830225 0.842567
0.776803 0.791578 0.804157
1.082667 0.781798 0.807719
-0.718433 1.440142 0.862098
-0.201156 1.352453 0.826270
0.346210 1.167039 0.763548
0.742128 1.087047 0.743736
1.076355 1.051152 0.761048
-0.790112 -0.796043 2.095248
-0.185852 -0.929363 2.024368
0.427186 -0.814520 1.747489
0.881629 -0.558737 1.424140
1.204768 -0.338755 1.204704
-1.074628 -0.270586 2.113093
-0.360764 -0.348767 1.936720
0.332622 -0.262379 1.606385
0.822014 -0.090285 1.322699
1.170916 0.053184 1.170997
-1.018375 0.356193 1.806055
-0.401574 0.283386 1.678939
0.293433 0.304680 1.338191
0.747251 0.365593 1.155467
1.090803 0.434304 1.090871
-0.800588 0.836606 1.446926
-0.300002 0.795392 1.377094
0.285959 0.728510 1.163989
0.696743 0.708538 1.059751
1.035435 0.738934 1.035445
-0.556552 1.150515 1.150736
-0.196921 1.177809 1.178122
0.272836 1.106475 1.106775
0.669790 1.033649 1.033926
0.999996 0.999995 0.999995
