Project4/CrispAutumn.cube
TITLE "CrispAutumn"
# Created by Photon 3D ColorGrading
DOMAIN_MIN 0 0 0
DOMAIN_MAX 1 1 1
LUT_3D_SIZE 5
0.000001 0.000001 0.000001
0.009923 -0.002645 -0.001408
0.428306 -0.134774 -0.092837
0.734887 -0.109546 -0.066918
1.084948 0.049204 0.087057
-0.000583 0.002292 0.000152
0.003583 0.002042 -0.001287
0.765033 0.153286 -0.383785
1.224626 0.210024 -0.441926
1.493307 0.355566 -0.196162
-0.170854 0.484481 -0.023965
0.421150 0.440296 -0.302747
1.048077 0.459576 -0.555159
1.520941 0.531771 -0.552054
1.764436 0.637286 -0.324450
-0.173156 0.801136 0.006296
0.516333 0.836152 -0.300907
1.225127 0.873685 -0.552981
1.656291 0.874437 -0.480240
1.800331 0.862749 -0.249926
-0.051009 1.145083 0.130247
0.528566 1.249819 -0.080688
1.238029 1.373411 -0.366549
1.623685 1.221876 -0.319233
1.124987 0.943915 0.636664
-0.000772 -0.000220 0.002909
0.054130 -0.045860 0.143820
0.412499 -0.151031 0.257959
0.772068 -0.089735 0.315659
1.120378 0.096021 0.450616
-0.008687 0.018852 0.022817
0.162626 0.157985 0.189625
0.655323 0.192672 0.116027
1.083283 0.288359 0.163105
1.386568 0.383468 0.289838
-0.219167 0.524527 0.281628
0.298262 0.544883 0.149856
0.866383 0.583203 0.078611
1.297866 0.631207 0.073555
1.554609 0.653689 0.140871
-0.164050 0.866866 0.340626
0.389123 0.938469 0.238873
0.986810 0.980753 0.086554
1.356218 0.925441 0.089821
1.212328 0.877481 0.517050
-0.000382 1.207002 0.459019
0.413273 1.300707 0.363202
0.915159 1.350351 0.192272
1.318971 1.232413 0.113373
1.049791 0.972506 0.822926
-0.196526 -0.096363 0.541890
0.093822 -0.144292 0.585806
0.443260 -0.142315 0.628447
0.861414 -0.040524 0.713372
1.216696 0.130108 0.795274
-0.234606 0.208872 0.592549
0.141532 0.225426 0.624461
0.586413 0.281999 0.658238
0.993453 0.346486 0.696780
1.301721 0.389178 0.710922
-0.224285 0.566709 0.636334
0.247336 0.627293 0.666088
0.726422 0.691010 0.675903
1.097267 0.675577 0.610392
1.033905 0.928905 0.916308
-0.133207 0.967593 0.724369
0.311307 1.020227 0.727599
0.764675 1.021990 0.638570
1.102259 0.946202 0.559280
1.001449 0.997628 0.994325
0.035857 1.307350 0.793530
0.343826 1.323135 0.730573
0.963959 1.017031 0.956978
1.040722 1.134663 0.600367
1.001855 0.998951 0.992302
-0.198654 -0.078777 0.879323
0.154454 -0.070102 0.910577
0.533527 -0.040592 1.003039
0.963290 0.031371 1.110030
1.261921 0.186197 1.103292
-0.174167 0.261288 0.931755
0.197387 0.304089 1.017842
0.596199 0.352854 1.064354
0.946717 0.382169 1.077870
1.229141 0.410290 1.018627
-0.128945 0.647511 1.021362
0.268235 0.690698 1.066845
0.634024 0.697031 1.059909
0.923567 0.656117 0.990637
1.025450 0.915359 0.987704
-0.051123 1.054345 1.116869
0.306771 1.023479 1.088772
0.620076 0.972249 1.010483
0.914548 0.913910 0.929334
1.000145 0.999474 0.999912
0.085640 1.367374 1.126740
0.494364 1.197998 1.004989
0.984076 1.004194 0.998142
0.999652 1.001235 0.995706
0.999983 0.999991 1.000000
-0.047369 0.070451 1.208114
0.287704 0.119154 1.233217
0.613036 0.156819 1.303350
0.930049 0.198249 1.354372
1.061417 0.630502 1.124663
0.009816 0.391336 1.254607
0.317765 0.409614 1.314479
0.613435 0.404260 1.332021
0.904576 0.622490 1.145754
1.032642 0.769100 1.070267
0.052003 0.716088 1.338919
0.323112 0.696774 1.349231
0.805551 0.831661 1.086135
0.998804 0.997645 1.000604
1.013700 0.885430 1.031747
0.095713 1.043447 1.398211
0.574043 0.953333 1.163805
0.992671 0.997568 1.001833
0.999980 0.999988 1.000000
1.001254 0.987707 1.003153
0.632610 1.099991 1.124673
0.767056 1.057300 1.072502
0.883633 1.025929 1.033333
0.987495 1.002548 1.003334
1.000000 1.000000 1.000000
