Project4/CrispAutumn.cube
TITLE "CrispAutumn"
# Created by Photon 3D ColorGrading
DOMAIN_MIN 0 0 0
DOMAIN_MAX 1 1 1
LUT_3D_SIZE 9
0.000001 0.000001 0.000001
0.000007 -0.000002 0.000010
0.009923 -0.002645 -0.001408
0.165043 -0.050349 -0.031604
0.428306 -0.134774 -0.092837
0.577345 -0.143482 -0.099209
0.734887 -0.109546 -0.066918
0.903471 -0.041529 -0.001954
1.084948 0.049204 0.087057
0.000001 0.000010 0.000020
0.006525 0.016263 -0.004057
0.015226 -0.000794 -0.004133
0.101812 0.003972 -0.032099
0.563698 0.016097 -0.228625
0.823554 0.014942 -0.307195
0.997543 0.051194 -0.276784
1.161056 0.114242 -0.196596
1.295187 0.206085 -0.062959
-0.000583 0.002292 0.000152
0.013254 0.071683 -0.017907
0.003583 0.002042 -0.001287
0.211158 0.072387 -0.089931
0.765033 0.153286 -0.383785
1.026689 0.168198 -0.463832
1.224626 0.210024 -0.441926
1.387911 0.273208 -0.353643
1.493307 0.355566 -0.196162
-0.039739 0.133634 0.001506
0.044014 0.196103 -0.058392
0.101997 0.079531 -0.049360
0.577287 0.266431 -0.325815
0.927877 0.298089 -0.497509
1.179360 0.321050 -0.548519
1.397191 0.369248 -0.532100
1.561574 0.431867 -0.444306
1.656452 0.500549 -0.288451
-0.170854 0.484481 -0.023965
0.136542 0.477014 -0.171028
0.421150 0.440296 -0.302747
0.762406 0.461372 -0.477842
1.048077 0.459576 -0.555159
1.305192 0.484751 -0.580652
1.520941 0.531771 -0.552054
1.671385 0.585891 -0.460192
1.764436 0.637286 -0.324450
-0.197594 0.651134 -0.023435
0.157269 0.649844 -0.184620
0.496696 0.655242 -0.363352
0.839236 0.650849 -0.506680
1.155371 0.652685 -0.579786
1.416692 0.670192 -0.584675
1.607435 0.700330 -0.528187
1.728787 0.731550 -0.425575
1.816528 0.759773 -0.312701
-0.173156 0.801136 0.006296
0.175264 0.807754 -0.131446
0.516333 0.836152 -0.300907
0.879361 0.859953 -0.459455
1.225127 0.873685 -0.552981
1.493674 0.877738 -0.557920
1.656291 0.874437 -0.480240
1.750352 0.868844 -0.373079
1.800331 0.862749 -0.249926
-0.116723 0.962225 0.060205
0.193831 0.993984 -0.061750
0.523850 1.031325 -0.197991
0.884329 1.076970 -0.351428
1.239841 1.106132 -0.465810
1.509947 1.094282 -0.483971
1.659669 1.049756 -0.410440
1.730179 0.997587 -0.302261
1.433294 0.910221 0.186445
-0.051009 1.145083 0.130247
0.225735 1.187510 0.039758
0.528566 1.249819 -0.080688
0.883072 1.331326 -0.238134
1.238029 1.373411 -0.366549
1.481566 1.317217 -0.376689
1.623685 1.221876 -0.319233
1.531250 1.077814 -0.030406
1.124987 0.943915 0.636664
0.000001 0.000009 0.000020
0.001616 -0.011511 0.044730
0.000839 -0.000577 0.001895
0.060427 -0.018799 0.019164
0.402513 -0.133434 0.078633
0.577383 -0.143189 0.084991
0.747827 -0.101864 0.120987
0.924598 -0.027170 0.185441
1.094804 0.074904 0.273181
0.000001 0.000010 0.000022
0.046151 0.076770 0.125114
0.193233 0.040511 0.068238
0.367675 0.000179 -0.011996
0.570951 0.000601 -0.053542
0.769710 0.022172 -0.060791
0.961649 0.066006 -0.024832
1.129726 0.136474 0.055053
1.268597 0.226297 0.161781
-0.000233 0.000594 0.000324
0.040647 0.196806 0.074582
0.240096 0.162760 -0.019987
0.481521 0.162363 -0.095678
0.723578 0.173759 -0.154733
0.953533 0.202887 -0.175761
1.158177 0.248544 -0.146399
1.316332 0.308230 -0.062589
1.437017 0.373137 0.051478
-0.037460 0.110694 0.041766
0.035037 0.338308 0.013312
0.317464 0.331157 -0.072443
0.587947 0.332970 -0.155707
0.849330 0.346026 -0.212046
1.098070 0.377290 -0.239307
1.311624 0.422252 -0.220411
1.465426 0.470856 -0.145074
1.578976 0.516360 -0.041172
-0.191026 0.498886 0.122452
0.061933 0.505986 0.001145
0.384343 0.508061 -0.102567
0.682535 0.512406 -0.190663
0.959781 0.523075 -0.241669
1.211051 0.549736 -0.260791
1.415308 0.586567 -0.239310
1.559979 0.621391 -0.175833
1.671584 0.650399 -0.096367
-0.206803 0.670235 0.135499
0.088945 0.677526 0.021590
0.430299 0.690926 -0.087780
0.755131 0.704347 -0.190619
1.052825 0.713981 -0.250583
1.299211 0.728721 -0.258280
1.478184 0.745481 -0.221645
1.603877 0.758812 -0.164434
1.699220 0.768300 -0.099863
-0.171156 0.831687 0.170103
0.115243 0.865748 0.068774
0.453843 0.889442 -0.036694
0.792522 0.912755 -0.151048
1.106680 0.922093 -0.227847
1.349691 0.916921 -0.234803
1.507473 0.903070 -0.189057
1.609680 0.885591 -0.131191
1.519117 0.859008 0.105772
-0.105486 0.999513 0.225285
0.158737 1.048127 0.145925
0.462647 1.087886 0.048291
0.788278 1.125555 -0.068087
1.108786 1.145039 -0.165624
1.348836 1.114130 -0.182250
1.499791 1.062600 -0.145040
1.548195 0.998613 -0.041331
1.226879 0.913534 0.475323
-0.023047 1.170844 0.297158
0.212545 1.217159 0.236378
0.467534 1.275048 0.151096
0.761760 1.336595 0.036523
1.072104 1.367117 -0.072196
1.317115 1.321852 -0.113400
1.466110 1.225289 -0.092596
1.364298 1.066409 0.207207
1.083541 0.957481 0.731158
-0.000772 -0.000220 0.002909
0.002915 -0.070911 0.261864
0.054130 -0.045860 0.143820
0.176303 -0.081465 0.182548
0.412499 -0.151031 0.257959
0.587180 -0.141438 0.274170
0.772068 -0.089735 0.315659
0.955472 -0.008969 0.376271
1.120378 0.096021 0.450616
-0.000387 0.000468 0.001411
-0.005489 0.052937 0.270705
0.146597 0.017951 0.228851
0.336857 0.019038 0.203510
0.532087 0.026568 0.187583
0.732831 0.054625 0.197330
0.937692 0.093271 0.232276
1.106705 0.164357 0.302057
1.255399 0.241143 0.375919
-0.008687 0.018852 0.022817
-0.000503 0.192911 0.239312
0.162626 0.157985 0.189625
0.405707 0.159694 0.133536
0.655323 0.192672 0.116027
0.885634 0.235009 0.125103
1.083283 0.288359 0.163105
1.250801 0.339323 0.218182
1.386568 0.383468 0.289838
-0.117612 0.256201 0.194398
0.017306 0.357079 0.227417
0.223239 0.339983 0.143917
0.510866 0.366369 0.112843
0.771024 0.395514 0.089421
1.011452 0.431350 0.080900
1.211657 0.469017 0.100953
1.373033 0.499940 0.140400
1.496804 0.521975 0.200735
-0.219167 0.524527 0.281628
0.042350 0.527289 0.228781
0.298262 0.544883 0.149856
0.600961 0.563795 0.112038
0.866383 0.583203 0.078611
1.106574 0.608337 0.063242
1.297866 0.631207 0.073555
1.451220 0.645712 0.092732
1.554609 0.653689 0.140871
-0.211496 0.692842 0.301042
0.073563 0.707175 0.252514
0.349113 0.753282 0.176914
0.667794 0.766359 0.118643
0.944722 0.774827 0.074147
1.171882 0.778839 0.063747
1.342771 0.780905 0.076026
1.479819 0.777035 0.083022
1.441029 0.780861 0.245001
-0.164050 0.866866 0.340626
0.097438 0.907294 0.292573
0.389123 0.938469 0.238873
0.693435 0.960759 0.160687
0.986810 0.980753 0.086554
1.202087 0.952874 0.076328
1.356218 0.925441 0.089821
1.455381 0.895258 0.117408
1.212328 0.877481 0.517050
-0.091992 1.042094 0.394397
0.143995 1.089694 0.356002
0.410952 1.130187 0.291483
0.696819 1.165478 0.201462
0.975363 1.169540 0.123334
1.199813 1.135115 0.091794
1.350626 1.074466 0.096552
1.366455 0.995323 0.222494
1.092478 0.938532 0.721013
-0.000382 1.207002 0.459019
0.199807 1.253111 0.421147
0.413273 1.300707 0.363202
0.653708 1.339350 0.280241
0.915159 1.350351 0.192272
1.153764 1.318005 0.130361
1.318971 1.232413 0.113373
1.281547 1.079418 0.327846
1.049791 0.972506 0.822926
-0.044823 -0.017462 0.146240
-0.032261 -0.110224 0.428562
0.103277 -0.134610 0.427322
0.250207 -0.155551 0.429861
0.420508 -0.158806 0.441690
0.612946 -0.131630 0.470995
0.812163 -0.070157 0.515925
1.001187 0.011509 0.568286
1.165656 0.112302 0.623345
-0.053088 0.032037 0.158514
-0.052251 0.033593 0.430994
0.109684 0.009612 0.414184
0.309260 0.022168 0.408750
0.512274 0.043308 0.415515
0.718508 0.081928 0.440813
0.922960 0.126518 0.484343
1.098765 0.188253 0.534470
1.258235 0.250438 0.576481
-0.131201 0.160858 0.311991
-0.048671 0.191136 0.419743
0.156216 0.204473 0.419313
0.376327 0.214933 0.399472
0.599470 0.259900 0.406692
0.834705 0.279604 0.412430
1.027084 0.323645 0.446484
1.197113 0.359600 0.476994
1.343375 0.385515 0.511423
-0.220680 0.365476 0.430278
-0.027100 0.372368 0.422093
0.209774 0.389115 0.414817
0.444459 0.399187 0.382698
0.700269 0.446262 0.388401
0.928495 0.477893 0.387662
1.126468 0.502907 0.393068
1.284258 0.514396 0.406441
1.391376 0.526713 0.443239
-0.231903 0.540324 0.450841
0.009667 0.560787 0.437658
0.278890 0.581110 0.432085
0.522756 0.604778 0.419748
0.783297 0.638647 0.382357
1.004590 0.653651 0.368616
1.193983 0.661144 0.354677
1.333717 0.656829 0.351898
1.277548 0.716285 0.514677
-0.207120 0.724336 0.480994
0.052873 0.751793 0.470077
0.309648 0.796665 0.450633
0.584833 0.810022 0.420337
0.848782 0.838774 0.382234
1.051332 0.819030 0.361962
1.222898 0.804182 0.338859
1.319485 0.789960 0.355616
1.123171 0.864741 0.697167
-0.151153 0.911994 0.524595
0.088338 0.950349 0.515986
0.343301 0.986226 0.491220
0.616125 1.008296 0.432922
0.863322 1.004178 0.381505
1.075142 0.984686 0.350448
1.222921 0.940278 0.333979
1.258434 0.902546 0.417538
1.049645 0.943373 0.839572
-0.077040 1.094320 0.573546
0.136600 1.129215 0.562274
0.365840 1.157708 0.523238
0.605035 1.178969 0.457843
0.846588 1.174311 0.389694
1.050890 1.135698 0.343920
1.209493 1.080046 0.317936
1.224515 0.998453 0.438650
1.021909 0.978619 0.917443
0.017610 1.255445 0.622912
0.190259 1.291902 0.598003
0.369929 1.319788 0.554998
0.576866 1.312817 0.503700
0.835201 1.200824 0.565183
1.003871 1.208455 0.473686
1.173015 1.221362 0.311911
1.236320 1.107950 0.376958
1.020519 0.988235 0.919783
-0.196526 -0.096363 0.541890
-0.058998 -0.127385 0.577594
0.093822 -0.144292 0.585806
0.255191 -0.154885 0.601739
0.443260 -0.142315 0.628447
0.652402 -0.102745 0.668729
0.861414 -0.040524 0.713372
1.052424 0.036649 0.756921
1.216696 0.130108 0.795274
-0.216209 0.049944 0.568827
-0.073237 0.028828 0.596198
0.104460 0.023446 0.599261
0.308555 0.046948 0.611903
0.515282 0.075209 0.636910
0.723956 0.114357 0.670147
0.928502 0.155458 0.710028
1.105574 0.208438 0.741910
1.267572 0.259158 0.761611
-0.234606 0.208872 0.592549
-0.061218 0.203255 0.605997
0.141532 0.225426 0.624461
0.352928 0.236692 0.646798
0.586413 0.281999 0.658238
0.811413 0.307585 0.683453
0.993453 0.346486 0.696780
1.159182 0.372047 0.701566
1.301721 0.389178 0.710922
-0.238010 0.379498 0.608547
-0.030181 0.398387 0.624375
0.188533 0.423699 0.643301
0.426269 0.457462 0.656571
0.667835 0.485006 0.684009
0.876857 0.509110 0.665831
1.055657 0.521797 0.652677
1.202093 0.521911 0.644799
1.184026 0.655193 0.741563
-0.224285 0.566709 0.636334
0.012442 0.596489 0.650899
0.247336 0.627293 0.666088
0.479693 0.665657 0.681646
0.726422 0.691010 0.675903
0.926132 0.684520 0.639788
1.097267 0.675577 0.610392
1.190633 0.687045 0.624905
1.033905 0.928905 0.916308
-0.189425 0.767810 0.678411
0.055493 0.793717 0.688145
0.278932 0.839416 0.704907
0.528042 0.862776 0.688126
0.747688 0.851011 0.652559
0.955893 0.848217 0.625215
1.109956 0.814570 0.581104
1.127447 0.844957 0.688162
1.006040 0.988337 0.979689
-0.133207 0.967593 0.724369
0.090011 0.994234 0.731108
0.311307 1.020227 0.727599
0.545641 1.031481 0.686719
0.764675 1.021990 0.638570
0.941867 0.981896 0.597666
1.102259 0.946202 0.559280
1.115538 0.924666 0.675131
1.001449 0.997628 0.994325
-0.058565 1.151638 0.764464
0.136268 1.169348 0.758806
0.335447 1.178627 0.729465
0.536487 1.175118 0.681103
0.759151 1.136533 0.648996
0.933617 1.107246 0.591315
1.081228 1.073491 0.525263
1.145289 1.002558 0.565666
1.000418 0.999531 0.998266
0.035857 1.307350 0.793530
0.187273 1.324260 0.769499
0.343826 1.323135 0.730573
0.640666 1.183146 0.760598
0.963959 1.017031 0.956978
0.992192 1.020505 0.936786
1.040722 1.134663 0.600367
1.157209 1.112395 0.475244
1.001855 0.998951 0.992302
-0.229327 -0.109924 0.728582
-0.052424 -0.114182 0.726915
0.115256 -0.116189 0.740717
0.286635 -0.115101 0.769807
0.484004 -0.094427 0.810315
0.702022 -0.059608 0.863066
0.918539 -0.010651 0.913522
1.098590 0.067179 0.940665
1.252352 0.155680 0.958359
-0.230456 0.053011 0.743448
-0.059289 0.047750 0.764040
0.125903 0.053453 0.786434
0.330345 0.079907 0.814061
0.540933 0.107345 0.853129
0.751077 0.144842 0.886877
0.957461 0.175426 0.924951
1.118017 0.228630 0.928504
1.269618 0.273035 0.926186
-0.226753 0.222392 0.761908
-0.037912 0.232665 0.790273
0.156135 0.259001 0.830106
0.374104 0.290568 0.853816
0.588691 0.321003 0.876246
0.781622 0.346244 0.892085
0.987466 0.359101 0.927509
1.134096 0.382049 0.893296
1.252414 0.415874 0.882164
-0.213694 0.405217 0.789581
-0.001829 0.433790 0.818930
0.204481 0.465185 0.856935
0.420956 0.496695 0.880368
0.628031 0.516779 0.884770
0.794238 0.524454 0.873414
1.010844 0.530093 0.886060
1.139117 0.525756 0.845463
1.068282 0.806611 0.924118
-0.189705 0.605019 0.831146
0.036342 0.635635 0.855041
0.251539 0.664297 0.879748
0.461369 0.685543 0.889725
0.661029 0.692208 0.879665
0.851899 0.695467 0.881917
1.022490 0.679287 0.839175
1.104192 0.700455 0.827060
1.001230 0.995705 0.997707
-0.155254 0.816437 0.883093
0.071626 0.835299 0.895807
0.284011 0.847931 0.903631
0.481092 0.850469 0.895067
0.680479 0.862682 0.884353
0.877949 0.861799 0.865391
1.017484 0.813390 0.796369
1.050807 0.869825 0.867025
1.000003 0.999990 1.000008
-0.104032 1.021588 0.929423
0.103728 1.032833 0.933527
0.297968 1.043303 0.936799
0.497964 1.038767 0.904291
0.687900 1.021622 0.860514
0.852644 0.978527 0.806485
1.002201 0.941057 0.762504
1.055395 0.924592 0.803196
0.999974 0.999986 1.000000
-0.029241 1.199535 0.956265
0.147556 1.198250 0.943998
0.323109 1.187750 0.912827
0.498709 1.161343 0.870136
0.726297 1.092915 0.860557
0.889649 1.046403 0.844316
0.968015 1.035113 0.721569
1.071712 0.992934 0.689645
0.999975 0.999986 1.000000
0.058528 1.348652 0.965432
0.192508 1.342091 0.933473
0.376895 1.283106 0.889826
0.781823 1.078136 0.919819
0.994977 1.001442 0.997506
0.999884 1.000228 0.999247
0.998292 1.027079 0.912625
1.061097 1.086528 0.637801
0.999992 0.999999 1.000003
-0.198654 -0.078777 0.879323
-0.020909 -0.078446 0.888702
0.154454 -0.070102 0.910577
0.333275 -0.060361 0.950505
0.533527 -0.040592 1.003039
0.751269 -0.012898 1.063126
0.963290 0.031371 1.110030
1.130562 0.104812 1.117617
1.261921 0.186197 1.103292
-0.188987 0.087881 0.903316
-0.019798 0.088882 0.942781
0.170687 0.106786 0.970965
0.367979 0.131589 1.002864
0.570537 0.156333 1.041314
0.776265 0.181095 1.080133
0.965112 0.213674 1.099856
1.127603 0.249956 1.101751
1.255202 0.291942 1.066118
-0.174167 0.261288 0.931755
0.009915 0.279235 0.974689
0.197387 0.304089 1.017842
0.400255 0.332357 1.040606
0.596199 0.352854 1.064354
0.784175 0.367850 1.082165
0.946717 0.382169 1.077870
1.118918 0.389283 1.063825
1.229141 0.410290 1.018627
-0.153224 0.447041 0.970152
0.045495 0.476282 1.006154
0.238310 0.503797 1.041577
0.435117 0.523951 1.056202
0.621325 0.533219 1.067084
0.795462 0.534037 1.064500
0.939768 0.527530 1.039394
1.102146 0.518096 1.015296
1.111143 0.677604 0.975936
-0.128945 0.647511 1.021362
0.075732 0.672261 1.045442
0.268235 0.690698 1.066845
0.457388 0.699425 1.067995
0.634024 0.697031 1.059909
0.795959 0.682974 1.035117
0.923567 0.656117 0.990637
1.076355 0.645263 0.963351
1.025450 0.915359 0.987704
-0.099156 0.856868 1.077242
0.104374 0.865464 1.083237
0.290505 0.866281 1.086203
0.469370 0.860726 1.069236
0.635545 0.845113 1.041137
0.788625 0.818176 1.000405
0.919694 0.782992 0.957781
1.043628 0.776237 0.925367
1.003179 0.988793 0.997923
-0.051123 1.054345 1.116869
0.138474 1.043117 1.103808
0.306771 1.023479 1.088772
0.468390 1.002386 1.054913
0.620076 0.972249 1.010483
0.767594 0.940941 0.966017
0.914548 0.913910 0.929334
1.018915 0.880464 0.884145
1.000145 0.999474 0.999912
0.016855 1.221129 1.129083
0.169864 1.205365 1.109276
0.323180 1.180142 1.072858
0.471095 1.144506 1.027399
0.629188 1.095917 0.980513
0.790463 1.044781 0.947051
0.895792 1.007304 0.883241
1.001588 0.974041 0.831295
0.999989 0.999988 1.000002
0.085640 1.367374 1.126740
0.213036 1.335955 1.082456
0.494364 1.197998 1.004989
0.820014 1.054083 0.978721
0.984076 1.004194 0.998142
0.999466 1.000140 0.999992
0.999652 1.001235 0.995706
1.006161 1.036137 0.850166
0.999983 0.999991 1.000000
-0.137017 -0.020347 1.041556
0.024603 -0.023561 1.073916
0.201272 -0.007747 1.100082
0.384794 0.015718 1.132955
0.576238 0.043747 1.174413
0.771249 0.075433 1.217377
0.958137 0.112875 1.249117
1.121282 0.158350 1.257502
1.253160 0.213527 1.238556
-0.118586 0.146782 1.070795
0.046129 0.156545 1.114844
0.229248 0.177257 1.141069
0.412523 0.199333 1.167533
0.594536 0.218225 1.196918
0.774963 0.236302 1.221787
0.946202 0.256734 1.233471
1.094186 0.282372 1.223412
1.228943 0.309525 1.192291
-0.096886 0.318160 1.103904
0.079093 0.339159 1.143331
0.262555 0.360310 1.167440
0.438329 0.374358 1.189125
0.609065 0.381419 1.206361
0.776648 0.386514 1.212827
0.935183 0.394584 1.204360
1.070927 0.402150 1.179903
1.200284 0.403814 1.142525
-0.072877 0.497522 1.145422
0.106902 0.518606 1.175818
0.285364 0.533167 1.193004
0.451851 0.536902 1.203338
0.612390 0.533456 1.201490
0.772500 0.536381 1.180984
0.918771 0.539554 1.153306
1.040812 0.516639 1.127821
1.163281 0.504667 1.087415
-0.047569 0.686087 1.194357
0.128839 0.696742 1.210543
0.299371 0.699632 1.214002
0.457323 0.691972 1.205471
0.619897 0.686887 1.172393
0.796606 0.719225 1.111467
0.909465 0.691470 1.089981
1.007345 0.623273 1.073012
1.117622 0.623111 1.033244
-0.017558 0.877749 1.240543
0.149994 0.871928 1.237920
0.310730 0.860458 1.223274
0.464436 0.841145 1.191960
0.642911 0.834022 1.129608
0.824811 0.860724 1.060809
0.897644 0.804707 1.045149
0.973913 0.724844 1.021384
1.066209 0.771303 0.997289
0.022624 1.057596 1.269118
0.174210 1.035409 1.248585
0.322619 1.010188 1.216512
0.466862 0.978193 1.170821
0.615584 0.946065 1.113068
0.755875 0.920848 1.058771
0.860042 0.882453 1.019745
0.944140 0.826386 0.977080
1.019380 0.927300 0.994483
0.069936 1.215150 1.274568
0.198740 1.180802 1.240394
0.328990 1.144458 1.196270
0.453913 1.101731 1.145001
0.575400 1.055775 1.090304
0.696277 1.010651 1.037412
0.815708 0.969801 0.989988
0.933049 0.939050 0.952565
1.001657 0.993323 0.999535
0.115467 1.357139 1.266409
0.232489 1.313491 1.214257
0.443333 1.211290 1.127459
0.632065 1.126202 1.062802
0.787383 1.067251 1.025995
0.923320 1.022832 1.007933
0.987760 1.003554 1.001572
0.998848 1.004506 0.980791
0.999992 0.999995 1.000000
-0.047369 0.070451 1.208114
0.123217 0.096576 1.215487
0.287704 0.119154 1.233217
0.449560 0.138189 1.264852
0.613036 0.156819 1.303350
0.775705 0.177227 1.336397
0.930049 0.198249 1.354372
1.047614 0.296019 1.305276
1.061417 0.630502 1.124663
-0.016512 0.232939 1.226674
0.147406 0.251970 1.248483
0.305969 0.265795 1.275763
0.462369 0.274697 1.304550
0.617853 0.281415 1.326624
0.769127 0.288988 1.335261
0.909062 0.335013 1.304051
0.999120 0.541858 1.173793
1.045175 0.705034 1.094339
0.009816 0.391336 1.254607
0.165768 0.403598 1.285840
0.317765 0.409614 1.314479
0.467009 0.408436 1.332139
0.613435 0.404260 1.332021
0.765458 0.446084 1.278418
0.904576 0.622490 1.145754
0.981067 0.766342 1.071741
1.032642 0.769100 1.070267
0.031484 0.551008 1.294352
0.178639 0.556155 1.323182
0.322253 0.553294 1.341258
0.463347 0.541660 1.336733
0.640216 0.577293 1.256301
0.849191 0.750931 1.100412
0.959873 0.896358 1.029896
0.990531 0.924910 1.019617
1.022420 0.827965 1.049946
0.052003 0.716088 1.338919
0.188831 0.711061 1.352309
0.323112 0.696774 1.349231
0.510992 0.700891 1.267354
0.805551 0.831661 1.086135
0.974939 0.969622 1.009825
0.998804 0.997645 1.000604
0.999764 0.994014 1.001520
1.013700 0.885430 1.031747
0.073746 0.883079 1.376686
0.199230 0.864427 1.366792
0.373511 0.840586 1.301863
0.699946 0.873003 1.116546
0.955567 0.972859 1.013301
0.999448 0.999533 1.000069
0.999971 0.999984 1.000000
1.000080 0.999428 1.000210
1.006479 0.940907 1.015661
0.095713 1.043447 1.398211
0.258383 1.000990 1.333918
0.574043 0.953333 1.163805
0.854124 0.964894 1.042527
0.992671 0.997568 1.001833
0.999967 0.999982 1.000001
0.999980 0.999988 1.000000
0.999995 0.999888 1.000027
1.001254 0.987707 1.003153
0.235242 1.143440 1.328607
0.505832 1.059034 1.188022
0.738206 1.010903 1.082573
0.894263 0.998619 1.028702
0.985908 1.000288 1.003623
0.999068 1.000098 1.000204
0.999879 1.000013 1.000029
0.999991 0.999995 1.000000
1.000000 0.999914 1.000021
0.632610 1.099991 1.124673
0.704412 1.076403 1.095968
0.767056 1.057300 1.072502
0.826077 1.040732 1.051934
0.883633 1.025929 1.033333
0.940127 1.012696 1.016464
0.987495 1.002548 1.003334
0.999908 1.000013 1.000022
1.000000 1.000000 1.000000
