Project4/CrispAutumn.cube
TITLE "CrispAutumn"
# Created by Photon 3D ColorGrading
DOMAIN_MIN 0 0 0
DOMAIN_MAX 1 1 1
LUT_3D_SIZE 33
0.000001 0.000001 0.000001
0.000001 0.000003 0.000006
0.000001 0.000005 0.000010
0.000001 0.000005 0.000013
0.000007 -0.000002 0.000010
0.000103 -0.000028 -0.000001
0.000659 -0.000174 -0.000074
0.002958 -0.000770 -0.000385
0.009923 -0.002645 -0.001408
0.026005 -0.007079 -0.003916
0.055543 -0.015599 -0.008987
0.101638 -0.029698 -0.017872
0.165043 -0.050349 -0.031604
0.241043 -0.076296 -0.049643
0.317315 -0.102480 -0.068499
0.380495 -0.122580 -0.083444
0.428306 -0.134774 -0.092837
0.467217 -0.141271 -0.098016
0.503457 -0.144416 -0.100530
0.539908 -0.145150 -0.100958
0.577345 -0.143482 -0.099209
0.615775 -0.139165 -0.095020
0.654984 -0.132029 -0.088214
0.694732 -0.122094 -0.078793
0.734887 -0.109546 -0.066918
0.775526 -0.094740 -0.052894
0.816951 -0.078169 -0.037143
0.859542 -0.060336 -0.020089
0.903471 -0.041529 -0.001954
0.948501 -0.021550 0.017478
0.994125 0.000446 0.039049
1.039694 0.024205 0.062428
1.084948 0.049204 0.087057
0.000001 0.000003 0.000006
0.004307 0.008001 -0.001932
0.008885 0.009423 -0.003240
0.014054 0.005865 -0.004179
0.019783 0.001856 -0.005275
0.026271 -0.000901 -0.006818
0.034483 -0.002827 -0.009000
0.045833 -0.004699 -0.012074
0.061713 -0.007307 -0.016276
0.083801 -0.011498 -0.021928
0.114440 -0.018064 -0.029680
0.156626 -0.027709 -0.040674
0.212770 -0.040936 -0.056207
0.281281 -0.057211 -0.076441
0.353997 -0.073953 -0.098945
0.420084 -0.087663 -0.119471
0.474950 -0.096959 -0.135167
0.520685 -0.102480 -0.145482
0.561693 -0.105195 -0.151381
0.601282 -0.105550 -0.153893
0.640914 -0.103506 -0.153400
0.680905 -0.098867 -0.149848
0.721149 -0.091523 -0.143171
0.761512 -0.081548 -0.133492
0.801982 -0.069170 -0.121110
0.842740 -0.054742 -0.106438
0.884091 -0.038689 -0.089926
0.926282 -0.021379 -0.071907
0.969265 -0.002959 -0.052440
1.012525 0.016903 -0.031057
1.055154 0.039226 -0.006499
1.096849 0.063521 0.020527
1.137819 0.089047 0.049063
0.000001 0.000005 0.000010
0.005896 0.017998 -0.003584
0.011261 0.021623 -0.005417
0.015951 0.013809 -0.005707
0.020878 0.005156 -0.005997
0.027240 0.000070 -0.007192
0.036324 -0.002489 -0.009521
0.049298 -0.004248 -0.013099
0.066484 -0.006269 -0.017954
0.088005 -0.009165 -0.024151
0.115475 -0.013224 -0.032233
0.152994 -0.018539 -0.043642
0.205828 -0.025213 -0.060537
0.275985 -0.033308 -0.084432
0.357980 -0.042331 -0.114164
0.440031 -0.051120 -0.145177
0.511928 -0.058503 -0.171775
0.570117 -0.063569 -0.190187
0.618206 -0.066061 -0.200788
0.661638 -0.066091 -0.205807
0.703650 -0.063672 -0.206683
0.745273 -0.058703 -0.203822
0.786618 -0.051138 -0.197328
0.827660 -0.041103 -0.187445
0.868506 -0.028861 -0.174600
0.909415 -0.014757 -0.159299
0.950691 0.000855 -0.142002
0.992454 0.017734 -0.122947
1.034459 0.035866 -0.102043
1.075951 0.055659 -0.078648
1.115661 0.078167 -0.051263
1.153683 0.102752 -0.020896
1.190583 0.128591 0.011243
0.000001 0.000007 0.000015
0.005766 0.030592 -0.005336
0.010083 0.037622 -0.007449
0.011640 0.024701 -0.006244
0.012449 0.010113 -0.004574
0.014884 0.002221 -0.004228
0.020020 -0.000740 -0.005304
0.028293 -0.001911 -0.007527
0.039521 -0.002888 -0.010721
0.053653 -0.004207 -0.014905
0.072719 -0.005835 -0.020742
0.102668 -0.007353 -0.030205
0.152685 -0.008314 -0.046796
0.229689 -0.008997 -0.074262
0.330572 -0.010743 -0.113456
0.439792 -0.014759 -0.159191
0.538094 -0.020285 -0.201279
0.614403 -0.024959 -0.230994
0.672049 -0.027269 -0.247807
0.720131 -0.026977 -0.255836
0.764761 -0.024168 -0.258229
0.808140 -0.018845 -0.256145
0.850706 -0.011034 -0.249929
0.892556 -0.000904 -0.239950
0.933892 0.011261 -0.226739
0.975033 0.025133 -0.210868
1.016256 0.040423 -0.192784
1.057562 0.056995 -0.172615
1.098543 0.074924 -0.150122
1.138271 0.094649 -0.124622
1.175233 0.117185 -0.094710
1.209887 0.141796 -0.061448
1.243093 0.167632 -0.026182
0.000001 0.000010 0.000020
0.005041 0.044488 -0.007318
0.008743 0.055798 -0.010011
0.008534 0.037678 -0.007575
0.006525 0.016263 -0.004057
0.005785 0.004632 -0.002201
0.007162 0.000630 -0.002017
0.010430 -0.000409 -0.002790
0.015226 -0.000794 -0.004133
0.021757 -0.001123 -0.006067
0.032521 -0.001146 -0.009356
0.054885 0.000111 -0.016408
0.101812 0.003972 -0.032099
0.185553 0.010430 -0.062657
0.305131 0.016540 -0.111055
0.440515 0.018503 -0.171303
0.563698 0.016097 -0.228625
0.656976 0.012653 -0.269415
0.723662 0.010913 -0.292298
0.776269 0.011676 -0.303276
0.823554 0.014942 -0.307195
0.868796 0.020661 -0.305956
0.912729 0.028757 -0.300138
0.955556 0.039032 -0.290212
0.997543 0.051194 -0.276784
1.039038 0.064939 -0.260464
1.080266 0.080040 -0.241670
1.121115 0.096433 -0.220473
1.161056 0.114242 -0.196596
1.199075 0.133880 -0.169280
1.233511 0.156266 -0.136884
1.265176 0.180613 -0.100929
1.295187 0.206085 -0.062959
-0.000000 0.000016 0.000025
0.004094 0.058950 -0.009583
0.008061 0.075588 -0.013334
0.008089 0.053121 -0.010224
0.005132 0.024311 -0.005134
0.002715 0.007671 -0.001926
0.002055 0.001663 -0.000820
0.002698 0.000189 -0.000754
0.004141 -0.000069 -0.001127
0.006843 0.000075 -0.001930
0.013843 0.001126 -0.004098
0.033937 0.004787 -0.010615
0.083006 0.013335 -0.027711
0.176058 0.026874 -0.063342
0.311075 0.040755 -0.121009
0.463432 0.048978 -0.192812
0.600359 0.050460 -0.260431
0.702356 0.049045 -0.307991
0.774037 0.048373 -0.334571
0.829812 0.049838 -0.347595
0.879475 0.053666 -0.352811
0.926624 0.059842 -0.352431
0.972068 0.068275 -0.347128
1.016053 0.078750 -0.337429
1.058881 0.090983 -0.323979
1.100886 0.104700 -0.307383
1.142224 0.119725 -0.288009
1.182665 0.136044 -0.265847
1.221604 0.153787 -0.240582
1.258013 0.173304 -0.211499
1.290192 0.195371 -0.177018
1.319262 0.219204 -0.138867
1.346540 0.244026 -0.098687
-0.000012 0.000064 0.000032
0.003300 0.074616 -0.012419
0.008390 0.098580 -0.017941
0.009933 0.073296 -0.014675
0.006687 0.036100 -0.007846
0.002927 0.012394 -0.002896
0.001043 0.003026 -0.000802
0.000646 0.000536 -0.000274
0.001162 0.000219 -0.000337
0.003443 0.000844 -0.001056
0.011933 0.003412 -0.003869
0.037780 0.010565 -0.012913
0.098542 0.025097 -0.035788
0.206967 0.046010 -0.080615
0.354922 0.066497 -0.148565
0.513460 0.079486 -0.228085
0.650605 0.084113 -0.299054
0.751320 0.084689 -0.347370
0.823126 0.085262 -0.374395
0.880430 0.087577 -0.388239
0.932097 0.092063 -0.394403
0.981152 0.098766 -0.394845
1.028227 0.107590 -0.390157
1.073544 0.118320 -0.380865
1.117405 0.130687 -0.367610
1.160096 0.144456 -0.350955
1.201668 0.159490 -0.331190
1.241759 0.175800 -0.308228
1.279686 0.193497 -0.281748
1.314524 0.212844 -0.251118
1.344857 0.234446 -0.214898
1.371914 0.257546 -0.175031
1.396944 0.281502 -0.133096
-0.000065 0.000453 0.000091
0.002749 0.092084 -0.016054
0.009627 0.125722 -0.024228
0.013350 0.099237 -0.021275
0.009813 0.052404 -0.012231
0.004419 0.019257 -0.004781
0.001348 0.005022 -0.001313
0.000508 0.001025 -0.000334
0.001363 0.000708 -0.000448
0.005840 0.002449 -0.001973
0.021108 0.008124 -0.007435
0.061271 0.021278 -0.022712
0.142775 0.043877 -0.056269
0.270465 0.072065 -0.114044
0.427059 0.096967 -0.192027
0.581557 0.112157 -0.274301
0.708251 0.118281 -0.341781
0.800827 0.120173 -0.385811
0.869810 0.121833 -0.410867
0.927723 0.125015 -0.424654
0.981167 0.130216 -0.431479
1.032107 0.137502 -0.432671
1.080885 0.146770 -0.428656
1.127673 0.157803 -0.419924
1.172733 0.170358 -0.407070
1.216273 0.184236 -0.390579
1.258226 0.199334 -0.370632
1.298149 0.215667 -0.347071
1.335379 0.233310 -0.319607
1.369039 0.252427 -0.287824
1.397595 0.273463 -0.250093
1.422749 0.295728 -0.208862
1.446027 0.318653 -0.165739
-0.000583 0.002292 0.000152
0.001914 0.111258 -0.020324
0.010756 0.155550 -0.031845
0.016903 0.128767 -0.029540
0.013254 0.071683 -0.017907
0.006256 0.027694 -0.007329
0.002045 0.007621 -0.002117
0.001137 0.001884 -0.000671
0.003583 0.002042 -0.001287
0.013541 0.006453 -0.004889
0.041835 0.018046 -0.015796
0.104187 0.040362 -0.041616
0.211158 0.072387 -0.089931
0.355649 0.106282 -0.161612
0.512779 0.132539 -0.246069
0.654371 0.147261 -0.324906
0.765033 0.153286 -0.383785
0.847403 0.155765 -0.420983
0.913126 0.158261 -0.443164
0.971554 0.162263 -0.456549
1.026689 0.168198 -0.463832
1.079454 0.176106 -0.465664
1.129940 0.185858 -0.462312
1.178265 0.197237 -0.454228
1.224626 0.210024 -0.441926
1.269122 0.224055 -0.425774
1.311545 0.239250 -0.405832
1.351357 0.255621 -0.381872
1.387911 0.273208 -0.353643
1.420465 0.292068 -0.320877
1.447678 0.312415 -0.282176
1.471424 0.333730 -0.240066
1.493307 0.355566 -0.196162
-0.002471 0.009463 0.000470
-0.000059 0.132926 -0.024774
0.010832 0.186374 -0.039968
0.019688 0.159314 -0.038550
0.016618 0.092545 -0.024372
0.008465 0.037583 -0.010453
0.003331 0.011203 -0.003297
0.003106 0.003833 -0.001543
0.009507 0.005769 -0.003594
0.029938 0.015647 -0.011590
0.078217 0.036807 -0.031844
0.167573 0.070583 -0.072412
0.297849 0.111054 -0.137071
0.450346 0.147316 -0.219408
0.598083 0.171662 -0.303546
0.721118 0.183921 -0.372989
0.815408 0.188881 -0.420980
0.889268 0.191519 -0.451372
0.952885 0.194678 -0.470977
1.012131 0.199442 -0.483938
1.068891 0.206100 -0.491504
1.123360 0.214638 -0.493817
1.175475 0.224896 -0.491047
1.225309 0.236652 -0.483604
1.272982 0.249706 -0.471913
1.318452 0.263918 -0.456200
1.361367 0.279216 -0.436399
1.401075 0.295584 -0.412215
1.436932 0.313004 -0.383433
1.468365 0.331483 -0.349812
1.494518 0.351162 -0.310574
1.517379 0.371530 -0.268117
1.538383 0.392256 -0.223980
-0.007874 0.029271 0.001157
-0.004177 0.160286 -0.029019
0.009704 0.218817 -0.048048
0.022328 0.191267 -0.047979
0.021184 0.116691 -0.031927
0.012471 0.051182 -0.014800
0.006701 0.017792 -0.005578
0.008719 0.009121 -0.004031
0.023309 0.015304 -0.009412
0.060914 0.034682 -0.025465
0.134855 0.068649 -0.059565
0.250278 0.113520 -0.117383
0.394708 0.158498 -0.195912
0.543146 0.192655 -0.281648
0.673459 0.212375 -0.357761
0.776946 0.221180 -0.414239
0.858163 0.224821 -0.451827
0.926671 0.227513 -0.476839
0.989583 0.231258 -0.494520
1.049882 0.236732 -0.507025
1.108112 0.244078 -0.514631
1.164088 0.253221 -0.517210
1.217674 0.263973 -0.514881
1.268901 0.276108 -0.508005
1.317793 0.289438 -0.496901
1.364161 0.303835 -0.481646
1.407518 0.319225 -0.462045
1.447170 0.335563 -0.437750
1.482493 0.352802 -0.408529
1.513182 0.370856 -0.374464
1.538472 0.389747 -0.335126
1.560501 0.409106 -0.292742
1.580845 0.428696 -0.248831
-0.019547 0.069616 0.001909
-0.011485 0.197700 -0.033195
0.007766 0.255731 -0.056387
0.026433 0.228287 -0.058801
0.029499 0.149325 -0.042355
0.021398 0.074111 -0.022461
0.015950 0.032691 -0.011132
0.023151 0.023317 -0.010871
0.051675 0.036960 -0.022660
0.112433 0.069412 -0.051230
0.212669 0.116480 -0.102399
0.345978 0.168145 -0.176034
0.491313 0.211616 -0.261417
0.625117 0.239521 -0.341582
0.734963 0.253182 -0.404228
0.822135 0.258561 -0.447553
0.894899 0.261128 -0.476893
0.960870 0.263950 -0.498110
1.023988 0.268241 -0.514294
1.085333 0.274357 -0.526165
1.144777 0.282324 -0.533495
1.201991 0.292013 -0.536068
1.256813 0.303210 -0.533981
1.309226 0.315689 -0.527530
1.359141 0.329268 -0.516906
1.406225 0.343819 -0.502045
1.449870 0.359252 -0.482638
1.489297 0.375495 -0.458268
1.523938 0.392455 -0.428763
1.553580 0.410020 -0.394279
1.578600 0.428049 -0.355466
1.600323 0.446368 -0.313688
1.620310 0.464824 -0.270400
-0.039739 0.133634 0.001506
-0.022862 0.247346 -0.038028
0.005186 0.299333 -0.065781
0.033067 0.273838 -0.072585
0.044014 0.196103 -0.058392
0.039954 0.114585 -0.037268
0.038108 0.065794 -0.024665
0.054858 0.056691 -0.027629
0.101997 0.079531 -0.049360
0.186630 0.124551 -0.093533
0.305847 0.179655 -0.160855
0.443518 0.230474 -0.243508
0.577287 0.266431 -0.325815
0.691275 0.285686 -0.393230
0.783096 0.293420 -0.441187
0.859406 0.296139 -0.473873
0.927877 0.298089 -0.497509
0.993128 0.301142 -0.516055
1.056812 0.305919 -0.530845
1.119018 0.312572 -0.541802
1.179360 0.321050 -0.548519
1.237491 0.331181 -0.550785
1.293249 0.342736 -0.548689
1.346553 0.355486 -0.542440
1.397191 0.369248 -0.532100
1.444698 0.383884 -0.517469
1.488375 0.399277 -0.498158
1.527502 0.415313 -0.473809
1.561574 0.431867 -0.444306
1.590549 0.448797 -0.409963
1.615142 0.465957 -0.371691
1.636586 0.483232 -0.330725
1.656452 0.500549 -0.288451
-0.069458 0.218952 -0.001734
-0.038810 0.308161 -0.044294
0.001604 0.349257 -0.076573
0.041949 0.328056 -0.089991
0.065813 0.259491 -0.082162
0.072717 0.180298 -0.063950
0.081066 0.129077 -0.053231
0.111734 0.121105 -0.062135
0.177236 0.150103 -0.095669
0.278211 0.200245 -0.153944
0.402658 0.253341 -0.230383
0.530960 0.294972 -0.311258
0.646080 0.319564 -0.381595
0.741546 0.330120 -0.433705
0.821124 0.333259 -0.469508
0.891887 0.334352 -0.495018
0.958899 0.336088 -0.514962
1.024338 0.339407 -0.531421
1.088613 0.344570 -0.544714
1.151421 0.351618 -0.554454
1.212334 0.360458 -0.560230
1.271038 0.370895 -0.561874
1.327370 0.382686 -0.559461
1.381189 0.395596 -0.553123
1.432158 0.409434 -0.542782
1.479667 0.424044 -0.528101
1.523067 0.439273 -0.508743
1.561584 0.454980 -0.484292
1.594954 0.471002 -0.454854
1.623394 0.487185 -0.420954
1.647665 0.503408 -0.383504
1.669061 0.519603 -0.343730
1.689035 0.535766 -0.302850
-0.106466 0.316676 -0.008503
-0.058284 0.375342 -0.051913
-0.003249 0.402302 -0.087947
0.051496 0.386866 -0.109540
0.092663 0.335169 -0.112810
0.118384 0.270180 -0.104390
0.144381 0.225030 -0.101441
0.190961 0.218306 -0.118873
0.268682 0.245565 -0.162123
0.373218 0.288884 -0.226933
0.489280 0.329465 -0.301198
0.600340 0.356557 -0.370408
0.697153 0.369400 -0.425000
0.779710 0.373119 -0.463895
0.853043 0.373403 -0.491534
0.921973 0.373733 -0.512711
0.989045 0.375484 -0.530155
1.055015 0.379025 -0.544747
1.119779 0.384437 -0.556386
1.182941 0.391715 -0.564642
1.244113 0.400749 -0.569175
1.303037 0.411326 -0.569877
1.359553 0.423198 -0.566818
1.413457 0.436118 -0.560049
1.464276 0.449882 -0.549348
1.511341 0.464307 -0.534320
1.554012 0.479213 -0.514637
1.591643 0.494424 -0.489997
1.624236 0.509766 -0.460729
1.652128 0.525090 -0.427433
1.676185 0.540298 -0.391066
1.697670 0.555374 -0.352765
1.717909 0.570365 -0.313569
-0.143256 0.410368 -0.017031
-0.077765 0.440188 -0.059610
-0.008771 0.453352 -0.098035
0.059349 0.443387 -0.127704
0.118165 0.411291 -0.144899
0.165819 0.368276 -0.152534
0.212719 0.336264 -0.163284
0.273796 0.330651 -0.190265
0.356115 0.348979 -0.237645
0.454201 0.376740 -0.298902
0.555572 0.399831 -0.361610
0.650027 0.412401 -0.415321
0.734278 0.416192 -0.456268
0.810387 0.415720 -0.486385
0.881818 0.414634 -0.509371
0.950950 0.414734 -0.527978
1.018759 0.416572 -0.543527
1.085371 0.420237 -0.556343
1.150527 0.425747 -0.566222
1.213844 0.433080 -0.572803
1.275006 0.442118 -0.575846
1.333813 0.452648 -0.575318
1.390111 0.464410 -0.571282
1.443620 0.477152 -0.563699
1.493782 0.490646 -0.552255
1.539994 0.504682 -0.536626
1.581511 0.519061 -0.516363
1.617994 0.533585 -0.491448
1.649635 0.548083 -0.462350
1.676931 0.562422 -0.429770
1.700815 0.576536 -0.394667
1.722455 0.590446 -0.358028
1.743026 0.604238 -0.320700
-0.170854 0.484481 -0.023965
-0.092672 0.494880 -0.065331
-0.013563 0.498702 -0.105124
0.064218 0.492972 -0.141124
0.136542 0.477014 -0.171028
0.202359 0.454773 -0.195546
0.267001 0.436945 -0.221377
0.338709 0.432452 -0.256441
0.421150 0.440296 -0.302747
0.510487 0.452083 -0.354734
0.599594 0.460252 -0.404035
0.683787 0.462699 -0.445314
0.762406 0.461372 -0.477842
0.836938 0.459036 -0.503448
0.908929 0.457543 -0.524123
0.979222 0.457669 -0.541147
1.048077 0.459576 -0.555159
1.115399 0.463255 -0.566312
1.180903 0.468706 -0.574430
1.244252 0.475910 -0.579254
1.305192 0.484751 -0.580652
1.363573 0.495018 -0.578651
1.419251 0.506452 -0.573324
1.471862 0.518784 -0.564528
1.520941 0.531771 -0.552054
1.565764 0.545181 -0.535435
1.605714 0.558792 -0.514348
1.640843 0.572416 -0.489111
1.671385 0.585891 -0.460192
1.698047 0.599111 -0.428424
1.721740 0.612041 -0.394686
1.743533 0.624730 -0.359812
1.764436 0.637286 -0.324450
-0.186788 0.537539 -0.027543
-0.101577 0.538910 -0.068105
-0.016772 0.538574 -0.108581
0.066521 0.535589 -0.148324
0.146694 0.529290 -0.186436
0.223481 0.520420 -0.222768
0.299155 0.512585 -0.259559
0.377258 0.509332 -0.299800
0.459302 0.510338 -0.343735
0.543477 0.512174 -0.388047
0.626789 0.512074 -0.428671
0.707502 0.509786 -0.463480
0.785451 0.506595 -0.492430
0.861094 0.503873 -0.516361
0.934794 0.502471 -0.536058
1.006695 0.502719 -0.552106
1.076789 0.504650 -0.564908
1.144918 0.508235 -0.574603
1.210797 0.513477 -0.581084
1.274115 0.520366 -0.584179
1.334682 0.528796 -0.583870
1.392365 0.538568 -0.580217
1.447035 0.549422 -0.573310
1.498383 0.561086 -0.563068
1.545781 0.573290 -0.549092
1.588774 0.585799 -0.531193
1.626952 0.598390 -0.509219
1.660460 0.610884 -0.483543
1.689804 0.623149 -0.454830
1.715758 0.635109 -0.423912
1.739212 0.646755 -0.391585
1.761101 0.658155 -0.358504
1.782270 0.669423 -0.325119
-0.194434 0.578348 -0.028147
-0.105932 0.576930 -0.068143
-0.018342 0.575550 -0.108727
0.067667 0.574132 -0.150008
0.151532 0.572315 -0.191871
0.233445 0.569847 -0.233970
0.314475 0.567280 -0.276389
0.396039 0.565405 -0.319366
0.478739 0.564060 -0.362235
0.561940 0.562298 -0.403243
0.644565 0.559577 -0.440654
0.725876 0.556228 -0.473557
0.805546 0.553012 -0.501779
0.883406 0.550633 -0.525503
0.959281 0.549552 -0.544977
1.033032 0.549962 -0.560528
1.104542 0.551874 -0.572499
1.173610 0.555272 -0.581047
1.239941 0.560166 -0.586122
1.303230 0.566558 -0.587629
1.363320 0.574361 -0.585636
1.420148 0.583394 -0.580306
1.473485 0.593398 -0.571617
1.523144 0.604103 -0.559619
1.568516 0.615227 -0.543933
1.609318 0.626541 -0.524527
1.645426 0.637838 -0.501504
1.677172 0.648968 -0.475366
1.705227 0.659834 -0.446868
1.730402 0.670389 -0.416814
1.753530 0.680644 -0.385884
1.775414 0.690672 -0.354556
1.796728 0.700580 -0.323091
-0.197463 0.614981 -0.026639
-0.107385 0.613115 -0.065908
-0.018395 0.611822 -0.106064
0.068951 0.611338 -0.147530
0.154419 0.611492 -0.190509
0.238430 0.611809 -0.234649
0.321790 0.611892 -0.279305
0.405309 0.611527 -0.323680
0.489353 0.610518 -0.366761
0.573717 0.608718 -0.407401
0.657889 0.606255 -0.444627
0.741305 0.603542 -0.477786
0.823442 0.601099 -0.506524
0.903829 0.599394 -0.530745
0.982051 0.598766 -0.550500
1.057811 0.599376 -0.566013
1.130895 0.601251 -0.577582
1.201048 0.604388 -0.585369
1.267938 0.608812 -0.589361
1.331231 0.614535 -0.589499
1.390831 0.621502 -0.585986
1.446542 0.629533 -0.578848
1.498313 0.638401 -0.568288
1.545966 0.647841 -0.554359
1.589072 0.657578 -0.536856
1.627502 0.667399 -0.515882
1.661444 0.677139 -0.491792
1.691522 0.686697 -0.465263
1.718465 0.696007 -0.437079
1.742549 0.704977 -0.407792
1.765077 0.713701 -0.378146
1.786764 0.722251 -0.348459
1.808060 0.730706 -0.318801
-0.197594 0.651134 -0.023435
-0.106676 0.649351 -0.061625
-0.016931 0.648361 -0.100873
0.071096 0.648548 -0.141758
0.157269 0.649844 -0.184620
0.242142 0.651737 -0.229141
0.326564 0.653577 -0.274502
0.411292 0.654841 -0.319617
0.496696 0.655242 -0.363352
0.582690 0.654761 -0.404682
0.668856 0.653615 -0.442764
0.754592 0.652174 -0.476922
0.839236 0.650849 -0.506680
0.922146 0.650017 -0.531809
1.002744 0.649963 -0.552258
1.080594 0.650838 -0.568169
1.155371 0.652685 -0.579786
1.226737 0.655518 -0.587241
1.294295 0.659373 -0.590527
1.357703 0.664282 -0.589658
1.416692 0.670192 -0.584675
1.471245 0.676977 -0.575877
1.521370 0.684437 -0.563529
1.566779 0.692293 -0.547564
1.607435 0.700330 -0.528187
1.643382 0.708364 -0.505650
1.675064 0.716279 -0.480517
1.703263 0.724018 -0.453559
1.728787 0.731550 -0.425575
1.752010 0.738824 -0.397176
1.774028 0.745915 -0.368834
1.795421 0.752878 -0.340695
1.816528 0.759773 -0.312701
-0.195237 0.687813 -0.018586
-0.103956 0.686141 -0.055357
-0.013899 0.685422 -0.093301
0.074380 0.686160 -0.133103
0.160787 0.688367 -0.175200
0.245961 0.691533 -0.219330
0.330852 0.694928 -0.264670
0.416299 0.697899 -0.310081
0.502737 0.700061 -0.354386
0.590133 0.701335 -0.396547
0.678070 0.701880 -0.435693
0.765895 0.701990 -0.471075
0.852843 0.701998 -0.502111
0.938129 0.702214 -0.528451
1.021028 0.702876 -0.549948
1.100963 0.704114 -0.566656
1.177485 0.705980 -0.578751
1.250146 0.708499 -0.586306
1.318486 0.711724 -0.589319
1.381980 0.715674 -0.587653
1.440478 0.720359 -0.581579
1.493879 0.725670 -0.571320
1.542134 0.731419 -0.557112
1.585305 0.737405 -0.539268
1.623486 0.743448 -0.518113
1.656997 0.749423 -0.494155
1.686497 0.755274 -0.468126
1.712884 0.760987 -0.440853
1.737020 0.766566 -0.413129
1.759327 0.771993 -0.385585
1.780710 0.777313 -0.358439
1.801616 0.782558 -0.331674
1.822294 0.787759 -0.305123
-0.190387 0.725105 -0.012032
-0.099231 0.723551 -0.047173
-0.009314 0.723084 -0.083546
0.078819 0.724305 -0.121902
0.165093 0.727315 -0.162769
0.250202 0.731632 -0.205977
0.335171 0.736496 -0.250771
0.420926 0.741177 -0.296044
0.507982 0.745196 -0.340623
0.596359 0.748379 -0.383444
0.685656 0.750794 -0.423590
0.775194 0.752641 -0.460235
0.864131 0.754168 -0.492689
0.951551 0.755610 -0.520471
1.036583 0.757144 -0.543304
1.118509 0.758870 -0.561157
1.196750 0.760835 -0.574117
1.270761 0.763079 -0.582221
1.339856 0.765619 -0.585246
1.403581 0.768538 -0.583249
1.461583 0.771834 -0.576315
1.513793 0.775448 -0.564762
1.560284 0.779251 -0.548984
1.601268 0.783098 -0.529456
1.637094 0.786885 -0.506758
1.668324 0.790560 -0.481616
1.695801 0.794133 -0.454907
1.720517 0.797635 -0.427489
1.743329 0.801095 -0.400106
1.764663 0.804522 -0.373367
1.785197 0.807916 -0.347206
1.805189 0.811272 -0.321379
1.824821 0.814594 -0.295637
-0.183002 0.762905 -0.003728
-0.092574 0.761631 -0.037239
-0.003330 0.761515 -0.071956
0.084228 0.763221 -0.108645
0.170033 0.766941 -0.147918
0.254783 0.772259 -0.189733
0.339529 0.778436 -0.233469
0.425248 0.784713 -0.278119
0.512524 0.790541 -0.322559
0.601438 0.795655 -0.365730
0.691638 0.800021 -0.406676
0.782450 0.803736 -0.444500
0.872983 0.806942 -0.478401
0.962212 0.809779 -0.507753
1.049132 0.812349 -0.532152
1.132876 0.814701 -0.551427
1.212850 0.816923 -0.565756
1.288023 0.818889 -0.574543
1.357955 0.820774 -0.578045
1.421899 0.822594 -0.576003
1.479469 0.824387 -0.568539
1.530584 0.826136 -0.556010
1.575414 0.827780 -0.538944
1.614385 0.829264 -0.518049
1.648083 0.830574 -0.494143
1.677293 0.831750 -0.468152
1.702995 0.832866 -0.441052
1.726223 0.833993 -0.413695
1.747794 0.835178 -0.386742
1.767977 0.836438 -0.360621
1.786988 0.837697 -0.334726
1.804532 0.838868 -0.308203
1.820781 0.839935 -0.280775
-0.173156 0.801136 0.006296
-0.084188 0.800542 -0.025834
0.003751 0.801073 -0.059034
0.090255 0.803386 -0.094013
0.175264 0.807754 -0.131446
0.259425 0.813875 -0.171455
0.343738 0.821101 -0.213619
0.429166 0.828716 -0.257107
0.516333 0.836152 -0.300907
0.605387 0.843074 -0.343999
0.696042 0.849353 -0.385414
0.787669 0.854972 -0.424203
0.879361 0.859953 -0.459455
0.970014 0.864317 -0.490403
1.058487 0.868059 -0.516455
1.143829 0.871195 -0.537394
1.225127 0.873685 -0.552981
1.301556 0.875544 -0.563040
1.372268 0.876807 -0.567312
1.436471 0.877522 -0.565581
1.493674 0.877738 -0.557920
1.543810 0.877496 -0.544755
1.587170 0.876819 -0.526775
1.624399 0.875769 -0.504929
1.656291 0.874437 -0.480240
1.683813 0.872958 -0.453800
1.708037 0.871472 -0.426643
1.729998 0.870085 -0.399584
1.750352 0.868844 -0.373079
1.768763 0.867721 -0.346898
1.784151 0.866470 -0.318995
1.794567 0.864819 -0.286713
1.800331 0.862749 -0.249926
-0.161102 0.839863 0.017913
-0.074404 0.840559 -0.013295
0.011536 0.842201 -0.045325
0.096483 0.845369 -0.078739
0.180380 0.850424 -0.114246
0.263772 0.857181 -0.152145
0.347525 0.865142 -0.192275
0.432510 0.873722 -0.234055
0.519338 0.882413 -0.276652
0.608211 0.890862 -0.319140
0.698926 0.898864 -0.360569
0.790926 0.906294 -0.399965
0.883328 0.913041 -0.436333
0.974976 0.918986 -0.468749
1.064629 0.923993 -0.496443
1.151167 0.927965 -0.518969
1.233674 0.930890 -0.536154
1.311119 0.932694 -0.547577
1.382519 0.933386 -0.552866
1.446945 0.932994 -0.551712
1.503840 0.931589 -0.544175
1.553146 0.929270 -0.530744
1.595299 0.926171 -0.512295
1.631116 0.922470 -0.489968
