Project4/DarkAndSomber.cube
TITLE "DarkAndSomber"
# Created by Photon 3D ColorGrading
DOMAIN_MIN 0 0 0
DOMAIN_MAX 1 1 1
LUT_3D_SIZE 9
-0.000008 0.003914 -0.000008
0.047747 0.001359 -0.000002
0.108937 0.000173 -0.000000
0.154154 0.000005 0.000000
0.199891 0.000001 0.000000
0.269295 0.000084 -0.000000
0.359437 0.002829 -0.000000
0.462319 0.024017 0.000000
0.576471 0.082353 -0.000000
0.001091 0.020762 0.000768
0.033301 0.011750 0.000770
0.089318 0.009009 0.000719
0.145727 0.011311 0.000601
0.203842 0.015602 0.000452
0.278564 0.022296 0.000365
0.369627 0.036748 0.000366
0.473119 0.067926 0.000463
0.585960 0.118907 0.000659
0.014765 0.055085 0.012033
0.044134 0.049140 0.012026
0.096456 0.049455 0.011497
0.157893 0.056283 0.010279
0.224370 0.066687 0.008663
0.303006 0.080785 0.007567
0.394732 0.102725 0.007489
0.498527 0.135672 0.008690
0.611728 0.179116 0.011176
0.069682 0.129794 0.061449
0.099949 0.128748 0.061633
0.146240 0.131395 0.060391
0.204533 0.139253 0.057346
0.272829 0.151827 0.053050
0.352505 0.169115 0.049661
0.443946 0.192824 0.049412
0.547414 0.224457 0.053851
0.660537 0.264275 0.062972
0.167191 0.235188 0.150082
0.190916 0.235049 0.151176
0.229821 0.237690 0.150880
0.284275 0.244831 0.149147
0.351665 0.257533 0.146476
0.430353 0.276003 0.144249
0.520548 0.300750 0.145440
0.622498 0.332472 0.152664
0.732905 0.370814 0.165963
0.290235 0.363785 0.260129
0.307665 0.363635 0.262175
0.340902 0.366001 0.263689
0.392022 0.372848 0.264960
0.457788 0.385381 0.266558
0.535050 0.403925 0.268876
0.623157 0.428827 0.273206
0.720372 0.459954 0.281051
0.820160 0.495561 0.292303
0.436275 0.516332 0.391610
0.449334 0.515909 0.394174
0.477637 0.517940 0.396986
0.524268 0.524042 0.400085
0.587318 0.535716 0.404121
0.662337 0.553129 0.409693
0.746238 0.576384 0.416567
0.830121 0.604379 0.423589
0.899751 0.633330 0.429220
0.602811 0.690999 0.542135
0.612631 0.689537 0.545702
0.636324 0.690843 0.549373
0.677860 0.695840 0.553255
0.736610 0.705868 0.558104
0.806231 0.721295 0.564736
0.876271 0.741259 0.572185
0.930722 0.762388 0.576681
0.959092 0.781821 0.576522
0.780392 0.878431 0.701960
0.788633 0.875927 0.708188
0.807938 0.875772 0.712703
0.844584 0.879355 0.717074
0.898345 0.887881 0.722498
0.955868 0.901019 0.728837
0.991009 0.916209 0.734356
0.999264 0.927312 0.733633
0.999698 0.937365 0.729346
-0.000000 0.003921 0.040546
0.027552 0.002155 0.024157
0.075522 0.000451 0.008775
0.123838 0.000403 0.001596
0.176514 0.003040 0.000543
0.249759 0.010211 0.000983
0.342448 0.026482 0.001998
0.448133 0.060479 0.003801
0.561443 0.113295 0.006460
0.000449 0.023574 0.031680
0.017986 0.015908 0.019550
0.060283 0.012845 0.009442
0.118552 0.016632 0.004847
0.183949 0.025979 0.004065
0.262763 0.039801 0.004587
0.356419 0.061942 0.006064
0.462241 0.097336 0.008766
0.576245 0.144589 0.012760
0.007454 0.061716 0.040195
0.025985 0.057164 0.033837
0.069608 0.057947 0.028373
0.134044 0.066236 0.024586
0.206994 0.080049 0.022173
0.289417 0.097826 0.021477
0.383609 0.122307 0.023087
0.489451 0.156049 0.027590
0.604235 0.198321 0.035087
0.044896 0.136449 0.091339
0.071445 0.136780 0.088261
0.118744 0.140290 0.084918
0.182678 0.148911 0.081197
0.256164 0.162776 0.076954
0.338989 0.181369 0.074138
0.432718 0.206112 0.075292
0.538000 0.238517 0.082082
0.652893 0.278353 0.094401
0.133730 0.240765 0.174598
0.159738 0.242180 0.173214
0.203399 0.245684 0.171716
0.263082 0.253275 0.170406
0.334442 0.266574 0.168838
0.415810 0.285641 0.167610
0.508179 0.311057 0.169611
0.611932 0.343390 0.177550
0.724571 0.381873 0.191385
0.262542 0.369393 0.278937
0.281422 0.370765 0.278938
0.317303 0.373933 0.279298
0.371416 0.380862 0.280722
0.440242 0.393577 0.283397
0.519773 0.412476 0.286794
0.609722 0.437862 0.291521
0.709181 0.469421 0.299428
0.813404 0.505609 0.311057
0.414612 0.521869 0.406312
0.427625 0.523007 0.407101
0.456774 0.525759 0.408668
0.505150 0.531910 0.411689
0.569972 0.543252 0.416562
0.646988 0.560856 0.423201
0.732552 0.584579 0.430780
0.820412 0.613260 0.438455
0.898453 0.643893 0.445410
0.584295 0.695190 0.554111
0.593740 0.695961 0.555456
0.617655 0.698165 0.557710
0.660127 0.703291 0.561401
0.719859 0.712977 0.566875
0.791542 0.728342 0.574459
0.864381 0.748684 0.583083
0.924324 0.771240 0.589398
0.960852 0.792894 0.591050
0.764310 0.879791 0.713335
0.771606 0.880673 0.715508
0.791169 0.882250 0.718188
0.828086 0.886353 0.722226
0.881959 0.894523 0.727916
0.943362 0.907307 0.735117
0.985964 0.922822 0.742133
0.998791 0.936601 0.744793
1.000000 0.949014 0.743191
-0.000000 0.003921 0.077468
0.010829 0.002415 0.056540
0.041300 0.000717 0.029434
0.089236 0.002427 0.010633
0.150491 0.013295 0.007410
0.229202 0.033874 0.011169
0.324382 0.062637 0.017421
0.431714 0.102763 0.026202
0.545254 0.151457 0.037096
0.000101 0.023573 0.068056
0.006935 0.019246 0.051340
0.033887 0.017820 0.032514
0.089160 0.025057 0.021054
0.161361 0.041984 0.019813
0.244835 0.064634 0.023378
0.340694 0.093250 0.029744
0.447855 0.130886 0.039182
0.562317 0.176032 0.051459
0.002386 0.066711 0.079283
0.012069 0.065307 0.069873
0.044805 0.068045 0.060158
0.108309 0.078830 0.053680
0.187077 0.096482 0.051630
0.273491 0.118186 0.053212
0.369795 0.145432 0.058631
0.476947 0.180501 0.068614
0.592283 0.222836 0.082908
0.021469 0.144245 0.130895
0.042025 0.146065 0.126320
0.087072 0.150902 0.121325
0.156187 0.160832 0.117025
0.235820 0.176166 0.113819
0.322487 0.196431 0.112986
0.418812 0.222889 0.116935
0.525771 0.256628 0.127008
0.641530 0.297236 0.142727
0.090663 0.248579 0.210392
0.118126 0.250945 0.207685
0.167057 0.255523 0.204830
0.234577 0.264091 0.203140
0.311748 0.278189 0.202647
0.396872 0.298201 0.203064
0.492110 0.324757 0.206790
0.598025 0.358029 0.216259
0.712287 0.397258 0.231317
0.219931 0.377182 0.311229
0.242066 0.379438 0.309759
0.282851 0.383607 0.308595
0.342719 0.391328 0.309279
0.415928 0.404420 0.312556
0.498595 0.423819 0.317108
0.591319 0.450044 0.322781
0.693713 0.482399 0.331457
0.802004 0.519549 0.343938
0.380824 0.529527 0.435011
0.394853 0.531578 0.434443
0.425993 0.535318 0.434460
0.477455 0.542166 0.436549
0.545586 0.553818 0.441725
0.624898 0.571450 0.449277
0.713115 0.595756 0.457823
0.805609 0.625385 0.466413
0.893947 0.657820 0.474835
0.556277 0.702071 0.579241
0.565512 0.704072 0.579192
0.589927 0.707388 0.579936
0.633989 0.713206 0.582711
0.695979 0.723149 0.588360
0.769994 0.738394 0.596670
0.847268 0.759277 0.606516
0.914196 0.783216 0.614545
0.962326 0.807064 0.618290
0.739844 0.885251 0.735360
0.746265 0.887798 0.735673
0.765823 0.890931 0.736972
0.803513 0.895908 0.740211
0.858862 0.904244 0.745860
0.924174 0.916863 0.753742
0.976496 0.933175 0.762401
0.997150 0.949013 0.767787
1.000000 0.962934 0.768418
-0.000000 0.003928 0.099888
0.002753 0.002888 0.084293
0.017755 0.002034 0.059255
0.060244 0.009754 0.038681
0.128250 0.033277 0.036460
0.211915 0.065602 0.046240
0.308306 0.100652 0.059841
0.415585 0.141992 0.076514
0.529185 0.189067 0.095663
0.000009 0.022898 0.095957
0.002031 0.022683 0.084373
0.016884 0.025252 0.068148
0.065068 0.038807 0.057332
0.140796 0.063356 0.058124
0.228038 0.092277 0.066119
0.324977 0.124695 0.078029
0.432141 0.163805 0.093888
0.546108 0.208701 0.113179
0.000405 0.072071 0.116440
0.004451 0.074385 0.110071
0.026061 0.080438 0.102363
0.084308 0.094660 0.097518
0.166756 0.115400 0.097682
0.256830 0.140071 0.102493
0.354458 0.169863 0.111861
0.461925 0.206867 0.126528
0.576777 0.250069 0.145760
0.006775 0.153703 0.173153
0.018807 0.156941 0.169556
0.054818 0.163235 0.165167
0.126072 0.174943 0.161669
0.212895 0.191826 0.160365
0.304335 0.213868 0.162398
0.402691 0.242099 0.169402
0.510854 0.277777 0.182775
0.626752 0.319680 0.201377
0.047718 0.258625 0.253644
0.072048 0.261570 0.251028
0.122033 0.267166 0.247845
0.198598 0.277235 0.245687
0.284560 0.292420 0.245741
0.375150 0.313583 0.248099
0.473389 0.341342 0.254164
0.581437 0.376058 0.265968
0.696870 0.416484 0.282788
0.162326 0.387295 0.354311
0.188606 0.390029 0.352578
0.236259 0.395137 0.350622
0.305353 0.404312 0.350226
0.385671 0.418340 0.352994
0.473290 0.438504 0.358359
0.569141 0.465374 0.365449
0.674527 0.498727 0.375656
0.786280 0.537132 0.389622
0.331411 0.539416 0.476620
0.348855 0.541976 0.475657
0.384144 0.546673 0.474689
0.441017 0.554877 0.475428
0.513690 0.567346 0.479663
0.597228 0.585581 0.487559
0.688651 0.610277 0.497025
0.786158 0.640928 0.506870
0.884215 0.675077 0.517157
0.515795 0.711601 0.618360
0.526239 0.714179 0.617895
0.552098 0.718437 0.617564
0.598940 0.725481 0.618838
0.663724 0.736165 0.623405
0.741557 0.751854 0.631829
0.824086 0.773116 0.642578
0.899642 0.798563 0.652403
0.961360 0.824854 0.658836
0.704044 0.894453 0.770944
0.710969 0.897372 0.771167
0.730621 0.901446 0.771461
0.769697 0.907647 0.773180
0.826769 0.916681 0.777723
0.896615 0.929582 0.785532
0.960551 0.946543 0.795426
0.992871 0.964440 0.803560
1.000000 0.980288 0.806941
0.000000 0.004297 0.114436
0.000597 0.004406 0.104538
0.007870 0.007896 0.089226
0.042187 0.025683 0.079291
0.112234 0.059621 0.084271
0.198657 0.096212 0.097834
0.295189 0.133357 0.115042
0.401415 0.175661 0.135730
0.514618 0.223664 0.159744
0.000001 0.027672 0.119673
0.000658 0.031015 0.113909
0.009151 0.039199 0.106201
0.048107 0.058823 0.102947
0.123980 0.087681 0.108316
0.213514 0.118779 0.119288
0.310905 0.153356 0.134377
0.417383 0.194116 0.153809
0.530977 0.240563 0.177326
0.000055 0.083321 0.152107
0.001519 0.088124 0.149452
0.014485 0.097220 0.146440
0.063009 0.113612 0.145563
0.146872 0.135896 0.148733
0.240184 0.162206 0.156205
0.339021 0.194264 0.168646
0.446337 0.233204 0.186435
0.560918 0.278277 0.209199
0.001707 0.166797 0.215816
0.006994 0.170892 0.213802
0.031261 0.178381 0.211385
0.095325 0.191051 0.209676
0.187958 0.209190 0.210451
0.284779 0.232697 0.215037
0.385633 0.263002 0.225105
0.494458 0.300409 0.241147
0.610394 0.344041 0.262474
0.020644 0.271548 0.299734
0.036943 0.274955 0.297915
0.079878 0.281326 0.295629
0.158849 0.292240 0.293841
0.254535 0.308541 0.294421
0.351980 0.330779 0.298412
0.453950 0.360048 0.307087
0.563661 0.396004 0.321169
0.680090 0.437854 0.340248
0.104984 0.400115 0.402591
0.131681 0.403235 0.401378
0.183981 0.409077 0.399792
0.262146 0.419156 0.398902
0.351833 0.434266 0.400760
0.446004 0.455267 0.406310
0.545917 0.482947 0.414899
0.653824 0.516953 0.426834
0.768628 0.556764 0.443065
0.270888 0.551966 0.525844
0.292789 0.554925 0.525092
0.335070 0.560338 0.524101
0.398804 0.569517 0.523920
0.477662 0.583135 0.526629
0.566222 0.601992 0.533667
0.661673 0.627218 0.543732
0.763631 0.658523 0.555002
0.869447 0.694415 0.567583
0.466046 0.723895 0.666948
0.478852 0.726692 0.666515
0.508218 0.731543 0.665899
0.558249 0.739614 0.666063
0.626589 0.751449 0.668874
0.708340 0.767678 0.676025
0.796499 0.789363 0.687030
0.881580 0.815771 0.698481
0.955603 0.843788 0.706861
0.660906 0.906814 0.817579
0.668778 0.909496 0.817976
0.689927 0.913841 0.817881
0.730196 0.921096 0.818456
0.789243 0.931219 0.821140
0.862826 0.944547 0.827401
0.937729 0.961888 0.837438
0.986576 0.980273 0.846898
0.999999 0.994210 0.848846
-0.000000 0.009959 0.129834
0.000191 0.014704 0.126020
0.004357 0.027386 0.121812
0.032372 0.054721 0.124223
0.099675 0.090003 0.135075
0.188402 0.125373 0.150915
0.284907 0.163344 0.170382
0.390247 0.207097 0.194080
0.502572 0.256259 0.221477
-0.000000 0.042273 0.147274
0.000237 0.049190 0.146377
0.005075 0.062529 0.146185
0.036298 0.085446 0.150216
0.108760 0.113881 0.159252
0.200993 0.145150 0.172577
0.299034 0.181100 0.190061
0.405277 0.223656 0.212489
0.518458 0.271839 0.239273
0.000004 0.101737 0.190437
0.000462 0.107767 0.190458
0.007473 0.118414 0.191094
0.045849 0.135515 0.193859
0.127071 0.157903 0.199691
0.224364 0.185615 0.209863
0.324862 0.219361 0.224863
0.432651 0.260275 0.245587
0.547106 0.307154 0.271206
0.000284 0.183480 0.259192
0.002086 0.187866 0.258548
0.015841 0.196022 0.258076
0.068658 0.209493 0.258714
0.162330 0.228543 0.261838
0.265112 0.253748 0.269160
0.368669 0.285514 0.281684
0.478799 0.324874 0.300575
0.594680 0.369938 0.324240
0.006840 0.286944 0.346286
0.015415 0.290491 0.345400
0.045961 0.297421 0.344460
0.119869 0.309251 0.344312
0.223199 0.326642 0.346389
0.328606 0.350371 0.352357
0.434387 0.380682 0.363184
0.546105 0.418151 0.379810
0.662957 0.461002 0.400950
0.057688 0.415138 0.452182
0.080521 0.418381 0.451665
0.131255 0.424719 0.451028
0.216178 0.435665 0.451093
0.316550 0.451890 0.453244
0.418436 0.473942 0.459017
0.522910 0.502301 0.468833
0.634007 0.537510 0.483071
0.750311 0.577775 0.501099
0.205331 0.566703 0.577745
0.231510 0.569858 0.577403
0.280750 0.575702 0.577024
0.353619 0.585679 0.577271
0.440218 0.600363 0.579410
0.534469 0.620229 0.585283
0.634373 0.645917 0.595216
0.740848 0.678074 0.607947
0.851522 0.714613 0.622420
0.410590 0.738505 0.719995
0.426668 0.741328 0.719667
0.460422 0.746497 0.719374
0.515384 0.755312 0.719642
0.587882 0.768176 0.721477
0.673430 0.785384 0.726833
0.766549 0.807195 0.736663
0.859335 0.833386 0.747992
0.944818 0.861365 0.756822
0.615811 0.921622 0.871217
0.623943 0.923909 0.871164
0.646329 0.928264 0.871013
0.688744 0.936105 0.871424
0.749844 0.947200 0.872905
0.826243 0.961388 0.877102
0.909068 0.977622 0.885022
0.972193 0.991501 0.890669
0.999856 0.999332 0.885273
0.000000 0.036477 0.158494
0.000086 0.046406 0.160666
0.002399 0.064472 0.165002
0.022871 0.090937 0.173673
0.087398 0.121277 0.187270
0.178605 0.154535 0.204595
0.276621 0.193157 0.226082
0.381650 0.238113 0.252117
0.494294 0.288582 0.282399
-0.000000 0.072478 0.186626
0.000098 0.080585 0.188772
0.002687 0.094648 0.192746
0.025011 0.115401 0.200039
0.094079 0.141398 0.211247
0.189136 0.172294 0.226273
0.289160 0.209333 0.245921
0.395566 0.253257 0.270747
0.509072 0.303263 0.300564
0.000000 0.127644 0.234880
0.000158 0.133404 0.236246
0.003657 0.143681 0.238725
0.030643 0.159825 0.243507
0.108108 0.182147 0.251653
0.209423 0.210436 0.263814
0.312699 0.245654 0.281222
0.421209 0.288142 0.304445
0.536284 0.336855 0.332825
0.000055 0.204655 0.305032
0.000635 0.208920 0.305335
0.007509 0.217086 0.306268
0.045822 0.230625 0.308800
0.137188 0.250474 0.314348
0.246234 0.276535 0.323846
0.353555 0.310065 0.339030
0.464817 0.350824 0.360220
0.581476 0.397527 0.386334
0.002235 0.306239 0.394334
0.006130 0.309690 0.394205
0.024822 0.316782 0.394489
0.085373 0.328940 0.395993
0.192023 0.347259 0.400127
0.305781 0.371725 0.407931
0.415920 0.403530 0.421142
0.529248 0.442169 0.439900
0.646934 0.486265 0.463238
0.029477 0.433603 0.503372
0.045716 0.436835 0.503328
0.088053 0.443317 0.503567
0.171521 0.454529 0.504799
0.281572 0.471521 0.508217
0.391972 0.494234 0.514857
0.501236 0.523813 0.526239
0.614494 0.559717 0.542252
0.732024 0.600553 0.562231
0.146327 0.584442 0.631324
0.172931 0.587616 0.631279
0.226234 0.593600 0.631532
0.307618 0.603831 0.632606
0.403761 0.619258 0.635407
0.504250 0.639769 0.640948
0.608866 0.666430 0.650897
0.718659 0.698786 0.664495
0.832469 0.735447 0.680610
0.352111 0.755488 0.774753
0.371675 0.758284 0.774695
0.411027 0.763603 0.774860
0.472177 0.772660 0.775645
0.550377 0.786171 0.777700
0.639558 0.803890 0.781993
0.736928 0.825718 0.790255
0.836085 0.850595 0.800209
0.930645 0.877610 0.808266
0.569924 0.937670 0.926401
0.578611 0.940022 0.926299
0.602674 0.944610 0.926255
0.647398 0.952596 0.926708
0.710833 0.964016 0.927905
0.789143 0.977908 0.930638
0.876696 0.990420 0.935339
0.952898 0.997716 0.935159
0.997301 0.999978 0.920947
-0.000000 0.082371 0.206391
0.000023 0.091566 0.210381
0.001174 0.106128 0.217022
0.016602 0.126773 0.227304
0.074298 0.153074 0.241622
0.168778 0.185384 0.260169
0.269621 0.224208 0.283096
0.375616 0.270636 0.311328
0.488791 0.322890 0.343957
-0.000000 0.109780 0.235908
0.000026 0.116599 0.238836
0.001282 0.128278 0.244005
0.017851 0.146296 0.252686
0.079077 0.170394 0.264992
0.177597 0.201353 0.281699
0.280973 0.239090 0.303159
0.388497 0.284351 0.330313
0.502338 0.335815 0.362532
-0.000000 0.156213 0.283408
0.000042 0.161531 0.285476
0.001780 0.170995 0.288860
0.021416 0.186677 0.295236
0.089758 0.208765 0.305189
0.195087 0.237884 0.319588
0.302451 0.273950 0.338968
0.412525 0.317847 0.364575
0.527967 0.367803 0.395249
0.000007 0.228400 0.353101
0.000150 0.232769 0.354205
0.003485 0.240866 0.356198
0.031503 0.254846 0.360552
0.113806 0.275076 0.368197
0.228097 0.302350 0.380277
0.340321 0.336768 0.397516
0.453501 0.378969 0.421063
0.570786 0.426878 0.449300
0.000562 0.327887 0.443818
0.002084 0.331670 0.444431
0.012371 0.338915 0.445822
0.060510 0.351675 0.449062
0.162799 0.370475 0.455156
0.283844 0.396158 0.465378
0.399166 0.428758 0.480437
0.514620 0.468627 0.501321
0.633160 0.513776 0.526513
0.013133 0.454054 0.555204
0.023193 0.457717 0.555769
0.055049 0.464445 0.557013
0.132845 0.476221 0.559738
0.247941 0.493748 0.564809
0.366727 0.517415 0.573294
0.480846 0.547603 0.586058
0.596442 0.584310 0.603703
0.714987 0.625752 0.625200
0.097260 0.604003 0.685224
0.122066 0.607530 0.685719
0.174981 0.613738 0.686742
0.263077 0.624410 0.688930
0.368624 0.640247 0.692956
0.476018 0.661625 0.699803
0.584768 0.688605 0.710141
0.697404 0.721298 0.724491
0.813305 0.758124 0.741928
0.293874 0.774178 0.828271
0.316920 0.777083 0.828570
0.361685 0.782551 0.829234
0.430303 0.791980 0.830732
0.514449 0.805653 0.833518
0.608335 0.823209 0.838223
0.708533 0.844002 0.845371
0.811280 0.867801 0.854187
0.912937 0.893946 0.862947
0.524101 0.955073 0.973535
0.533343 0.957235 0.973304
0.559672 0.962155 0.973337
0.607197 0.970307 0.973770
0.673496 0.980919 0.974667
0.754702 0.991015 0.976168
0.842816 0.997362 0.977624
0.922267 0.999581 0.973576
0.984410 1.000001 0.960366
-0.000000 0.125476 0.262745
0.000005 0.132699 0.265812
0.000603 0.144488 0.272279
0.011512 0.161943 0.282458
0.063615 0.186203 0.296787
0.159332 0.217351 0.316180
0.263973 0.256401 0.340865
0.371640 0.304931 0.372215
0.486256 0.360754 0.407812
-0.000000 0.145823 0.289374
0.000006 0.151023 0.292132
0.000619 0.161231 0.297533
0.011991 0.177992 0.306974
0.066667 0.201456 0.320384
0.166565 0.232268 0.338421
0.274201 0.270445 0.361629
0.383355 0.316696 0.391140
0.497662 0.369811 0.425835
-0.000000 0.185953 0.334537
0.000007 0.190770 0.336963
0.000795 0.200042 0.340926
0.013938 0.215585 0.348715
0.074768 0.237693 0.360440
0.181781 0.267057 0.376605
0.293880 0.304101 0.398142
0.405627 0.348907 0.425986
0.521181 0.399730 0.458713
0.000001 0.254476 0.403497
0.000028 0.258804 0.405017
0.001536 0.267178 0.407795
0.020249 0.281440 0.413748
0.094113 0.302116 0.423506
0.211681 0.329844 0.437705
0.329133 0.365325 0.457344
0.444053 0.408577 0.483004
0.561418 0.457407 0.512997
0.000115 0.352103 0.495356
0.000522 0.355796 0.496093
0.005807 0.363385 0.498327
0.040807 0.376671 0.503294
0.136803 0.396021 0.511401
0.263948 0.422038 0.523563
0.384716 0.455553 0.540744
0.502137 0.496567 0.563512
0.621360 0.542783 0.590022
0.005155 0.476855 0.608131
0.010229 0.480760 0.609190
0.031779 0.487880 0.611415
0.099457 0.500068 0.615629
0.216618 0.517924 0.622284
0.343588 0.541887 0.632380
0.462550 0.572548 0.646719
0.580167 0.610186 0.665884
0.699816 0.652819 0.688415
0.060013 0.625171 0.739410
0.080756 0.629291 0.740472
0.129987 0.636072 0.742347
0.220983 0.647077 0.745649
0.335311 0.663207 0.750953
0.449810 0.684654 0.759070
0.562492 0.711797 0.770553
0.677174 0.745023 0.785992
0.794478 0.783163 0.804690
0.237640 0.793661 0.877341
0.262975 0.797095 0.878055
0.313120 0.802937 0.879258
0.389702 0.812752 0.881470
0.480823 0.826259 0.885027
0.579010 0.842458 0.890200
0.681562 0.862012 0.897474
0.786067 0.885219 0.907327
0.891917 0.911534 0.919592
0.478431 0.972549 1.000000
0.486999 0.973889 1.000000
0.516922 0.979272 1.000000
0.568600 0.987928 1.000000
0.638347 0.996045 1.000000
0.721830 0.999529 1.000000
0.808677 0.999985 1.000000
0.887507 1.000000 1.000000
0.960785 1.000000 1.000000
