Project4/DarkAndSomber.cube
TITLE "DarkAndSomber"
# Created by Photon 3D ColorGrading
DOMAIN_MIN 0 0 0
DOMAIN_MAX 1 1 1
LUT_3D_SIZE 5
-0.000008 0.003914 -0.000008
0.108937 0.000173 -0.000000
0.199891 0.000001 0.000000
0.359437 0.002829 -0.000000
0.576471 0.082353 -0.000000
0.014765 0.055085 0.012033
0.096456 0.049455 0.011497
0.224370 0.066687 0.008663
0.394732 0.102725 0.007489
0.611728 0.179116 0.011176
0.167191 0.235188 0.150082
0.229821 0.237690 0.150880
0.351665 0.257533 0.146476
0.520548 0.300750 0.145440
0.732905 0.370814 0.165963
0.436275 0.516332 0.391610
0.477637 0.517940 0.396986
0.587318 0.535716 0.404121
0.746238 0.576384 0.416567
0.899751 0.633330 0.429220
0.780392 0.878431 0.701960
0.807938 0.875772 0.712703
0.898345 0.887881 0.722498
0.991009 0.916209 0.734356
0.999698 0.937365 0.729346
-0.000000 0.003921 0.077468
0.041300 0.000717 0.029434
0.150491 0.013295 0.007410
0.324382 0.062637 0.017421
0.545254 0.151457 0.037096
0.002386 0.066711 0.079283
0.044805 0.068045 0.060158
0.187077 0.096482 0.051630
0.369795 0.145432 0.058631
0.592283 0.222836 0.082908
0.090663 0.248579 0.210392
0.167057 0.255523 0.204830
0.311748 0.278189 0.202647
0.492110 0.324757 0.206790
0.712287 0.397258 0.231317
0.380824 0.529527 0.435011
0.425993 0.535318 0.434460
0.545586 0.553818 0.441725
0.713115 0.595756 0.457823
0.893947 0.657820 0.474835
0.739844 0.885251 0.735360
0.765823 0.890931 0.736972
0.858862 0.904244 0.745860
0.976496 0.933175 0.762401
1.000000 0.962934 0.768418
0.000000 0.004297 0.114436
0.007870 0.007896 0.089226
0.112234 0.059621 0.084271
0.295189 0.133357 0.115042
0.514618 0.223664 0.159744
0.000055 0.083321 0.152107
0.014485 0.097220 0.146440
0.146872 0.135896 0.148733
0.339021 0.194264 0.168646
0.560918 0.278277 0.209199
0.020644 0.271548 0.299734
0.079878 0.281326 0.295629
0.254535 0.308541 0.294421
0.453950 0.360048 0.307087
0.680090 0.437854 0.340248
0.270888 0.551966 0.525844
0.335070 0.560338 0.524101
0.477662 0.583135 0.526629
0.661673 0.627218 0.543732
0.869447 0.694415 0.567583
0.660906 0.906814 0.817579
0.689927 0.913841 0.817881
0.789243 0.931219 0.821140
0.937729 0.961888 0.837438
0.999999 0.994210 0.848846
0.000000 0.036477 0.158494
0.002399 0.064472 0.165002
0.087398 0.121277 0.187270
0.276621 0.193157 0.226082
0.494294 0.288582 0.282399
0.000000 0.127644 0.234880
0.003657 0.143681 0.238725
0.108108 0.182147 0.251653
0.312699 0.245654 0.281222
0.536284 0.336855 0.332825
0.002235 0.306239 0.394334
0.024822 0.316782 0.394489
0.192023 0.347259 0.400127
0.415920 0.403530 0.421142
0.646934 0.486265 0.463238
0.146327 0.584442 0.631324
0.226234 0.593600 0.631532
0.403761 0.619258 0.635407
0.608866 0.666430 0.650897
0.832469 0.735447 0.680610
0.569924 0.937670 0.926401
0.602674 0.944610 0.926255
0.710833 0.964016 0.927905
0.876696 0.990420 0.935339
0.997301 0.999978 0.920947
-0.000000 0.125476 0.262745
0.000603 0.144488 0.272279
0.063615 0.186203 0.296787
0.263973 0.256401 0.340865
0.486256 0.360754 0.407812
-0.000000 0.185953 0.334537
0.000795 0.200042 0.340926
0.074768 0.237693 0.360440
0.293880 0.304101 0.398142
0.521181 0.399730 0.458713
0.000115 0.352103 0.495356
0.005807 0.363385 0.498327
0.136803 0.396021 0.511401
0.384716 0.455553 0.540744
0.621360 0.542783 0.590022
0.060013 0.625171 0.739410
0.129987 0.636072 0.742347
0.335311 0.663207 0.750953
0.562492 0.711797 0.770553
0.794478 0.783163 0.804690
0.478431 0.972549 1.000000
0.516922 0.979272 1.000000
0.638347 0.996045 1.000000
0.808677 0.999985 1.000000
0.960785 1.000000 1.000000
