Project4/DarkAndSomber.cube
TITLE "DarkAndSomber"
# Created by Photon 3D ColorGrading
DOMAIN_MIN 0 0 0
DOMAIN_MAX 1 1 1
LUT_3D_SIZE 33
-0.000008 0.003914 -0.000008
0.010043 0.003213 -0.000005
0.021028 0.002538 -0.000001
0.033561 0.001909 -0.000002
0.047747 0.001359 -0.000002
0.063165 0.000908 -0.000001
0.079041 0.000565 -0.000001
0.094522 0.000326 -0.000000
0.108937 0.000173 -0.000000
0.121949 0.000084 -0.000000
0.133608 0.000037 -0.000000
0.144233 0.000014 -0.000000
0.154154 0.000005 0.000000
0.164032 0.000001 -0.000000
0.174618 0.000000 -0.000000
0.186524 0.000000 -0.000000
0.199891 0.000001 0.000000
0.214904 0.000004 0.000000
0.231531 0.000011 0.000000
0.249620 0.000030 0.000000
0.269295 0.000084 -0.000000
0.290331 0.000240 0.000000
0.312537 0.000631 0.000000
0.335595 0.001406 0.000000
0.359437 0.002829 -0.000000
0.383992 0.005205 0.000000
0.409257 0.009053 0.000000
0.435392 0.015264 -0.000000
0.462319 0.024017 0.000000
0.489976 0.035366 0.000000
0.518332 0.049281 0.000000
0.547271 0.065340 0.000000
0.576471 0.082353 -0.000000
0.000056 0.007875 0.000034
0.008961 0.006548 0.000042
0.018778 0.005262 0.000032
0.030181 0.004108 0.000035
0.043331 0.003121 0.000036
0.057909 0.002338 0.000036
0.073244 0.001771 0.000035
0.088540 0.001407 0.000035
0.103127 0.001213 0.000033
0.116619 0.001151 0.000032
0.128983 0.001181 0.000031
0.140449 0.001270 0.000029
0.151285 0.001402 0.000027
0.162084 0.001563 0.000025
0.173535 0.001748 0.000023
0.186189 0.001954 0.000021
0.200192 0.002186 0.000019
0.215721 0.002453 0.000017
0.232741 0.002770 0.000016
0.251116 0.003155 0.000015
0.270968 0.003665 0.000014
0.292105 0.004386 0.000014
0.314367 0.005471 0.000014
0.337469 0.007048 0.000014
0.361356 0.009360 0.000014
0.385964 0.012668 0.000015
0.411285 0.017403 0.000016
0.437466 0.024329 0.000018
0.464407 0.033526 0.000020
0.492028 0.044972 0.000022
0.520286 0.058600 0.000024
0.549065 0.074024 0.000027
0.578075 0.090241 0.000030
0.000180 0.011880 0.000115
0.007994 0.009983 0.000117
0.016726 0.008174 0.000115
0.027051 0.006550 0.000117
0.039206 0.005178 0.000116
0.052977 0.004108 0.000115
0.067784 0.003355 0.000114
0.082896 0.002898 0.000111
0.097648 0.002694 0.000108
0.111609 0.002688 0.000104
0.124665 0.002823 0.000099
0.136964 0.003055 0.000094
0.148709 0.003363 0.000088
0.160421 0.003722 0.000081
0.172725 0.004126 0.000074
0.186128 0.004575 0.000068
0.200769 0.005073 0.000062
0.216809 0.005642 0.000057
0.234220 0.006303 0.000053
0.252879 0.007089 0.000050
0.272908 0.008084 0.000048
0.294143 0.009394 0.000047
0.316456 0.011186 0.000047
0.339591 0.013562 0.000047
0.363512 0.016756 0.000049
0.388182 0.021024 0.000051
0.413589 0.026705 0.000055
0.439788 0.034231 0.000059
0.466716 0.043729 0.000065
0.494309 0.055195 0.000072
0.522493 0.068491 0.000079
0.551145 0.083255 0.000088
0.580000 0.098661 0.000097
0.000465 0.016074 0.000312
0.007333 0.013744 0.000316
0.015102 0.011529 0.000315
0.024463 0.009549 0.000314
0.035721 0.007895 0.000314
0.048746 0.006624 0.000311
0.063058 0.005756 0.000307
0.077990 0.005268 0.000300
0.092890 0.005107 0.000293
0.107290 0.005207 0.000282
0.121008 0.005502 0.000270
0.134110 0.005930 0.000256
0.146749 0.006470 0.000240
0.159362 0.007086 0.000223
0.172484 0.007767 0.000206
0.186615 0.008518 0.000190
0.201879 0.009343 0.000176
0.218421 0.010269 0.000163
0.236214 0.011331 0.000153
0.255149 0.012568 0.000144
0.275348 0.014091 0.000139
0.296679 0.016020 0.000135
0.319047 0.018529 0.000135
0.342223 0.021695 0.000136
0.366182 0.025715 0.000140
0.390874 0.030757 0.000146
0.416290 0.037087 0.000155
0.442557 0.045216 0.000167
0.469542 0.055065 0.000182
0.497133 0.066505 0.000199
0.525260 0.079415 0.000219
0.553810 0.093498 0.000242
0.582543 0.108091 0.000265
0.001091 0.020762 0.000768
0.007218 0.018178 0.000774
0.014225 0.015732 0.000776
0.022800 0.013552 0.000773
0.033301 0.011750 0.000770
0.045681 0.010392 0.000763
0.059549 0.009502 0.000751
0.074303 0.009059 0.000736
0.089318 0.009009 0.000719
0.104104 0.009279 0.000696
0.118421 0.009792 0.000668
0.132263 0.010479 0.000637
0.145727 0.011311 0.000601
0.159184 0.012246 0.000562
0.173124 0.013272 0.000523
0.187976 0.014389 0.000486
0.203842 0.015602 0.000452
0.220857 0.016947 0.000423
0.239005 0.018466 0.000399
0.258200 0.020206 0.000379
0.278564 0.022296 0.000365
0.299993 0.024859 0.000357
0.322418 0.028070 0.000354
0.345634 0.031978 0.000357
0.369627 0.036748 0.000366
0.394361 0.042512 0.000380
0.419830 0.049472 0.000400
0.446122 0.057967 0.000428
0.473119 0.067926 0.000463
0.500708 0.079212 0.000504
0.528808 0.091688 0.000552
0.557300 0.105097 0.000604
0.585960 0.118907 0.000659
0.002350 0.026427 0.001727
0.007997 0.023790 0.001733
0.014491 0.021303 0.001736
0.022512 0.019102 0.001734
0.032444 0.017304 0.001726
0.044311 0.015985 0.001712
0.057797 0.015173 0.001688
0.072375 0.014857 0.001658
0.087452 0.014983 0.001622
0.102536 0.015477 0.001574
0.117348 0.016260 0.001517
0.131827 0.017253 0.001451
0.146027 0.018427 0.001378
0.160251 0.019731 0.001298
0.174926 0.021150 0.001216
0.190429 0.022685 0.001139
0.206849 0.024335 0.001068
0.224307 0.026144 0.001006
0.242793 0.028156 0.000954
0.262232 0.030422 0.000911
0.282752 0.033086 0.000880
0.304273 0.036268 0.000861
0.326751 0.040128 0.000855
0.350005 0.044687 0.000860
0.374030 0.050080 0.000877
0.398791 0.056392 0.000907
0.424281 0.063763 0.000950
0.450620 0.072510 0.001009
0.477662 0.082493 0.001084
0.505282 0.093560 0.001174
0.533401 0.105593 0.001276
0.561904 0.118381 0.001390
0.590570 0.131492 0.001508
0.004672 0.033666 0.003568
0.010130 0.031175 0.003578
0.016387 0.028832 0.003582
0.024104 0.026777 0.003578
0.033674 0.025126 0.003564
0.045165 0.023958 0.003534
0.058338 0.023316 0.003492
0.072725 0.023189 0.003435
0.087787 0.023536 0.003365
0.103048 0.024289 0.003276
0.118212 0.025366 0.003171
0.133179 0.026686 0.003048
0.147975 0.028218 0.002909
0.162841 0.029905 0.002759
0.178146 0.031730 0.002605
0.194221 0.033692 0.002458
0.211139 0.035790 0.002322
0.229007 0.038068 0.002202
0.247812 0.040572 0.002099
0.267485 0.043354 0.002014
0.288147 0.046558 0.001952
0.309746 0.050297 0.001912
0.332264 0.054714 0.001898
0.355542 0.059804 0.001906
0.379587 0.065674 0.001938
0.404367 0.072381 0.001995
0.429880 0.080022 0.002078
0.456243 0.088844 0.002194
0.483295 0.098689 0.002341
0.510919 0.109430 0.002516
0.539037 0.120972 0.002717
0.567531 0.133130 0.002938
0.596183 0.145552 0.003168
0.008607 0.043069 0.006804
0.014142 0.040881 0.006819
0.020422 0.038834 0.006828
0.028066 0.037058 0.006823
0.037457 0.035662 0.006795
0.048698 0.034735 0.006746
0.061601 0.034319 0.006674
0.075768 0.034420 0.006579
0.090714 0.035002 0.006456
0.106008 0.036012 0.006305
0.121355 0.037370 0.006124
0.136637 0.038995 0.005915
0.151868 0.040860 0.005677
0.167237 0.042902 0.005420
0.183058 0.045105 0.005154
0.199607 0.047465 0.004897
0.216929 0.049978 0.004659
0.235121 0.052690 0.004447
0.254174 0.055644 0.004263
0.274031 0.058890 0.004110
0.294820 0.062571 0.003995
0.316501 0.066784 0.003920
0.339069 0.071647 0.003891
0.362379 0.077139 0.003902
0.386442 0.083339 0.003957
0.411235 0.090284 0.004056
0.436762 0.098046 0.004205
0.463145 0.106828 0.004415
0.490214 0.116474 0.004680
0.517864 0.126889 0.004996
0.546017 0.137992 0.005359
0.574551 0.149628 0.005758
0.603246 0.161493 0.006174
0.014765 0.055085 0.012033
0.020573 0.053298 0.012060
0.027059 0.051635 0.012075
0.034790 0.050214 0.012066
0.044134 0.049140 0.012026
0.055199 0.048495 0.011950
0.067842 0.048328 0.011838
0.081733 0.048655 0.011688
0.096456 0.049455 0.011497
0.111629 0.050685 0.011260
0.126986 0.052276 0.010977
0.142403 0.054150 0.010651
0.157893 0.056283 0.010279
0.173603 0.058615 0.009875
0.189803 0.061130 0.009455
0.206719 0.063823 0.009046
0.224370 0.066687 0.008663
0.242835 0.069765 0.008317
0.262101 0.073096 0.008016
0.282117 0.076725 0.007761
0.303006 0.080785 0.007567
0.324744 0.085360 0.007440
0.347340 0.090548 0.007386
0.370662 0.096315 0.007400
0.394732 0.102725 0.007489
0.419548 0.109817 0.007655
0.445111 0.117636 0.007905
0.471465 0.126270 0.008251
0.498527 0.135672 0.008690
0.526201 0.145774 0.009215
0.554393 0.156495 0.009819
0.582978 0.167701 0.010484
0.611728 0.179116 0.011176
0.023706 0.069914 0.019834
0.029862 0.068554 0.019876
0.036629 0.067301 0.019901
0.044513 0.066255 0.019890
0.053848 0.065510 0.019835
0.064747 0.065145 0.019729
0.077104 0.065213 0.019570
0.090650 0.065736 0.019357
0.105041 0.066708 0.019082
0.119960 0.068100 0.018744
0.135177 0.069852 0.018340
0.150574 0.071894 0.017872
0.166173 0.074211 0.017340
0.182086 0.076746 0.016759
0.198542 0.079491 0.016153
0.215721 0.082442 0.015557
0.233612 0.085585 0.014993
0.252278 0.088956 0.014479
0.271703 0.092591 0.014026
0.291837 0.096522 0.013640
0.312800 0.100869 0.013343
0.334578 0.105703 0.013144
0.357188 0.111108 0.013057
0.380509 0.117043 0.013074
0.404566 0.123556 0.013206
0.429344 0.130658 0.013454
0.454856 0.138392 0.013830
0.481237 0.146919 0.014369
0.508345 0.156151 0.015053
0.536049 0.165995 0.015865
0.564255 0.176380 0.016790
0.592851 0.187204 0.017805
0.621656 0.198269 0.018869
0.035806 0.087495 0.030624
0.042268 0.086528 0.030687
0.049269 0.085650 0.030725
0.057262 0.084945 0.030717
0.066547 0.084497 0.030651
0.077233 0.084377 0.030517
0.089245 0.084637 0.030312
0.102374 0.085308 0.030033
0.116348 0.086394 0.029674
0.130914 0.087878 0.029230
0.145882 0.089713 0.028699
0.161147 0.091841 0.028086
0.176751 0.094259 0.027386
0.192771 0.096918 0.026619
0.209373 0.099806 0.025817
0.226702 0.102924 0.025021
0.244739 0.106258 0.024260
0.263534 0.109842 0.023558
0.283058 0.113700 0.022932
0.303262 0.117854 0.022393
0.324261 0.122413 0.021973
0.346050 0.127432 0.021688
0.368654 0.132981 0.021561
0.391963 0.139016 0.021583
0.416007 0.145577 0.021769
0.440775 0.152670 0.022123
0.466277 0.160336 0.022661
0.492652 0.168721 0.023429
0.519754 0.177753 0.024404
0.547465 0.187374 0.025565
0.575702 0.197541 0.026896
0.604281 0.208085 0.028341
0.633094 0.218898 0.029867
0.051184 0.107568 0.044549
0.057806 0.106922 0.044638
0.064905 0.106347 0.044697
0.072886 0.105919 0.044701
0.082016 0.105707 0.044632
0.092403 0.105775 0.044481
0.104002 0.106175 0.044240
0.116656 0.106940 0.043908
0.130160 0.108083 0.043477
0.144319 0.109597 0.042943
0.158978 0.111451 0.042304
0.174040 0.113594 0.041567
0.189549 0.116034 0.040724
0.205562 0.118732 0.039800
0.222244 0.121702 0.038824
0.239692 0.124944 0.037847
0.257837 0.128425 0.036906
0.276688 0.132161 0.036026
0.296204 0.136160 0.035224
0.316486 0.140505 0.034541
0.337503 0.145225 0.033998
0.359268 0.150373 0.033624
0.381839 0.156017 0.033458
0.405113 0.162110 0.033490
0.429122 0.168689 0.033742
0.453856 0.175760 0.034219
0.479328 0.183362 0.034938
0.505676 0.191635 0.035964
0.532755 0.200519 0.037264
0.560449 0.209970 0.038812
0.588675 0.219951 0.040586
0.617246 0.230301 0.042513
0.646053 0.240913 0.044548
0.069682 0.129794 0.061449
0.076271 0.129379 0.061572
0.083289 0.129024 0.061661
0.091099 0.128793 0.061689
0.099949 0.128748 0.061633
0.109946 0.128944 0.061481
0.121074 0.129429 0.061226
0.133223 0.130241 0.060865
0.146240 0.131395 0.060391
0.159979 0.132897 0.059801
0.174312 0.134723 0.059095
0.189146 0.136836 0.058279
0.204533 0.139253 0.057346
0.220499 0.141949 0.056319
0.237185 0.144948 0.055228
0.254658 0.148254 0.054124
0.272829 0.151827 0.053050
0.291700 0.155676 0.052035
0.311229 0.159802 0.051102
0.331508 0.164275 0.050302
0.352505 0.169115 0.049661
0.374235 0.174362 0.049221
0.396762 0.180079 0.049033
0.419987 0.186223 0.049087
0.443946 0.192824 0.049412
0.468633 0.199889 0.050016
0.494062 0.207457 0.050925
0.520371 0.215665 0.052217
0.547414 0.224457 0.053851
0.575071 0.233793 0.055793
0.603254 0.243635 0.058015
0.631779 0.253829 0.060427
0.660537 0.264275 0.062972
0.090943 0.153856 0.080921
0.097312 0.153586 0.081087
0.104075 0.153370 0.081218
0.111569 0.153262 0.081282
0.120028 0.153319 0.081259
0.129567 0.153589 0.081131
0.140193 0.154118 0.080891
0.151833 0.154940 0.080536
0.164379 0.156079 0.080061
0.177717 0.157543 0.079464
0.191738 0.159318 0.078747
0.206347 0.161378 0.077918
0.221600 0.163751 0.076970
0.237500 0.166422 0.075923
0.254166 0.169428 0.074803
0.271633 0.172775 0.073658
0.289794 0.176412 0.072534
0.308642 0.180346 0.071460
0.328135 0.184568 0.070465
0.348367 0.189144 0.069607
0.369310 0.194085 0.068919
0.390982 0.199425 0.068455
0.413448 0.205217 0.068276
0.436613 0.211416 0.068377
0.460516 0.218053 0.068792
0.485150 0.225138 0.069535
0.510530 0.232708 0.070633
0.536790 0.240894 0.072179
0.563779 0.249640 0.074124
0.591368 0.258898 0.076426
0.619466 0.268630 0.079048
0.647888 0.278684 0.081886
0.676526 0.288965 0.084871
0.114529 0.179517 0.102461
0.120538 0.179326 0.102680
0.126919 0.179185 0.102864
0.133993 0.179143 0.102982
0.141990 0.179250 0.103010
0.151035 0.179553 0.102932
0.161156 0.180095 0.102739
0.172310 0.180908 0.102428
0.184417 0.182017 0.101997
0.197388 0.183435 0.101447
0.211121 0.185155 0.100783
0.225518 0.187158 0.100015
0.240633 0.189480 0.099134
0.256446 0.192118 0.098159
0.273055 0.195116 0.097107
0.290476 0.198483 0.096022
0.308592 0.202166 0.094945
0.327397 0.206166 0.093908
0.346842 0.210470 0.092942
0.367020 0.215135 0.092107
0.387900 0.220164 0.091445
0.409501 0.225584 0.091015
0.431894 0.231448 0.090891
0.454986 0.237710 0.091071
0.478816 0.244398 0.091593
0.503378 0.251518 0.092474
0.528686 0.259107 0.093746
0.554869 0.267286 0.095510
0.581757 0.275991 0.097703
0.609231 0.285185 0.100287
0.637202 0.294833 0.103224
0.665486 0.304792 0.106398
0.693979 0.314972 0.109738
0.140042 0.206646 0.125617
0.145610 0.206489 0.125895
0.151540 0.206379 0.126142
0.158144 0.206362 0.126326
0.165652 0.206486 0.126423
0.174202 0.206796 0.126418
0.183839 0.207331 0.126300
0.194542 0.208125 0.126067
0.206252 0.209202 0.125722
0.218893 0.210577 0.125268
0.232368 0.212249 0.124715
0.246570 0.214203 0.124071
0.261554 0.216482 0.123332
0.277280 0.219091 0.122510
0.293830 0.222083 0.121618
0.311203 0.225468 0.120689
0.329264 0.229188 0.119759
0.348002 0.233239 0.118857
0.367372 0.237604 0.118015
0.387467 0.242340 0.117292
0.408262 0.247447 0.116735
0.429779 0.252947 0.116407
0.452087 0.258884 0.116388
0.475093 0.265209 0.116681
0.498837 0.271951 0.117326
0.523308 0.279114 0.118342
0.548516 0.286729 0.119760
0.574582 0.294912 0.121687
0.601348 0.303604 0.124065
0.628675 0.312758 0.126848
0.656465 0.322335 0.129997
0.684545 0.332201 0.133393
0.712816 0.342272 0.136961
0.167191 0.235188 0.150082
0.172297 0.235042 0.150426
0.177759 0.234940 0.150740
0.183887 0.234927 0.150998
0.190916 0.235049 0.151176
0.198993 0.235350 0.151258
0.208179 0.235870 0.151236
0.218470 0.236641 0.151107
0.229821 0.237690 0.150880
0.242165 0.239032 0.150560
0.255403 0.240668 0.150160
0.269422 0.242585 0.149690
0.284275 0.244831 0.149147
0.299904 0.247416 0.148540
0.316377 0.250398 0.147876
0.333677 0.253790 0.147178
0.351665 0.257533 0.146476
0.370331 0.261623 0.145793
0.389626 0.266038 0.145159
0.409643 0.270834 0.144628
0.430353 0.276003 0.144249
0.451780 0.281565 0.144085
0.473995 0.287564 0.144220
0.496905 0.293952 0.144656
0.520548 0.300750 0.145440
0.544910 0.307960 0.146587
0.569994 0.315606 0.148130
0.595912 0.323798 0.150174
0.622498 0.332472 0.152664
0.649610 0.341580 0.155553
0.677147 0.351083 0.158804
0.704943 0.360854 0.162298
0.732905 0.370814 0.165963
0.195816 0.265146 0.175733
0.200476 0.265003 0.176139
0.205489 0.264902 0.176520
0.211165 0.264884 0.176852
0.217744 0.264995 0.177115
0.225382 0.265281 0.177292
0.234154 0.265783 0.177376
0.244069 0.266534 0.177368
0.255091 0.267560 0.177277
0.267159 0.268878 0.177114
0.280173 0.270488 0.176891
0.294014 0.272381 0.176622
0.308731 0.274607 0.176305
0.324257 0.277179 0.175946
0.340647 0.280159 0.175549
0.357874 0.283558 0.175129
0.375789 0.287314 0.174706
0.394378 0.291424 0.174300
0.413592 0.295868 0.173935
0.433521 0.300699 0.173658
0.454139 0.305911 0.173514
0.475469 0.311520 0.173566
0.497580 0.317568 0.173891
0.520380 0.324002 0.174498
0.543901 0.330842 0.175428
0.568126 0.338085 0.176699
0.593048 0.345750 0.178342
0.618764 0.353936 0.180455
0.645104 0.362578 0.182987
0.671918 0.371624 0.185896
0.699101 0.381034 0.189145
0.726499 0.390690 0.192624
0.754033 0.400519 0.196264
0.225860 0.296546 0.202575
0.230111 0.296407 0.203036
0.234711 0.296307 0.203477
0.239972 0.296284 0.203878
0.246138 0.296385 0.204221
0.253373 0.296655 0.204492
0.261763 0.297139 0.204686
0.271328 0.297872 0.204804
0.282041 0.298880 0.204856
0.293845 0.300180 0.204857
0.306639 0.301773 0.204820
0.320302 0.303651 0.204757
0.334894 0.305870 0.204672
0.350328 0.308438 0.204569
0.366609 0.311400 0.204450
0.383735 0.314786 0.204325
0.401564 0.318542 0.204205
0.420073 0.322662 0.204104
0.439207 0.327122 0.204041
0.459051 0.331974 0.204056
0.479577 0.337210 0.204185
0.500806 0.342845 0.204485
0.522805 0.348920 0.205026
0.545478 0.355378 0.205816
0.568853 0.362237 0.206893
0.592904 0.369491 0.208275
0.617615 0.377152 0.209992
0.643059 0.385308 0.212133
0.669059 0.393891 0.214651
0.695455 0.402844 0.217508
0.722137 0.412126 0.220670
0.748971 0.421628 0.224036
0.775892 0.431282 0.227545
0.257326 0.329418 0.230683
0.261208 0.329288 0.231187
0.265436 0.329191 0.231677
0.270321 0.329166 0.232136
0.276109 0.329259 0.232551
0.282973 0.329516 0.232910
0.291006 0.329984 0.233208
0.300239 0.330699 0.233449
0.310651 0.331689 0.233643
0.322191 0.332972 0.233805
0.334760 0.334549 0.233949
0.348227 0.336410 0.234085
0.362644 0.338606 0.234222
0.377925 0.341149 0.234361
0.394111 0.344104 0.234506
0.411158 0.347485 0.234664
0.428904 0.351233 0.234840
0.447326 0.355344 0.235043
0.466373 0.359797 0.235285
0.486126 0.364645 0.235598
0.506554 0.369879 0.236011
0.527674 0.375514 0.236570
0.549549 0.381589 0.237337
0.572080 0.388048 0.238316
0.595286 0.394906 0.239544
0.619133 0.402151 0.241033
0.643583 0.409787 0.242808
0.668673 0.417887 0.244946
0.694212 0.426377 0.247405
0.720029 0.435194 0.250148
0.746007 0.444295 0.253146
0.772040 0.453582 0.256313
0.798086 0.462995 0.259597
0.290235 0.363785 0.260129
0.293786 0.363663 0.260665
0.297679 0.363572 0.261191
0.302222 0.363548 0.261698
0.307665 0.363635 0.262175
0.314183 0.363881 0.262612
0.321879 0.364333 0.263008
0.330789 0.365030 0.263363
0.340902 0.366001 0.263689
0.352173 0.367263 0.264000
0.364502 0.368821 0.264309
0.377763 0.370663 0.264626
0.392022 0.372848 0.264960
0.407180 0.375382 0.265316
0.423231 0.378311 0.265697
0.440150 0.381661 0.266111
0.457788 0.385381 0.266558
0.476116 0.389468 0.267046
0.495070 0.393896 0.267579
0.514726 0.398719 0.268182
0.535050 0.403925 0.268876
0.556053 0.409531 0.269694
0.577790 0.415577 0.270681
0.600156 0.422005 0.271843
0.623157 0.428827 0.273206
0.646742 0.436027 0.274781
0.670847 0.443600 0.276590
0.695460 0.451603 0.278692
0.720372 0.459954 0.281051
0.745393 0.468584 0.283633
0.770399 0.477447 0.286410
0.795323 0.486456 0.289314
0.820160 0.495561 0.292303
0.324597 0.399661 0.290955
0.327851 0.399542 0.291514
0.331441 0.399453 0.292069
0.335674 0.399428 0.292614
0.340798 0.399510 0.293144
0.346992 0.399746 0.293651
0.354363 0.400183 0.294134
0.362956 0.400860 0.294594
0.372766 0.401806 0.295039
0.383755 0.403043 0.295483
0.395830 0.404574 0.295936
0.408866 0.406391 0.296409
0.422929 0.408552 0.296913
0.437948 0.411077 0.297454
0.453949 0.414024 0.298041
0.470797 0.417367 0.298677
0.488296 0.421035 0.299358
0.506449 0.425044 0.300090
0.525241 0.429397 0.300879
0.544762 0.434157 0.301747
0.564961 0.439309 0.302702
0.585832 0.444862 0.303764
0.607410 0.450851 0.304963
0.629578 0.457216 0.306298
0.652329 0.463975 0.307791
0.675598 0.471114 0.309453
0.699266 0.478594 0.311284
0.723239 0.486442 0.313318
0.747312 0.494592 0.315536
0.771278 0.502975 0.317912
0.794996 0.511534 0.320412
0.818454 0.520192 0.322986
0.841690 0.528911 0.325608
0.360409 0.437049 0.323166
0.363393 0.436922 0.323743
0.366708 0.436824 0.324322
0.370656 0.436792 0.324902
0.375485 0.436866 0.325479
0.381373 0.437092 0.326050
0.388430 0.437513 0.326611
0.396707 0.438167 0.327163
0.406206 0.439083 0.327713
0.416892 0.440282 0.328270
0.428675 0.441767 0.328845
0.441425 0.443529 0.329445
0.455208 0.445619 0.330082
0.469990 0.448079 0.330768
0.485853 0.450991 0.331520
0.502523 0.454270 0.332332
0.519916 0.457902 0.333207
0.537994 0.461882 0.334150
0.556699 0.466193 0.335163
0.576116 0.470897 0.336264
0.596195 0.475980 0.337452
0.616920 0.481454 0.338735
0.638307 0.487352 0.340125
0.660221 0.493610 0.341611
0.682616 0.500230 0.343201
0.705427 0.507224 0.344910
0.728548 0.514599 0.346753
0.751752 0.522299 0.348723
0.774777 0.530224 0.350789
0.797398 0.538311 0.352927
0.819472 0.546502 0.355108
0.841067 0.554741 0.357306
0.862277 0.563002 0.359508
0.397649 0.475947 0.356734
0.400384 0.475792 0.357331
0.403447 0.475671 0.357935
0.407132 0.475620 0.358547
0.411684 0.475679 0.359170
0.417281 0.475891 0.359799
0.424036 0.476294 0.360431
0.432001 0.476925 0.361066
0.441185 0.477809 0.361706
0.451562 0.478968 0.362360
0.463046 0.480405 0.363034
0.475518 0.482115 0.363736
0.489064 0.484155 0.364481
0.503640 0.486562 0.365282
0.519279 0.489398 0.366157
0.535752 0.492600 0.367104
0.552975 0.496157 0.368129
0.570903 0.500065 0.369239
0.589469 0.504303 0.370432
0.608749 0.508931 0.371727
0.628682 0.513930 0.373116
0.649234 0.519311 0.374593
0.670396 0.525105 0.376154
0.692016 0.531246 0.377783
0.714020 0.537734 0.379477
0.736288 0.544572 0.381236
0.758645 0.551756 0.383061
0.780812 0.559214 0.384934
0.802500 0.566839 0.386822
0.823453 0.574560 0.388692
0.843527 0.582318 0.390519
0.862881 0.590073 0.392297
0.881672 0.597813 0.394030
0.436275 0.516332 0.391610
0.438780 0.516127 0.392230
0.441605 0.515961 0.392860
0.445044 0.515875 0.393508
0.449334 0.515909 0.394174
0.454653 0.516100 0.394859
0.461113 0.516484 0.395557
0.468770 0.517089 0.396267
0.477637 0.517940 0.396986
0.487695 0.519054 0.397721
0.498865 0.520437 0.398477
0.511029 0.522082 0.399260
0.524268 0.524042 0.400085
0.538558 0.526360 0.400968
0.553990 0.529120 0.401935
0.570275 0.532242 0.402983
0.587318 0.535716 0.404121
0.605075 0.539537 0.405356
0.623474 0.543689 0.406689
0.642587 0.548226 0.408140
0.662337 0.553129 0.409693
0.682665 0.558402 0.411331
0.703527 0.564069 0.413039
0.724755 0.570065 0.414788
0.746238 0.576384 0.416567
0.767793 0.583019 0.418359
0.789173 0.589954 0.420146
0.810050 0.597111 0.421901
0.830121 0.604379 0.423589
0.849106 0.611675 0.425173
0.866874 0.618944 0.426626
0.883681 0.626162 0.427967
0.899751 0.633330 0.429220
0.476225 0.558151 0.427719
0.478512 0.557874 0.428369
0.481113 0.557644 0.429031
0.484316 0.557506 0.429716
0.488356 0.557501 0.430429
0.493407 0.557664 0.431168
0.499581 0.558023 0.431928
0.506936 0.558601 0.432704
0.515489 0.559417 0.433494
0.525227 0.560487 0.434298
0.536077 0.561813 0.435122
0.547927 0.563391 0.435969
0.560867 0.565273 0.436856
0.574887 0.567505 0.437801
0.590086 0.570175 0.438835
0.606121 0.573190 0.439954
0.622934 0.576556 0.441172
0.640481 0.580274 0.442499
0.658674 0.584322 0.443937
0.677569 0.588755 0.445505
0.697070 0.593547 0.447184
0.717085 0.598696 0.448949
0.737528 0.604217 0.450770
0.758215 0.610042 0.452611
0.778992 0.616155 0.454447
0.799615 0.622542 0.456245
0.819764 0.629173 0.457969
0.839074 0.635962 0.459579
0.857248 0.642802 0.461042
0.874007 0.649611 0.462322
0.889243 0.656336 0.463398
0.903311 0.662973 0.464314
0.916497 0.669534 0.465107
0.517399 0.601304 0.464950
0.519487 0.600946 0.465648
0.521883 0.600643 0.466359
0.524866 0.600444 0.467094
0.528667 0.600391 0.467858
0.533459 0.600515 0.468651
0.539352 0.600840 0.469468
0.546409 0.601383 0.470302
0.554648 0.602157 0.471149
0.564064 0.603175 0.472010
0.574591 0.604441 0.472887
0.586122 0.605948 0.473785
0.598754 0.607748 0.474720
0.612474 0.609884 0.475713
0.627384 0.612444 0.476796
0.643181 0.615356 0.477970
0.659760 0.618613 0.479248
0.677064 0.622217 0.480642
0.695002 0.626149 0.482155
0.713607 0.630462 0.483806
0.732758 0.635127 0.485573
0.752321 0.640131 0.487424
0.772162 0.645479 0.489319
0.792085 0.651098 0.491215
0.811899 0.656965 0.493073
0.831296 0.663051 0.494843
