Project4/HardBoost.cube
TITLE "Landscape"
# Created by Photon 3D ColorGrading
DOMAIN_MIN 0 0 0
DOMAIN_MAX 1 1 1
LUT_3D_SIZE 33
0.000035 0.000035 0.032774
0.021427 0.000495 0.008819
0.063128 0.000000 0.000471
0.108287 0.000009 0.000009
0.144812 0.000017 0.000017
0.171886 0.000011 0.000011
0.191580 0.000001 0.000001
0.208174 0.000005 0.000005
0.224344 0.000034 0.000034
0.240555 0.000091 0.000091
0.253389 0.000199 0.000199
0.269745 0.000325 0.000325
0.300788 0.000350 0.000350
0.341596 0.000289 0.000289
0.391332 0.000162 0.000162
0.446254 0.000043 0.000043
0.516312 0.000026 0.000026
0.597901 0.000496 0.000496
0.679190 0.001756 0.001756
0.758214 0.003983 0.003983
0.823811 0.033157 0.015949
0.898283 0.074020 0.013913
0.944074 0.109581 0.019353
0.975984 0.127848 0.022000
0.980185 0.133922 0.029499
0.982277 0.141313 0.038656
0.984267 0.148459 0.047464
0.986145 0.155371 0.055942
0.987903 0.162060 0.064103
0.989534 0.168534 0.071961
0.991033 0.174801 0.079528
0.992397 0.180866 0.086812
0.993621 0.186734 0.093824
0.002626 0.013837 0.013304
0.010927 0.010927 0.000482
0.051318 0.011620 0.000401
0.105347 0.011727 0.000310
0.144545 0.011661 0.000251
0.171846 0.011619 0.000194
0.191625 0.011593 0.000143
0.208351 0.011593 0.000116
0.224668 0.011622 0.000120
0.239266 0.011690 0.000164
0.253379 0.011800 0.000253
0.268986 0.011939 0.000378
0.299267 0.011963 0.000411
0.341418 0.011870 0.000342
0.389089 0.011738 0.000235
0.441714 0.011604 0.000121
0.513800 0.011554 0.000079
0.597135 0.012056 0.000547
0.674706 0.013267 0.001676
0.752465 0.015478 0.003746
0.821352 0.039840 0.014647
0.893869 0.073989 0.012569
0.941728 0.111094 0.017856
0.974035 0.130807 0.020403
0.981793 0.134365 0.024769
0.983887 0.141972 0.034368
0.985868 0.149314 0.043594
0.987727 0.156402 0.052464
0.989456 0.163248 0.060995
0.991047 0.169860 0.069201
0.992494 0.176248 0.077094
0.993796 0.182416 0.084685
0.994950 0.188372 0.091983
0.000069 0.025058 0.000694
0.011321 0.022843 0.000108
0.030869 0.023955 0.000724
0.096039 0.024450 0.001304
0.135587 0.024176 0.000999
0.169091 0.024006 0.000795
0.189576 0.023901 0.000620
0.208303 0.023851 0.000505
0.223282 0.023856 0.000442
0.239328 0.023901 0.000433
0.254066 0.023997 0.000480
0.269913 0.024127 0.000575
0.300122 0.024138 0.000600
0.340698 0.024041 0.000544
0.388769 0.023882 0.000434
0.439294 0.023740 0.000329
0.508887 0.023658 0.000264
0.594065 0.024156 0.000695
0.673346 0.025457 0.001826
0.747572 0.027581 0.003683
0.815251 0.045103 0.012194
0.886948 0.073923 0.011177
0.937396 0.113833 0.016326
0.971922 0.131418 0.018659
0.983534 0.132267 0.019583
0.985614 0.140162 0.029688
0.987570 0.147764 0.039391
0.989392 0.155087 0.048711
0.991071 0.162142 0.057664
0.992601 0.168940 0.066267
0.993976 0.175491 0.074531
0.995195 0.181801 0.082469
0.996257 0.187877 0.090091
0.000090 0.043432 0.000090
0.011715 0.043846 0.000167
0.023784 0.035284 0.000096
0.069017 0.037482 0.002293
0.119978 0.037437 0.002218
0.153613 0.037131 0.001796
0.182429 0.036917 0.001474
0.205878 0.036783 0.001229
0.223515 0.036724 0.001049
0.238158 0.036738 0.000949
0.254392 0.036800 0.000923
0.269341 0.036923 0.000971
0.297452 0.036943 0.000991
0.340060 0.036804 0.000916
0.386549 0.036636 0.000812
0.437864 0.036463 0.000694
0.504843 0.036357 0.000613
0.586443 0.036769 0.000936
0.666597 0.038041 0.001960
0.743372 0.040299 0.003804
0.812057 0.051590 0.011173
0.880829 0.071412 0.010102
0.932616 0.112272 0.014644
0.969512 0.132906 0.017136
0.984603 0.131315 0.014946
0.987120 0.139136 0.025124
0.989049 0.146979 0.035321
0.990830 0.154515 0.045105
0.992455 0.161759 0.054496
0.993919 0.168720 0.063507
0.995215 0.175411 0.072154
0.996345 0.181837 0.080449
0.997309 0.188008 0.088401
0.000147 0.062163 0.000147
0.011783 0.062858 0.000206
0.023867 0.052306 0.000309
0.044472 0.048964 0.001379
0.099304 0.050911 0.003411
0.140166 0.050798 0.003132
0.171023 0.050537 0.002662
0.199218 0.050337 0.002283
0.221375 0.050210 0.001971
0.238641 0.050165 0.001742
0.253491 0.050202 0.001613
0.269912 0.050291 0.001579
0.296847 0.050309 0.001568
0.337066 0.050180 0.001498
0.384435 0.049981 0.001379
0.434487 0.049792 0.001255
0.500598 0.049652 0.001149
0.580885 0.050010 0.001396
0.659480 0.051201 0.002270
0.735126 0.053361 0.003898
0.807637 0.056888 0.008314
0.875603 0.073177 0.009625
0.930141 0.117169 0.013936
0.968640 0.136961 0.016228
0.982291 0.136521 0.013861
0.988205 0.141940 0.021103
0.990119 0.149914 0.031763
0.991871 0.157561 0.041983
0.993454 0.164892 0.051781
0.994861 0.171921 0.061175
0.996090 0.178658 0.070178
0.997140 0.185113 0.078804
0.998013 0.191293 0.087062
0.000246 0.076781 0.000246
0.011897 0.075588 0.000283
0.024039 0.065154 0.000381
0.036755 0.060768 0.000283
0.080429 0.063807 0.003787
0.124540 0.064615 0.004425
0.156286 0.064528 0.003999
0.186574 0.064375 0.003558
0.211243 0.064240 0.003136
0.234473 0.064159 0.002812
0.253829 0.064148 0.002570
0.269258 0.064224 0.002432
0.296052 0.064238 0.002369
0.331666 0.064156 0.002304
0.379352 0.063935 0.002176
0.430714 0.063710 0.002029
0.496018 0.063536 0.001895
0.574543 0.063831 0.002059
0.651729 0.064927 0.002777
0.726731 0.066994 0.004198
0.800195 0.072201 0.008450
0.868518 0.085325 0.009457
0.923143 0.122544 0.012919
0.965138 0.139410 0.015075
0.981479 0.139080 0.013008
0.989196 0.143216 0.016948
0.991082 0.151356 0.028119
0.992791 0.159140 0.038819
0.994313 0.166584 0.049067
0.995647 0.173699 0.058880
0.996789 0.180500 0.068273
0.997741 0.186994 0.077259
0.998507 0.193194 0.085850
0.000409 0.086881 0.000409
0.012075 0.085617 0.000421
0.024248 0.077354 0.000502
0.036662 0.073314 0.000461
0.056174 0.074750 0.001622
0.107024 0.078032 0.005068
0.145384 0.078653 0.005358
0.175686 0.078702 0.004968
0.200720 0.078650 0.004477
0.224331 0.078617 0.004066
0.246446 0.078622 0.003748
0.267563 0.078670 0.003529
0.295075 0.078689 0.003409
0.330582 0.078619 0.003318
0.375615 0.078430 0.003193
0.424319 0.078213 0.003043
0.488943 0.077996 0.002875
0.567526 0.078222 0.002955
0.641806 0.079163 0.003477
0.714835 0.081007 0.004598
0.792620 0.083869 0.007843
0.861637 0.095306 0.010803
0.915086 0.124916 0.012024
0.959808 0.144164 0.014125
0.979115 0.145620 0.012441
0.989806 0.147690 0.013315
0.991674 0.155890 0.024966
0.993346 0.163713 0.036119
0.994817 0.171172 0.046791
0.996084 0.178282 0.056998
0.997146 0.185056 0.066756
0.998008 0.191505 0.076077
0.998674 0.197641 0.084974
0.000628 0.096327 0.000628
0.012310 0.095314 0.000619
0.024507 0.089511 0.000685
0.037004 0.085913 0.000659
0.050383 0.086800 0.000789
0.081395 0.089875 0.003497
0.124363 0.092231 0.005749
0.162016 0.093045 0.006188
0.188924 0.093255 0.005826
0.212677 0.093369 0.005401
0.238026 0.093471 0.005085
0.264571 0.093556 0.004852
0.295628 0.093593 0.004700
0.331376 0.093555 0.004580
0.372319 0.093431 0.004453
0.419994 0.093230 0.004296
0.481491 0.093004 0.004112
0.555292 0.093108 0.004075
0.629928 0.093906 0.004419
0.704976 0.095694 0.005368
0.784826 0.098657 0.008454
0.852705 0.106972 0.012717
0.903553 0.126251 0.011259
0.952619 0.147422 0.013267
0.975928 0.151570 0.012045
0.990125 0.151259 0.009806
0.992032 0.159482 0.021906
0.993655 0.167348 0.033544
0.995060 0.174825 0.044668
0.996245 0.181928 0.055296
0.997212 0.188671 0.065441
0.997969 0.195068 0.075116
0.998524 0.201131 0.084335
0.000897 0.105871 0.000897
0.012603 0.105124 0.000880
0.024807 0.101754 0.000919
0.037376 0.098599 0.000911
0.050338 0.099706 0.000969
0.065398 0.101359 0.001364
0.104877 0.105021 0.004977
0.149414 0.107206 0.007054
0.181638 0.107952 0.007220
0.209302 0.108331 0.006965
0.236384 0.108589 0.006670
0.264054 0.108780 0.006414
0.299348 0.108878 0.006277
0.336020 0.108893 0.006128
0.375497 0.108831 0.005974
0.418573 0.108705 0.005808
0.474536 0.108515 0.005621
0.546527 0.108560 0.005517
0.619378 0.109225 0.005698
0.695633 0.110935 0.006461
0.775015 0.114511 0.009208
0.839815 0.125264 0.017861
0.895474 0.132848 0.011461
0.946095 0.153026 0.013025
0.972416 0.158002 0.011990
0.986967 0.157552 0.009764
0.992037 0.163561 0.019168
0.993606 0.171433 0.031298
0.994939 0.178888 0.042880
0.996036 0.185943 0.053931
0.996904 0.192615 0.064463
0.997551 0.198919 0.074490
0.997991 0.204871 0.084026
0.001162 0.120681 0.001162
0.012888 0.120149 0.001148
0.025086 0.120842 0.001173
0.037783 0.116425 0.001255
0.050828 0.117766 0.001346
0.064205 0.116122 0.001406
0.104997 0.118822 0.005762
0.146292 0.121506 0.008215
0.180282 0.122771 0.008829
0.207509 0.123431 0.008658
0.238865 0.123942 0.008544
0.270142 0.124281 0.008340
0.306973 0.124492 0.008203
0.348774 0.124569 0.008064
0.385119 0.124596 0.007834
0.426341 0.124549 0.007628
0.477405 0.124453 0.007431
0.539785 0.124499 0.007276
0.611303 0.125092 0.007342
0.685328 0.126617 0.007858
0.765540 0.129858 0.009331
0.831137 0.136543 0.017224
0.886962 0.139049 0.012172
0.938896 0.160968 0.013212
0.968810 0.167362 0.012361
0.983694 0.166756 0.010133
0.991643 0.170719 0.017056
0.993165 0.178477 0.029634
0.994435 0.185796 0.041632
0.995454 0.192695 0.053064
0.996232 0.199192 0.063943
0.996780 0.205306 0.074283
0.997117 0.211053 0.084096
0.001288 0.148846 0.001288
0.013016 0.148373 0.001288
0.025229 0.150179 0.001341
0.037987 0.148947 0.001511
0.051196 0.148632 0.001754
0.070456 0.148858 0.001567
0.105668 0.147532 0.002821
0.145731 0.146207 0.006535
0.180441 0.150503 0.007365
0.211486 0.150482 0.008141
0.242639 0.150130 0.008580
0.278780 0.147319 0.009362
0.317518 0.143201 0.010083
0.357357 0.140930 0.010286
0.402410 0.140710 0.010146
0.444324 0.140765 0.009880
0.495325 0.140824 0.009667
0.549055 0.141003 0.009473
0.608139 0.141498 0.009389
0.678021 0.142871 0.009692
0.754511 0.145758 0.010743
0.826280 0.145772 0.013555
0.878578 0.146102 0.013500
0.930659 0.168191 0.013837
0.964833 0.176416 0.013120
0.980035 0.175637 0.010900
0.990840 0.177611 0.015326
0.992309 0.185226 0.028359
0.993506 0.192378 0.040776
0.994439 0.199090 0.052590
0.995121 0.205380 0.063814
0.995568 0.211271 0.074460
0.995799 0.216784 0.084545
0.001377 0.180138 0.001377
0.013100 0.179681 0.001393
0.025322 0.181520 0.001472
0.038106 0.181359 0.001687
0.051377 0.182629 0.002009
0.076318 0.182680 0.001688
0.108305 0.182568 0.001805
0.145078 0.184021 0.003206
0.179769 0.184694 0.004819
0.214533 0.188228 0.005689
0.247381 0.187476 0.006680
0.285135 0.186589 0.007645
0.332376 0.186599 0.008499
0.373085 0.181339 0.009464
0.418343 0.181145 0.009625
0.467285 0.178748 0.009981
0.519568 0.172171 0.010756
0.575880 0.166693 0.011402
0.626351 0.161163 0.011918
0.682767 0.160075 0.012194
0.748839 0.162445 0.012775
0.816247 0.163960 0.014995
0.871090 0.160736 0.015126
0.923444 0.177633 0.015108
0.960639 0.186616 0.014329
0.975990 0.184649 0.012140
0.989560 0.184722 0.014117
0.990968 0.192147 0.027595
0.992089 0.199085 0.040419
0.992934 0.205561 0.052602
0.993520 0.211599 0.064153
0.993867 0.217225 0.075090
0.993997 0.222460 0.085424
0.001321 0.221218 0.001321
0.012999 0.222146 0.001334
0.025239 0.222404 0.001466
0.037967 0.226538 0.001679
0.051278 0.228205 0.002079
0.068263 0.231112 0.002420
0.106645 0.232845 0.001655
0.148563 0.232711 0.001767
0.185385 0.235084 0.002439
0.226249 0.240022 0.003259
0.266060 0.242543 0.004097
0.305363 0.242501 0.004967
0.352481 0.243707 0.005832
0.402878 0.245041 0.006523
0.449129 0.245523 0.006919
0.499627 0.244929 0.007439
0.555544 0.244070 0.008118
0.612856 0.239303 0.009294
0.665764 0.234123 0.010413
0.715054 0.226387 0.011628
0.765524 0.220268 0.016953
0.812609 0.215870 0.028301
0.869884 0.187881 0.016780
0.916033 0.188057 0.016928
0.956280 0.197982 0.016000
0.971888 0.195924 0.013827
0.987841 0.194365 0.013667
0.989199 0.201478 0.027526
0.990256 0.208088 0.040696
0.991027 0.214222 0.053187
0.991532 0.219909 0.065009
0.991797 0.225176 0.076178
0.991847 0.230052 0.086710
0.001040 0.276900 0.001040
0.012733 0.274081 0.001122
0.024915 0.276255 0.001254
0.037628 0.280599 0.001505
0.050875 0.286822 0.001916
0.064784 0.286278 0.002596
0.109246 0.291644 0.001681
0.158826 0.291209 0.001260
0.202735 0.294012 0.001534
0.247116 0.298206 0.002068
0.291763 0.300566 0.002794
0.332692 0.304271 0.003204
0.385431 0.307339 0.004028
0.432699 0.308567 0.004640
0.485838 0.311581 0.005275
0.534633 0.315268 0.005654
0.591908 0.314609 0.006965
0.648643 0.316965 0.009612
0.697414 0.313174 0.015000
0.742456 0.308833 0.023210
0.789072 0.306649 0.039004
0.848128 0.282293 0.029081
0.894780 0.252874 0.018606
0.923203 0.227339 0.018554
0.955227 0.218165 0.017908
0.967591 0.208038 0.015993
0.985053 0.204466 0.014412
0.986894 0.210891 0.028088
0.987887 0.217121 0.041573
0.988588 0.222865 0.054339
0.989020 0.228155 0.066397
0.989213 0.233022 0.077764
0.989194 0.237500 0.088459
0.000650 0.341182 0.000650
0.012294 0.337939 0.000744
0.024443 0.339813 0.000902
0.037167 0.342008 0.001210
0.050391 0.349667 0.001647
0.081285 0.347857 0.001633
0.126556 0.349837 0.001118
0.181629 0.353156 0.000804
0.229925 0.357657 0.000984
0.276786 0.360794 0.001418
0.321258 0.362174 0.001968
0.367309 0.364084 0.002578
0.415756 0.368884 0.003098
0.467607 0.370993 0.003977
0.517793 0.375433 0.004719
0.568513 0.378185 0.008560
0.617460 0.377877 0.015418
0.672467 0.379564 0.028646
0.717892 0.380840 0.041237
0.758399 0.377811 0.054713
0.812514 0.366040 0.051492
0.899265 0.343136 0.025158
0.928082 0.326888 0.023408
0.954933 0.305044 0.021576
0.977017 0.276000 0.019893
0.978560 0.242166 0.017828
0.983087 0.222114 0.018752
0.984093 0.221337 0.029372
0.985034 0.227110 0.043109
0.985678 0.232392 0.056090
0.986055 0.237220 0.068326
0.986193 0.241630 0.079837
0.986127 0.245658 0.090643
0.000294 0.407885 0.000294
0.011858 0.407505 0.000356
0.023988 0.408165 0.000541
0.036689 0.410205 0.000871
0.063041 0.411598 0.001002
0.111616 0.414904 0.000595
0.158158 0.412099 0.000425
0.214077 0.418394 0.000414
0.264078 0.422152 0.000718
0.309328 0.425720 0.001082
0.355163 0.427736 0.001608
0.400107 0.430758 0.003471
0.449628 0.429604 0.007219
0.498915 0.434362 0.014982
0.545765 0.433705 0.021864
0.594651 0.437545 0.030703
0.643910 0.439813 0.045432
0.689381 0.439257 0.061133
0.728221 0.439601 0.082220
0.787693 0.434189 0.072830
0.865199 0.424317 0.047683
0.925350 0.407592 0.033064
0.954754 0.397067 0.030196
0.972796 0.382744 0.038300
0.975967 0.368344 0.056155
0.980497 0.331011 0.051441
0.982248 0.281814 0.041593
0.982238 0.252754 0.039595
0.981625 0.237215 0.045328
0.982227 0.241988 0.058467
0.982563 0.246313 0.070827
0.982668 0.250231 0.082428
0.982577 0.253779 0.093296
0.010086 0.482383 0.005053
0.017801 0.482623 0.005100
0.023804 0.482733 0.002821
0.063543 0.485025 0.005261
0.103540 0.483004 0.005172
0.150991 0.483849 0.005062
0.197754 0.484587 0.006340
0.249478 0.486359 0.009089
0.299976 0.492979 0.016974
0.341988 0.492887 0.019909
0.387081 0.495359 0.024337
0.434096 0.499520 0.030770
0.483944 0.501910 0.040348
0.530418 0.499213 0.049552
0.576800 0.502313 0.065253
0.619285 0.501197 0.076915
0.660304 0.501137 0.095581
0.696044 0.500132 0.115174
0.763854 0.500000 0.097039
0.840102 0.496373 0.070756
0.907554 0.492275 0.050575
0.950417 0.487544 0.043818
0.960589 0.478924 0.058416
0.964867 0.468265 0.077573
0.969579 0.455530 0.091610
0.975923 0.425506 0.091251
0.981231 0.381967 0.082043
0.983464 0.341898 0.074685
0.982102 0.295346 0.068317
0.980968 0.276091 0.071031
0.978784 0.257354 0.074959
0.978687 0.259043 0.085517
0.978446 0.261200 0.096471
0.058168 0.556295 0.037273
0.062963 0.555864 0.037199
0.064061 0.551938 0.033791
0.110283 0.554462 0.034883
0.154572 0.553916 0.037207
0.194867 0.554005 0.038421
0.235279 0.553450 0.038217
0.287259 0.557755 0.046611
0.331591 0.558835 0.053689
0.373991 0.560153 0.060697
0.417895 0.562315 0.068686
0.461617 0.563747 0.077429
0.512894 0.563727 0.091079
0.556005 0.563856 0.106118
0.596732 0.561662 0.121594
0.629541 0.559464 0.138778
0.661389 0.555089 0.151218
0.729824 0.559401 0.126400
0.810630 0.563860 0.097000
0.883097 0.567155 0.071792
0.935763 0.565883 0.057282
0.947150 0.559370 0.073724
0.952629 0.551662 0.089842
0.957414 0.543814 0.107560
0.962977 0.529667 0.120285
0.970118 0.506788 0.121874
0.977102 0.470307 0.117805
0.982287 0.437045 0.111718
0.984699 0.400128 0.108152
0.984256 0.355231 0.099877
0.979352 0.302163 0.091523
0.976465 0.281669 0.093507
0.974197 0.270410 0.099909
0.124585 0.618775 0.086694
0.128729 0.617634 0.086396
0.129784 0.612787 0.082385
0.159666 0.614600 0.084342
0.193204 0.612994 0.085740
0.230255 0.614427 0.087643
0.268625 0.616445 0.090841
0.318259 0.619152 0.097004
0.362295 0.621102 0.104485
0.402828 0.619011 0.107722
0.443518 0.618061 0.114513
0.485202 0.617251 0.125290
0.527997 0.613712 0.138331
0.567647 0.606995 0.155548
0.596671 0.602024 0.169477
0.623309 0.595994 0.183002
0.687704 0.606798 0.156134
0.760437 0.616948 0.126256
0.841846 0.625969 0.096366
0.915712 0.634526 0.072535
0.936455 0.628341 0.076213
0.942097 0.619159 0.094640
0.947886 0.609757 0.110537
0.953782 0.598405 0.124234
0.959394 0.586709 0.136829
0.965872 0.567949 0.143043
0.972702 0.540181 0.143752
0.978857 0.510486 0.140577
0.983442 0.478905 0.136837
0.986030 0.441890 0.131396
0.984930 0.390612 0.122499
0.980369 0.342871 0.114717
0.975024 0.308447 0.112483
0.172271 0.674235 0.125965
0.175603 0.672368 0.125341
0.181262 0.670511 0.124971
0.201796 0.669936 0.126472
0.230753 0.669233 0.125941
0.263350 0.668131 0.126245
0.299347 0.669562 0.132962
0.345017 0.670678 0.140582
0.387340 0.669523 0.147999
0.425662 0.667069 0.155150
0.462749 0.660478 0.160655
0.498212 0.653892 0.170461
0.533199 0.644849 0.184134
0.562961 0.636098 0.198211
0.588631 0.628312 0.208045
0.640332 0.643180 0.185244
0.709906 0.661307 0.155937
0.793598 0.678554 0.122268
0.863830 0.690304 0.096124
0.925959 0.697656 0.081427
0.933085 0.686931 0.094309
0.939335 0.674658 0.110774
0.945307 0.667213 0.125292
0.951097 0.654517 0.140042
0.957330 0.640882 0.149763
0.963442 0.622940 0.157833
0.969536 0.598713 0.163110
0.975462 0.577166 0.163522
0.980819 0.549067 0.161436
0.984875 0.516998 0.158755
0.987203 0.474550 0.151377
0.986854 0.434626 0.145733
0.982869 0.388309 0.139514
0.206301 0.744432 0.147535
0.208608 0.737764 0.147374
0.212417 0.735285 0.146317
0.228047 0.728508 0.148023
0.256129 0.731753 0.148138
0.287787 0.728942 0.150828
0.321624 0.726491 0.154972
0.363961 0.729762 0.159898
0.405047 0.728486 0.165965
0.441678 0.720415 0.172840
0.476617 0.710692 0.180841
0.510599 0.702026 0.188563
0.544919 0.690414 0.197529
0.574060 0.680647 0.203803
0.602232 0.675802 0.207040
0.655709 0.694699 0.184051
0.728930 0.719096 0.152652
0.814756 0.744753 0.119222
0.891779 0.763253 0.091705
0.925068 0.758280 0.093536
0.932084 0.745983 0.107015
0.938799 0.733515 0.120477
0.944971 0.720604 0.134961
0.950905 0.709984 0.147621
0.956509 0.697422 0.159784
0.962199 0.680054 0.169309
0.968232 0.656080 0.174237
0.973527 0.637910 0.178151
0.978452 0.615956 0.180255
0.982766 0.589102 0.181257
0.986495 0.552675 0.177704
0.988695 0.521478 0.175492
0.988823 0.480452 0.171104
0.219068 0.873766 0.133623
0.208961 0.870831 0.124154
0.209219 0.868017 0.121788
0.220144 0.852422 0.122527
0.250391 0.854708 0.124338
0.287165 0.850339 0.127995
0.326585 0.842373 0.133619
0.374560 0.833669 0.141272
0.418189 0.828694 0.148053
0.458366 0.814183 0.155554
0.495688 0.801439 0.161964
0.531682 0.789042 0.168284
0.570826 0.776865 0.174539
0.604435 0.762298 0.178926
0.634347 0.751958 0.181039
0.667146 0.747896 0.179447
0.743145 0.778028 0.147776
0.837234 0.812934 0.111736
0.906550 0.833015 0.088046
0.926333 0.820557 0.100651
0.933431 0.804731 0.113342
0.940066 0.788583 0.126921
0.946114 0.776844 0.140587
0.952358 0.762618 0.150680
0.957692 0.749250 0.163147
0.962858 0.733192 0.173892
0.967978 0.712314 0.182301
0.972956 0.693759 0.187068
0.977144 0.675369 0.193240
0.981056 0.653336 0.197551
0.984732 0.625733 0.199057
0.987677 0.598353 0.199944
0.989870 0.566655 0.198643
0.276966 0.885987 0.197971
0.272801 0.889392 0.191683
0.270377 0.892342 0.185589
0.264958 0.893132 0.171912
0.290111 0.890838 0.173070
0.321765 0.886062 0.172134
0.356581 0.880747 0.175994
0.397104 0.874338 0.176871
0.435113 0.867568 0.174959
0.472832 0.861921 0.176581
0.510727 0.856745 0.176358
0.547730 0.852613 0.171142
0.589450 0.847398 0.163222
0.630434 0.843025 0.155850
0.663982 0.829625 0.156979
0.695964 0.818281 0.157447
0.753963 0.831962 0.141575
0.848905 0.869656 0.106555
0.918929 0.890601 0.087701
0.929619 0.873197 0.103183
0.936509 0.856349 0.115526
0.942922 0.840276 0.128541
0.949070 0.822419 0.140864
0.954460 0.808219 0.154416
0.960005 0.790617 0.164094
0.964844 0.775995 0.174393
0.969200 0.757079 0.185357
0.973388 0.740203 0.193273
0.977403 0.721457 0.198901
0.980728 0.704102 0.205767
0.984032 0.678781 0.209871
0.986782 0.654587 0.213741
0.989116 0.630458 0.216269
0.314893 0.899291 0.237603
0.312426 0.902690 0.232327
0.309169 0.906273 0.226764
0.307471 0.909445 0.221333
0.327063 0.908072 0.220620
0.350989 0.903404 0.215091
0.380995 0.898190 0.215074
0.416635 0.893306 0.216745
0.451800 0.888280 0.214515
0.484856 0.884016 0.211348
0.519917 0.880877 0.208983
0.554621 0.877438 0.203403
0.594237 0.874843 0.196178
0.633701 0.872942 0.187285
0.671671 0.871780 0.177421
0.710915 0.871774 0.165232
0.754157 0.870136 0.151619
0.832769 0.899020 0.127918
0.903803 0.923541 0.104998
0.933991 0.925258 0.101439
0.940240 0.907541 0.116208
0.946496 0.887093 0.128579
0.952496 0.871482 0.138733
0.957749 0.853763 0.151342
0.962642 0.835815 0.162941
0.967021 0.816128 0.175102
0.971206 0.799329 0.184239
0.974692 0.784975 0.194671
0.978062 0.767579 0.202937
0.980866 0.749908 0.212467
0.983888 0.726435 0.217435
0.986308 0.707934 0.223310
0.988612 0.683571 0.227030
0.339508 0.911805 0.260962
0.335211 0.915903 0.255882
0.334187 0.919174 0.251122
0.330906 0.923010 0.245917
0.345708 0.923434 0.245523
0.368408 0.920742 0.241776
0.395681 0.916604 0.239087
0.427060 0.911645 0.237565
0.459124 0.909097 0.236460
0.490554 0.905798 0.232336
0.523331 0.903192 0.228090
0.555918 0.902147 0.222066
0.593638 0.901107 0.215929
0.632073 0.900095 0.207591
0.669381 0.899156 0.198616
0.707462 0.898937 0.187344
0.749730 0.896804 0.175087
0.798834 0.901338 0.160401
0.862768 0.926226 0.141592
0.904575 0.938769 0.129363
0.937446 0.944892 0.118399
0.950729 0.933660 0.124223
0.956240 0.914145 0.135683
0.961150 0.895488 0.148052
0.965626 0.875938 0.160274
0.969831 0.858329 0.170238
0.973321 0.840369 0.182571
0.976463 0.823469 0.193827
0.979278 0.807353 0.204222
0.981781 0.791188 0.214054
0.984265 0.769101 0.221866
0.986449 0.751953 0.228400
0.988437 0.733815 0.233940
0.354264 0.917495 0.274981
0.350231 0.921732 0.270236
0.348685 0.925310 0.265693
0.346266 0.929103 0.260941
0.355143 0.930274 0.257467
0.377379 0.928574 0.255354
0.401909 0.926737 0.253082
0.432976 0.923523 0.252592
0.462944 0.921478 0.250148
0.494340 0.920421 0.244724
0.526238 0.919663 0.240556
0.557218 0.919924 0.235935
0.592484 0.920724 0.228751
0.629038 0.920579 0.219999
0.665734 0.920092 0.211325
0.703211 0.921106 0.202750
0.744501 0.920622 0.190630
0.785413 0.918719 0.179934
0.831880 0.929048 0.167923
0.873535 0.943803 0.156566
0.901847 0.949532 0.147824
0.934908 0.954969 0.136236
0.960104 0.954626 0.130910
0.964607 0.934352 0.143758
0.968901 0.914840 0.154036
0.972785 0.896429 0.163725
0.975921 0.875559 0.176788
0.978521 0.859397 0.190262
0.981007 0.844154 0.201038
0.983187 0.829408 0.211368
0.985185 0.809073 0.221630
0.986975 0.791456 0.230574
0.988734 0.776527 0.236512
0.363317 0.919367 0.282970
0.359467 0.923685 0.278478
0.356496 0.927763 0.273986
0.355463 0.931351 0.269629
0.360141 0.933632 0.265839
0.382574 0.932084 0.263781
0.406061 0.930691 0.261448
0.434181 0.928763 0.259006
0.462468 0.927414 0.255952
0.492634 0.926509 0.251727
0.524332 0.925977 0.247339
0.555644 0.926362 0.242207
0.590438 0.927259 0.234966
0.625823 0.928959 0.226679
0.661722 0.931046 0.219443
0.697443 0.933917 0.211397
0.735986 0.937047 0.202514
0.776856 0.940525 0.192299
0.815346 0.943035 0.184341
0.850941 0.948822 0.175199
0.875776 0.954337 0.166723
0.903672 0.959365 0.157693
0.931628 0.963851 0.150748
0.960432 0.968146 0.142113
0.972035 0.954687 0.146966
0.975473 0.933093 0.158006
0.978503 0.913723 0.168670
