Project4/HardBoost.cube
TITLE "Landscape"
# Created by Photon 3D ColorGrading
DOMAIN_MIN 0 0 0
DOMAIN_MAX 1 1 1
LUT_3D_SIZE 5
0.000035 0.000035 0.032774
0.224344 0.000034 0.000034
0.516312 0.000026 0.000026
0.980185 0.133922 0.029499
0.993621 0.186734 0.093824
0.000897 0.105871 0.000897
0.181638 0.107952 0.007220
0.474536 0.108515 0.005621
0.972416 0.158002 0.011990
0.997991 0.204871 0.084026
0.010086 0.482383 0.005053
0.299976 0.492979 0.016974
0.660304 0.501137 0.095581
0.969579 0.455530 0.091610
0.978446 0.261200 0.096471
0.339508 0.911805 0.260962
0.459124 0.909097 0.236460
0.749730 0.896804 0.175087
0.965626 0.875938 0.160274
0.988437 0.733815 0.233940
0.309538 0.968541 0.233203
0.396752 0.978563 0.215201
0.660067 0.976846 0.185665
0.894869 0.988535 0.138443
0.996380 0.983479 0.166175
0.000222 0.000222 0.310541
0.176453 0.000545 0.173452
0.426030 0.005768 0.108896
0.979806 0.079479 0.045252
0.988627 0.176175 0.125842
0.006788 0.116622 0.204918
0.090003 0.090003 0.101934
0.414218 0.090359 0.090359
0.909300 0.180652 0.104835
0.994189 0.211896 0.134434
0.031649 0.515923 0.294485
0.197991 0.505084 0.217056
0.633207 0.520257 0.124297
0.908206 0.499357 0.192123
0.967291 0.293679 0.160628
0.314621 0.921149 0.318402
0.404559 0.884540 0.294364
0.710264 0.872921 0.275744
0.907486 0.836860 0.269403
0.999925 0.763693 0.257527
0.288887 0.977272 0.235270
0.306824 0.998461 0.225577
0.619509 0.993628 0.210210
0.891045 0.995587 0.184232
0.999406 0.991921 0.190419
0.000581 0.000581 0.573825
0.108500 0.005634 0.485285
0.367783 0.007022 0.362034
0.975542 0.042961 0.346012
0.965159 0.186366 0.222203
0.006314 0.211840 0.655686
0.090508 0.157727 0.539051
0.375093 0.094522 0.394309
0.904283 0.127895 0.357056
0.960285 0.233222 0.243551
0.130466 0.618819 0.820947
0.211505 0.569301 0.692152
0.538902 0.562745 0.587843
0.908034 0.549101 0.432874
0.944718 0.383918 0.256828
0.252234 0.911263 0.764237
0.338502 0.886740 0.726419
0.589885 0.903916 0.618238
0.909364 0.862987 0.420587
0.990505 0.791708 0.310059
0.260888 0.972718 0.611181
0.276926 0.996558 0.578073
0.508792 0.999584 0.471111
0.855479 0.985465 0.274506
0.988667 0.988667 0.227810
0.004117 0.120133 0.828310
0.050407 0.007895 0.838209
0.240185 0.027445 0.742900
0.867130 0.061800 0.819949
0.987916 0.232396 0.649824
0.014023 0.347052 0.894839
0.096571 0.327024 0.903429
0.163283 0.192423 0.886960
0.839026 0.162242 0.814310
0.997689 0.245356 0.664440
0.266424 0.683469 0.917627
0.334842 0.668844 0.891093
0.349579 0.626733 0.900119
0.896889 0.604857 0.908190
0.999565 0.487879 0.710229
0.254270 0.952872 0.952872
0.366415 0.904244 0.904244
0.398736 0.909293 0.909293
0.862521 0.890357 0.909337
0.996167 0.822954 0.710344
0.222399 0.982384 0.891248
0.259225 0.995214 0.892782
0.323842 0.988854 0.884803
0.740997 0.999388 0.783861
0.997787 0.997787 0.577291
0.014836 0.299300 0.942226
0.042783 0.221316 0.977176
0.116002 0.046257 0.947719
0.512431 0.022665 0.905925
0.990032 0.285459 0.990032
0.182807 0.470134 0.971670
0.174462 0.429059 0.984539
0.225287 0.358694 0.955519
0.545242 0.270249 0.979431
0.999523 0.310747 0.999523
0.328748 0.720533 0.951117
0.348472 0.707556 0.978131
0.390305 0.677285 0.979986
0.577530 0.636352 0.978670
0.999363 0.588796 0.999363
0.310477 0.885809 0.975046
0.343185 0.892087 0.992939
0.404509 0.889605 0.992735
0.511555 0.883981 0.980614
0.999584 0.844304 0.999583
0.229623 0.993181 0.993181
0.257540 0.999992 0.999992
0.301777 0.994764 0.994764
0.366980 0.983365 0.983365
0.982390 0.999991 0.999991
