Project4/HardBoost.cube
TITLE "Landscape"
# Created by Photon 3D ColorGrading
DOMAIN_MIN 0 0 0
DOMAIN_MAX 1 1 1
LUT_3D_SIZE 9
0.000035 0.000035 0.032774
0.144812 0.000017 0.000017
0.224344 0.000034 0.000034
0.300788 0.000350 0.000350
0.516312 0.000026 0.000026
0.823811 0.033157 0.015949
0.980185 0.133922 0.029499
0.987903 0.162060 0.064103
0.993621 0.186734 0.093824
0.000147 0.062163 0.000147
0.099304 0.050911 0.003411
0.221375 0.050210 0.001971
0.296847 0.050309 0.001568
0.500598 0.049652 0.001149
0.807637 0.056888 0.008314
0.982291 0.136521 0.013861
0.993454 0.164892 0.051781
0.998013 0.191293 0.087062
0.000897 0.105871 0.000897
0.050338 0.099706 0.000969
0.181638 0.107952 0.007220
0.299348 0.108878 0.006277
0.474536 0.108515 0.005621
0.775015 0.114511 0.009208
0.972416 0.158002 0.011990
0.994939 0.178888 0.042880
0.997991 0.204871 0.084026
0.001321 0.221218 0.001321
0.051278 0.228205 0.002079
0.185385 0.235084 0.002439
0.352481 0.243707 0.005832
0.555544 0.244070 0.008118
0.765524 0.220268 0.016953
0.956280 0.197982 0.016000
0.990256 0.208088 0.040696
0.991847 0.230052 0.086710
0.010086 0.482383 0.005053
0.103540 0.483004 0.005172
0.299976 0.492979 0.016974
0.483944 0.501910 0.040348
0.660304 0.501137 0.095581
0.907554 0.492275 0.050575
0.969579 0.455530 0.091610
0.982102 0.295346 0.068317
0.978446 0.261200 0.096471
0.206301 0.744432 0.147535
0.256129 0.731753 0.148138
0.405047 0.728486 0.165965
0.544919 0.690414 0.197529
0.728930 0.719096 0.152652
0.932084 0.745983 0.107015
0.956509 0.697422 0.159784
0.978452 0.615956 0.180255
0.988823 0.480452 0.171104
0.339508 0.911805 0.260962
0.345708 0.923434 0.245523
0.459124 0.909097 0.236460
0.593638 0.901107 0.215929
0.749730 0.896804 0.175087
0.937446 0.944892 0.118399
0.965626 0.875938 0.160274
0.979278 0.807353 0.204222
0.988437 0.733815 0.233940
0.360017 0.931973 0.279898
0.354946 0.946747 0.264074
0.455732 0.942061 0.255628
0.577403 0.942498 0.237584
0.714848 0.950013 0.211512
0.853855 0.962870 0.180133
0.941679 0.978182 0.155370
0.986818 0.943101 0.177125
0.991269 0.883147 0.225015
0.309538 0.968541 0.233203
0.301557 0.980305 0.220908
0.396752 0.978563 0.215201
0.525361 0.976028 0.202834
0.660067 0.976846 0.185665
0.799299 0.980406 0.163947
0.894869 0.988535 0.138443
0.949631 0.994390 0.139087
0.996380 0.983479 0.166175
0.000191 0.000191 0.189470
0.104606 0.000230 0.124238
0.217190 0.001951 0.050221
0.284775 0.001639 0.050452
0.465352 0.001229 0.049755
0.776484 0.004407 0.052524
0.981185 0.115511 0.035431
0.988668 0.150074 0.073535
0.993453 0.179844 0.104966
0.004091 0.051319 0.124757
0.045007 0.045007 0.058514
0.200747 0.045001 0.045001
0.274412 0.045260 0.045260
0.454233 0.045150 0.045150
0.770563 0.047700 0.046774
0.946474 0.170483 0.074449
0.951815 0.197865 0.107724
0.998836 0.187758 0.101753
0.001088 0.105023 0.050394
0.045323 0.093999 0.045323
0.149318 0.097696 0.048726
0.273907 0.097563 0.047370
0.441002 0.097197 0.046996
0.740567 0.098202 0.047162
0.950725 0.174859 0.061626
0.954526 0.205343 0.103033
0.999252 0.206615 0.102466
0.002002 0.237180 0.051135
0.045667 0.224830 0.045667
0.156208 0.234589 0.045894
0.335316 0.250473 0.047613
0.538284 0.252226 0.048294
0.764653 0.229031 0.050521
0.945639 0.196874 0.050827
0.950912 0.228390 0.104198
0.992190 0.238386 0.108872
0.002644 0.490226 0.042988
0.048780 0.487751 0.046267
0.273127 0.496139 0.047556
0.468313 0.507020 0.070518
0.653175 0.509796 0.109282
0.893156 0.504461 0.082359
0.941904 0.475543 0.142171
0.946685 0.341007 0.136091
0.976249 0.275719 0.121924
0.178916 0.751095 0.144281
0.234916 0.729095 0.180985
0.387386 0.723386 0.195112
0.533555 0.699252 0.218676
0.711038 0.720362 0.183269
0.916200 0.743480 0.154509
0.936091 0.695496 0.203673
0.948552 0.619167 0.224412
0.994683 0.509710 0.184037
0.325073 0.922658 0.254769
0.351989 0.905294 0.273638
0.446229 0.897118 0.265621
0.583241 0.888270 0.252454
0.732574 0.885108 0.227739
0.917741 0.926821 0.182405
0.941281 0.860017 0.216087
0.948541 0.792594 0.250891
0.996802 0.746482 0.239661
0.345348 0.941673 0.273787
0.369788 0.922146 0.291127
0.443717 0.923542 0.283937
0.568764 0.923386 0.271164
0.704690 0.928924 0.253613
0.841862 0.937133 0.235804
0.914978 0.947129 0.214916
0.951474 0.911259 0.230141
0.997687 0.890297 0.232714
0.298289 0.975192 0.230409
0.292119 0.988359 0.219912
0.367662 0.990847 0.213664
0.505302 0.988422 0.203349
0.646765 0.987906 0.191579
0.789208 0.989480 0.176824
0.894298 0.994482 0.156820
0.951012 0.998583 0.156287
0.999675 0.986952 0.174861
0.000222 0.000222 0.310541
0.050248 0.002452 0.286968
0.176453 0.000545 0.173452
0.266459 0.005929 0.109088
0.426030 0.005768 0.108896
0.708658 0.005661 0.110109
0.979806 0.079479 0.045252
0.984973 0.140990 0.095169
0.988627 0.176175 0.125842
0.002232 0.050178 0.263115
0.045054 0.045054 0.233496
0.138677 0.045291 0.151845
0.255093 0.047358 0.097708
0.417098 0.047188 0.097459
0.706383 0.046660 0.097283
0.947630 0.130546 0.072028
0.950020 0.192828 0.121896
0.994249 0.187742 0.128227
0.006788 0.116622 0.204918
0.049023 0.099495 0.167360
0.090003 0.090003 0.101934
0.239058 0.090094 0.090094
0.414218 0.090359 0.090359
0.685825 0.090031 0.090031
0.909300 0.180652 0.104835
0.953817 0.205355 0.122707
0.994189 0.211896 0.134434
0.002223 0.261275 0.215925
0.046451 0.248982 0.185347
0.092165 0.243472 0.129134
0.306452 0.258155 0.090469
0.517111 0.268346 0.090203
0.752236 0.260087 0.090419
0.909248 0.226278 0.106245
0.949620 0.236702 0.129435
0.985340 0.249540 0.145189
0.031649 0.515923 0.294485
0.058526 0.509651 0.272065
0.197991 0.505084 0.217056
0.432442 0.516048 0.142131
0.633207 0.520257 0.124297
0.863508 0.520760 0.124910
0.908206 0.499357 0.192123
0.950267 0.402232 0.170583
0.967291 0.293679 0.160628
0.153841 0.809903 0.297457
0.182793 0.796517 0.282122
0.301756 0.773975 0.245519
0.511580 0.717171 0.238759
0.677523 0.718732 0.226710
0.896129 0.743804 0.206657
0.906444 0.695853 0.250869
0.954549 0.646127 0.239127
0.996334 0.550892 0.212110
0.314621 0.921149 0.318402
0.339103 0.910174 0.311353
0.404559 0.884540 0.294364
0.556270 0.875954 0.287493
0.710264 0.872921 0.275744
0.893242 0.900838 0.245000
0.907486 0.836860 0.269403
0.954270 0.807582 0.260608
0.999925 0.763693 0.257527
0.330634 0.948138 0.274404
0.358287 0.929576 0.286069
0.378327 0.941714 0.277417
0.529228 0.938913 0.273254
0.678611 0.941825 0.262547
0.830487 0.946362 0.251278
0.909811 0.952792 0.234122
0.954783 0.921561 0.237380
0.999906 0.898462 0.248499
0.288887 0.977272 0.235270
0.284951 0.991080 0.228701
0.306824 0.998461 0.225577
0.469412 0.995446 0.218833
0.619509 0.993628 0.210210
0.770145 0.993216 0.200585
0.891045 0.995587 0.184232
0.949298 0.998618 0.174766
0.999406 0.991921 0.190419
0.000083 0.000083 0.407993
0.049835 0.001542 0.392745
0.108929 0.006979 0.367941
0.233207 0.003344 0.230075
0.409719 0.012195 0.186643
0.668641 0.012113 0.188116
0.974920 0.040039 0.107841
0.975102 0.138451 0.133934
0.977897 0.177970 0.159714
0.001555 0.049841 0.394844
0.045011 0.045010 0.362148
0.097274 0.047472 0.328355
0.213218 0.046871 0.224627
0.398527 0.052794 0.175250
0.664487 0.052126 0.173711
0.943491 0.095002 0.126502
0.941673 0.193317 0.153891
0.982254 0.193195 0.168899
0.004493 0.147917 0.409132
0.046385 0.131559 0.373138
0.090042 0.106761 0.298806
0.199361 0.090910 0.232508
0.406321 0.092317 0.178313
0.647540 0.093288 0.154727
0.906271 0.148051 0.143609
0.944567 0.211004 0.163553
0.980206 0.221607 0.181052
0.004698 0.318847 0.462783
0.047990 0.306067 0.433054
0.090965 0.279758 0.360896
0.255834 0.278695 0.301556
0.500957 0.294699 0.251945
0.733429 0.297187 0.186648
0.905645 0.268490 0.151692
0.937733 0.249133 0.177476
0.969007 0.262611 0.195143
0.105013 0.555883 0.547222
0.107043 0.548167 0.524113
0.118918 0.534196 0.473087
0.363002 0.532421 0.408655
0.588640 0.533172 0.350375
0.822647 0.540245 0.250238
0.908392 0.523228 0.215118
0.944913 0.454201 0.215472
0.956989 0.334855 0.209598
0.193187 0.785180 0.576655
0.212182 0.788672 0.561281
0.248011 0.769195 0.520505
0.458794 0.730569 0.476065
0.655959 0.735906 0.383131
0.854296 0.728812 0.284702
0.909865 0.713036 0.265769
0.953098 0.667566 0.265382
0.992112 0.590022 0.249491
0.292634 0.904478 0.553188
0.321856 0.895776 0.542204
0.349038 0.883748 0.516048
0.475689 0.891247 0.453317
0.667746 0.889632 0.365389
0.867760 0.899379 0.278811
0.909667 0.850672 0.282092
0.954195 0.820365 0.279560
0.997577 0.778198 0.280403
0.314239 0.938944 0.484533
0.342178 0.924197 0.477760
0.341574 0.942811 0.442001
0.456984 0.949187 0.381071
0.639631 0.947579 0.304752
0.805692 0.948938 0.280559
0.902513 0.952926 0.264568
0.953649 0.926043 0.253418
0.997869 0.906667 0.267574
0.282471 0.975641 0.375535
0.279467 0.990816 0.359212
0.289661 0.998381 0.327781
0.402385 0.994505 0.275657
0.580167 0.989801 0.241526
0.738904 0.989725 0.231767
0.883632 0.991407 0.217326
0.944035 0.994150 0.199384
0.995596 0.992243 0.207541
0.000581 0.000581 0.573825
0.049891 0.001363 0.540603
0.108500 0.005634 0.485285
0.174608 0.014290 0.426317
0.367783 0.007022 0.362034
0.640970 0.008561 0.363297
0.975542 0.042961 0.346012
0.970966 0.159281 0.283443
0.965159 0.186366 0.222203
0.002159 0.067459 0.601503
0.045419 0.051698 0.568443
0.096934 0.046812 0.494062
0.162436 0.054174 0.418860
0.354308 0.051031 0.359532
0.630273 0.052394 0.358329
0.944620 0.085370 0.352686
0.937914 0.207137 0.291200
0.966492 0.203177 0.233411
0.006314 0.211840 0.655686
0.047144 0.190353 0.619545
0.090508 0.157727 0.539051
0.120301 0.095174 0.443345
0.375093 0.094522 0.394309
0.628280 0.096391 0.364146
0.904283 0.127895 0.357056
0.938386 0.221730 0.297771
0.960285 0.233222 0.243551
0.039879 0.404647 0.725005
0.060973 0.392806 0.708526
0.094409 0.364098 0.645407
0.141188 0.317074 0.534343
0.457685 0.326287 0.491476
0.712412 0.333282 0.442247
0.905764 0.318223 0.385473
0.928225 0.262670 0.302349
0.947037 0.273630 0.256901
0.130466 0.618819 0.820947
0.153805 0.604501 0.794502
0.211505 0.569301 0.692152
0.191347 0.554953 0.643184
0.538902 0.562745 0.587843
0.785148 0.561010 0.514246
0.908034 0.549101 0.432874
0.940775 0.494928 0.317732
0.944718 0.383918 0.256828
0.141319 0.871203 0.872967
0.191167 0.854884 0.847377
0.242438 0.815610 0.782912
0.311207 0.759493 0.690596
0.580262 0.758046 0.624258
0.818865 0.747906 0.549003
0.909468 0.728376 0.447116
0.946838 0.686412 0.327054
0.981640 0.621870 0.287058
0.252234 0.911263 0.764237
0.295114 0.901143 0.751839
0.338502 0.886740 0.726419
0.351477 0.900910 0.680879
0.589885 0.903916 0.618238
0.805740 0.888979 0.529528
0.909364 0.862987 0.420587
0.949535 0.827760 0.316792
0.990505 0.791708 0.310059
0.274661 0.942898 0.694789
0.315279 0.925009 0.685111
0.323306 0.940200 0.661822
0.345715 0.949405 0.623145
0.563309 0.953332 0.561168
0.762100 0.951089 0.472140
0.900431 0.950983 0.362662
0.948681 0.928413 0.273670
0.992213 0.909322 0.291806
0.260888 0.972718 0.611181
0.263208 0.987008 0.601842
0.276926 0.996558 0.578073
0.300713 0.996940 0.537526
0.508792 0.999584 0.471111
0.699098 0.992474 0.376830
0.855479 0.985465 0.274506
0.935517 0.985595 0.225347
0.988667 0.988667 0.227810
0.004014 0.040786 0.773580
0.040713 0.003810 0.762027
0.109881 0.005540 0.703185
0.174150 0.013607 0.613588
0.266912 0.023613 0.560300
0.597239 0.002229 0.567846
0.971147 0.025261 0.603088
0.976723 0.186810 0.525636
0.977079 0.209361 0.409645
0.007037 0.142037 0.800234
0.050002 0.130889 0.801387
0.062886 0.048422 0.762615
0.161462 0.053227 0.638886
0.255843 0.065951 0.569021
0.578903 0.051113 0.560832
0.938190 0.071072 0.594196
0.946093 0.226674 0.520027
0.981180 0.213614 0.417372
0.018769 0.300491 0.840213
0.058919 0.290308 0.849556
0.096634 0.260053 0.826389
0.096493 0.151947 0.737142
0.275269 0.150562 0.621140
0.596846 0.116116 0.595266
0.877941 0.114760 0.580274
0.950324 0.234027 0.529137
0.977899 0.232655 0.424890
0.083503 0.470113 0.932384
0.110285 0.461527 0.913807
0.114061 0.443453 0.892278
0.142122 0.413410 0.823089
0.339472 0.373088 0.724546
0.668960 0.375156 0.687315
0.907059 0.366222 0.631857
0.949468 0.300691 0.541079
0.966404 0.260292 0.430092
0.228585 0.664968 0.891439
0.256888 0.657496 0.883930
0.273883 0.642690 0.876253
0.276017 0.615602 0.859947
0.397503 0.585312 0.823404
0.721619 0.588024 0.762782
0.908845 0.576366 0.684392
0.952846 0.540103 0.586531
0.982601 0.424082 0.443406
0.231669 0.851233 0.906709
0.274021 0.843526 0.899163
0.314905 0.825997 0.888013
0.351563 0.791719 0.862881
0.436113 0.777779 0.858829
0.743716 0.766514 0.793745
0.909507 0.747659 0.700401
0.952335 0.710697 0.595493
0.991838 0.653923 0.472168
0.245775 0.933292 0.871635
0.297383 0.919672 0.863156
0.348127 0.897845 0.851719
0.360402 0.906270 0.853850
0.439303 0.906458 0.844660
0.726815 0.901192 0.776493
0.909834 0.875563 0.681752
0.953527 0.841878 0.569960
0.992458 0.808963 0.460727
0.245925 0.955357 0.848740
0.295765 0.932782 0.840241
0.310762 0.943149 0.840283
0.339761 0.947801 0.827062
0.406557 0.947678 0.787372
0.682614 0.954257 0.718702
0.887905 0.952882 0.625406
0.953449 0.939576 0.504857
0.992132 0.918571 0.400703
0.233586 0.972566 0.809342
0.246100 0.984057 0.801214
0.267088 0.991234 0.785433
0.296749 0.992562 0.754385
0.348949 0.989371 0.709946
0.624043 0.999923 0.639669
0.816444 0.996192 0.540579
0.945411 0.993574 0.429566
0.985357 0.985357 0.295000
0.004117 0.120133 0.828310
0.005584 0.066119 0.849324
0.050407 0.007895 0.838209
0.172615 0.012431 0.770897
0.240185 0.027445 0.742900
0.503989 0.007312 0.774923
0.867130 0.061800 0.819949
0.979151 0.208315 0.790639
0.987916 0.232396 0.649824
0.005638 0.201856 0.862511
0.049756 0.199927 0.861008
0.050685 0.127892 0.874962
0.103886 0.055666 0.854518
0.227959 0.068526 0.766846
0.485967 0.056615 0.771900
0.842035 0.105264 0.803466
0.948512 0.254107 0.771452
0.995761 0.233517 0.657355
0.014023 0.347052 0.894839
0.054971 0.341761 0.901758
0.096571 0.327024 0.903429
0.134841 0.277546 0.900773
0.163283 0.192423 0.886960
0.524920 0.202597 0.840373
0.839026 0.162242 0.814310
0.954296 0.261310 0.779557
0.997689 0.245356 0.664440
0.177571 0.517476 0.936523
0.205899 0.512460 0.919016
0.230920 0.506612 0.895041
0.206739 0.464236 0.901294
0.221485 0.424456 0.884120
0.573023 0.420260 0.900649
0.876499 0.410899 0.875555
0.954885 0.375717 0.802628
0.993484 0.267361 0.667302
0.266424 0.683469 0.917627
0.302113 0.677712 0.907144
0.334842 0.668844 0.891093
0.337289 0.650960 0.903453
0.349579 0.626733 0.900119
0.612738 0.613591 0.904109
0.896889 0.604857 0.908190
0.954418 0.576436 0.833766
0.999565 0.487879 0.710229
0.270916 0.840984 0.931895
0.319444 0.830888 0.919210
0.369546 0.815776 0.898030
0.382765 0.811455 0.907244
0.402233 0.798097 0.907278
0.619065 0.781880 0.906474
0.896950 0.765187 0.909821
0.954605 0.732488 0.837720
0.998316 0.685493 0.729578
0.254270 0.952872 0.952872
0.312403 0.933410 0.933410
0.366415 0.904244 0.904244
0.379906 0.909453 0.909453
0.398736 0.909293 0.909293
0.590275 0.909138 0.909453
0.862521 0.890357 0.909337
0.954081 0.853886 0.811351
0.996167 0.822954 0.710344
0.239729 0.971326 0.918271
0.294889 0.943260 0.898785
0.309614 0.950968 0.902793
0.334876 0.953509 0.903286
0.364380 0.951043 0.900502
0.540626 0.951013 0.901765
0.808652 0.953752 0.858779
0.954899 0.950169 0.753125
0.997675 0.926161 0.659847
0.222399 0.982384 0.891248
0.236880 0.991009 0.893218
0.259225 0.995214 0.892782
0.290250 0.994314 0.889844
0.323842 0.988854 0.884803
0.482308 0.990888 0.861877
0.740997 0.999388 0.783861
0.937789 0.997582 0.678122
0.997787 0.997787 0.577291
0.007843 0.209683 0.887739
0.010362 0.166645 0.912987
0.014017 0.085292 0.935857
0.081405 0.021426 0.903003
0.226230 0.032486 0.795881
0.312382 0.045760 0.798922
0.790642 0.032810 0.994684
0.982439 0.223931 0.982439
0.988843 0.251571 0.906858
0.007151 0.272862 0.920873
0.051870 0.276795 0.912354
0.054440 0.220596 0.934978
0.075348 0.137492 0.937852
0.159962 0.077730 0.871930
0.299264 0.089710 0.816021
0.751323 0.081394 0.954602
0.949212 0.277931 0.949212
0.996048 0.261997 0.914018
0.048264 0.396782 0.981779
0.087050 0.401193 0.944835
0.100608 0.376932 0.944340
0.156962 0.341385 0.937964
0.201051 0.279995 0.919691
0.326753 0.260532 0.867826
0.759533 0.250747 0.954346
0.954175 0.282188 0.954175
0.999336 0.282187 0.922284
0.241308 0.560410 0.944577
0.265585 0.557112 0.925684
0.259724 0.538019 0.938503
0.260523 0.509614 0.942420
0.260305 0.469261 0.925839
0.324451 0.435830 0.909345
0.787734 0.452074 0.953377
0.954357 0.432438 0.954357
0.999249 0.327984 0.926482
0.298545 0.702843 0.938232
0.334476 0.697794 0.921837
0.338259 0.689135 0.936381
0.354214 0.674143 0.944266
0.369423 0.650710 0.940592
0.400455 0.623094 0.928609
0.798128 0.628982 0.952773
0.954280 0.605925 0.954279
0.998736 0.540614 0.950202
0.301456 0.833231 0.949961
0.350386 0.825388 0.929654
0.361643 0.823071 0.941963
0.385053 0.817710 0.948070
0.413998 0.804407 0.946761
0.441728 0.785396 0.938795
0.778932 0.777798 0.948919
0.954538 0.752454 0.954538
0.998407 0.707574 0.949640
0.284249 0.914496 0.966992
0.338409 0.896560 0.940648
0.352475 0.901628 0.949440
0.375385 0.903360 0.953290
0.404031 0.901835 0.952155
0.436257 0.897965 0.947239
0.739576 0.894656 0.949702
0.954863 0.867211 0.954863
0.998994 0.831742 0.938781
0.234864 0.981587 0.981587
0.291415 0.948612 0.948612
0.303365 0.953750 0.953750
0.324864 0.954940 0.954940
0.351103 0.952762 0.952762
0.381048 0.948340 0.948340
0.670941 0.954169 0.954169
0.932669 0.954986 0.954986
0.998385 0.928244 0.886637
0.224598 0.989424 0.945482
0.238266 0.996092 0.949577
0.257692 0.999009 0.950724
0.282156 0.997949 0.948797
0.311422 0.993543 0.944366
0.339714 0.986395 0.937846
0.606596 0.995516 0.948225
0.861012 0.998692 0.910873
0.999828 0.999828 0.813710
0.014836 0.299300 0.942226
0.018543 0.269719 0.974749
0.042783 0.221316 0.977176
0.076953 0.154824 0.968332
0.116002 0.046257 0.947719
0.273934 0.063070 0.790930
0.512431 0.022665 0.905925
0.945914 0.216492 0.989947
0.990032 0.285459 0.990032
0.012365 0.352973 0.978239
0.040677 0.331364 0.986143
0.082949 0.301829 0.981747
0.122374 0.251811 0.971019
0.163787 0.174992 0.950594
0.232171 0.077360 0.885615
0.521573 0.030926 0.954036
0.949854 0.228230 0.996480
0.996255 0.296277 0.996254
0.182807 0.470134 0.971670
0.178205 0.454955 0.980823
0.174462 0.429059 0.984539
0.174669 0.393267 0.973846
0.225287 0.358694 0.955519
0.258307 0.289073 0.922137
0.545242 0.270249 0.979431
0.950705 0.274614 0.998825
0.999523 0.310747 0.999523
0.290945 0.600359 0.951709
0.288518 0.590440 0.966909
0.293854 0.575683 0.978562
0.300631 0.551740 0.982223
0.305852 0.520329 0.971625
0.297861 0.472158 0.939911
0.570894 0.460378 0.986075
0.949809 0.458629 0.998058
0.999906 0.403916 0.999905
0.328748 0.720533 0.951117
0.335019 0.716909 0.966026
0.348472 0.707556 0.978131
0.369008 0.695126 0.983236
0.390305 0.677285 0.979986
0.399896 0.652166 0.967992
0.577530 0.636352 0.978670
0.948996 0.623765 0.997750
0.999363 0.588796 0.999363
0.330236 0.825070 0.960610
0.339972 0.826036 0.974049
0.361597 0.824284 0.983469
0.389259 0.820265 0.987075
0.419851 0.810119 0.984866
0.444741 0.794897 0.977099
0.562286 0.780483 0.974873
0.935342 0.767230 0.998514
0.999311 0.731875 0.999311
0.310477 0.885809 0.975046
0.323152 0.889955 0.985951
0.343185 0.892087 0.992939
0.371989 0.891855 0.995064
0.404509 0.889605 0.992735
0.437358 0.885731 0.986634
0.511555 0.883981 0.980614
0.881398 0.878625 0.992292
0.999584 0.844304 0.999583
0.257508 0.943615 0.987218
0.268377 0.948604 0.994815
0.289178 0.950618 0.998607
0.317358 0.949819 0.998678
0.348268 0.946701 0.995624
0.382305 0.942043 0.990363
0.437523 0.938527 0.985653
0.816774 0.948140 0.994843
0.999883 0.930429 0.999883
0.229623 0.993181 0.993181
0.241598 0.998146 0.998146
0.257540 0.999992 0.999992
0.277353 0.998681 0.998681
0.301777 0.994764 0.994764
0.324515 0.988579 0.988579
0.366980 0.983365 0.983365
0.744051 0.999118 0.999118
0.982390 0.999991 0.999991
