Project4/LongBeachMorning.cube
TITLE "Long Beach Morning"
# Created by Photon 3D ColorGrading
# AUTHOR Todd Blankenship
DOMAIN_MIN 0 0 0
DOMAIN_MAX 1 1 1
LUT_3D_SIZE 33
-0.000002 -0.000002 -0.000002
0.028168 -0.009200 -0.009192
0.056283 -0.018527 -0.018509
0.084322 -0.028082 -0.028050
0.112309 -0.037923 -0.037872
0.140305 -0.048079 -0.048003
0.168392 -0.058554 -0.058446
0.196677 -0.069336 -0.069189
0.225290 -0.080386 -0.080193
0.254387 -0.091641 -0.091394
0.284145 -0.103019 -0.102710
0.314749 -0.114430 -0.114050
0.346381 -0.125793 -0.125333
0.379209 -0.137041 -0.136491
0.413377 -0.148136 -0.147485
0.448988 -0.159083 -0.158321
0.486102 -0.169935 -0.169051
0.524743 -0.180784 -0.179766
0.564923 -0.191727 -0.190563
0.606666 -0.202851 -0.201528
0.650005 -0.214224 -0.212728
0.694975 -0.225899 -0.224217
0.741609 -0.237921 -0.236039
0.789928 -0.250324 -0.248228
0.839941 -0.263125 -0.260801
0.891609 -0.276315 -0.273749
0.944785 -0.289837 -0.287014
0.999702 -0.303682 -0.300587
1.056417 -0.317786 -0.314408
1.114656 -0.332067 -0.328389
1.173860 -0.346437 -0.342447
1.233819 -0.360866 -0.356555
1.294205 -0.375323 -0.370687
-0.009178 0.028103 -0.009178
0.023790 0.023209 -0.015863
0.056239 0.017648 -0.023140
0.087697 0.010901 -0.031272
0.117859 0.002716 -0.040185
0.146741 -0.006830 -0.049676
0.174694 -0.017414 -0.059601
0.202239 -0.028649 -0.069910
0.229889 -0.040225 -0.080585
0.258049 -0.051937 -0.091588
0.287022 -0.063660 -0.102842
0.317035 -0.075312 -0.114247
0.348262 -0.086830 -0.125696
0.380852 -0.098168 -0.137099
0.414925 -0.109302 -0.148399
0.450566 -0.120249 -0.159585
0.487816 -0.131075 -0.170707
0.526689 -0.141878 -0.181851
0.567192 -0.152765 -0.193119
0.609346 -0.163828 -0.204596
0.653181 -0.175139 -0.216352
0.698736 -0.186758 -0.228443
0.746040 -0.198731 -0.240912
0.795116 -0.211091 -0.253790
0.845972 -0.223855 -0.267088
0.898564 -0.237006 -0.280782
0.952732 -0.250481 -0.294804
1.008714 -0.264269 -0.309131
1.066546 -0.278314 -0.323699
1.125765 -0.292523 -0.338404
1.185938 -0.306818 -0.353165
1.246869 -0.321166 -0.367949
1.308216 -0.335537 -0.382739
-0.018476 0.056134 -0.018476
0.018275 0.054713 -0.022948
0.054430 0.052449 -0.028413
0.089305 0.048566 -0.035324
0.122249 0.042525 -0.043523
0.152964 0.034225 -0.052582
0.181701 0.024042 -0.062157
0.209143 0.012606 -0.072106
0.236109 0.000531 -0.082416
0.263323 -0.011747 -0.093097
0.291328 -0.023968 -0.104117
0.320488 -0.036000 -0.115397
0.351046 -0.047776 -0.126833
0.383163 -0.059265 -0.138322
0.416954 -0.070467 -0.149791
0.452482 -0.081419 -0.161219
0.489766 -0.092205 -0.172645
0.528802 -0.102939 -0.184153
0.569583 -0.113740 -0.195841
0.612118 -0.124708 -0.207793
0.656435 -0.135922 -0.220078
0.702565 -0.147447 -0.232750
0.750536 -0.159332 -0.245851
0.800367 -0.171611 -0.259405
0.852063 -0.184296 -0.273414
0.905571 -0.197363 -0.287840
0.960706 -0.210744 -0.302601
1.017654 -0.224424 -0.317663
1.076460 -0.238355 -0.332949
1.136723 -0.252453 -0.348351
1.197885 -0.266628 -0.363780
1.259744 -0.280846 -0.379201
1.321990 -0.295080 -0.394605
-0.027988 0.084057 -0.027988
0.010992 0.084804 -0.030660
0.049686 0.084939 -0.034611
0.087556 0.083720 -0.040502
0.123777 0.080343 -0.048211
0.157570 0.074256 -0.057159
0.188642 0.065468 -0.066750
0.217366 0.054537 -0.076638
0.244585 0.042278 -0.086728
0.271287 0.029438 -0.097057
0.298346 0.016545 -0.107676
0.326417 0.003903 -0.118580
0.355938 -0.008345 -0.129715
0.387187 -0.020151 -0.141004
0.420324 -0.031528 -0.152380
0.455421 -0.042541 -0.163821
0.492485 -0.053304 -0.175361
0.531489 -0.063959 -0.187081
0.572405 -0.074645 -0.199070
0.615224 -0.085476 -0.211407
0.659957 -0.096545 -0.224154
0.706622 -0.107921 -0.237360
0.755237 -0.119661 -0.251059
0.805811 -0.131798 -0.265265
0.858342 -0.144341 -0.279965
0.912762 -0.157258 -0.295104
0.968872 -0.170478 -0.310582
1.026864 -0.183989 -0.326356
1.086689 -0.197754 -0.342339
1.147818 -0.211660 -0.358391
1.209822 -0.225638 -0.374435
1.272509 -0.239653 -0.390433
1.335562 -0.253677 -0.406386
-0.037770 0.111887 -0.037770
0.002025 0.113548 -0.039043
0.041918 0.114987 -0.041716
0.081751 0.115748 -0.046645
0.120899 0.115024 -0.053905
0.158341 0.111855 -0.062946
0.193136 0.105618 -0.072976
0.224930 0.096373 -0.083345
0.254110 0.084800 -0.093714
0.281598 0.071843 -0.104027
0.308483 0.058359 -0.114364
0.335754 0.044958 -0.124821
0.364171 0.031989 -0.135449
0.394259 0.019607 -0.146252
0.426340 0.007833 -0.157217
0.460575 -0.003408 -0.168355
0.497007 -0.014259 -0.179718
0.535617 -0.024895 -0.191392
0.576369 -0.035484 -0.203465
0.619235 -0.046168 -0.216009
0.664205 -0.057058 -0.229079
0.711278 -0.068241 -0.242712
0.760451 -0.079780 -0.256931
0.811714 -0.091714 -0.271733
0.865047 -0.104046 -0.287082
0.920355 -0.116744 -0.302899
0.977397 -0.129734 -0.319066
1.036297 -0.143004 -0.335521
1.097007 -0.156516 -0.352156
1.159070 -0.170182 -0.368827
1.221930 -0.183909 -0.385441
1.285386 -0.197656 -0.401957
1.349165 -0.211404 -0.418396
-0.047846 0.139680 -0.047846
-0.008068 0.141424 -0.048086
0.031982 0.143217 -0.049671
0.072515 0.144963 -0.053581
0.113388 0.146168 -0.060187
0.153842 0.145845 -0.069194
0.192670 0.142860 -0.079826
0.228791 0.136530 -0.091177
0.261780 0.126965 -0.102543
0.292004 0.114939 -0.113574
0.320389 0.101485 -0.124222
0.348060 0.087544 -0.134599
0.376071 0.073788 -0.144858
0.405263 0.060606 -0.155122
0.436230 0.048152 -0.165490
0.469330 0.036408 -0.176057
0.504743 0.025237 -0.186936
0.542528 0.014445 -0.198248
0.582690 0.003835 -0.210099
0.625215 -0.006765 -0.222569
0.670089 -0.017497 -0.235713
0.717294 -0.028474 -0.249564
0.766807 -0.039777 -0.264129
0.818595 -0.051454 -0.279385
0.872606 -0.063513 -0.295267
0.928711 -0.075922 -0.311670
0.986619 -0.088615 -0.328449
1.046435 -0.101587 -0.345526
1.108077 -0.114809 -0.362766
1.170895 -0.128163 -0.379990
1.234464 -0.141570 -0.397106
1.298592 -0.154992 -0.414068
1.363008 -0.168408 -0.430917
-0.058218 0.167516 -0.058218
-0.018718 0.168989 -0.057761
0.020988 0.170567 -0.058470
0.061274 0.172400 -0.061335
0.102482 0.174442 -0.066986
0.144460 0.176085 -0.075526
0.186315 0.176146 -0.086463
0.226709 0.173363 -0.098877
0.264483 0.167041 -0.111760
0.299168 0.157346 -0.124343
0.331076 0.145111 -0.136238
0.361073 0.131419 -0.147386
0.390253 0.117251 -0.157925
0.419673 0.103316 -0.168065
0.450199 0.090018 -0.178029
0.482456 0.077494 -0.188039
0.516845 0.065695 -0.198309
0.553596 0.054461 -0.209040
0.592834 0.043594 -0.220388
0.634622 0.032902 -0.232473
0.678987 0.022212 -0.245370
0.725927 0.011382 -0.259123
0.775417 0.000302 -0.273737
0.827409 -0.011094 -0.289173
0.881823 -0.022829 -0.305343
0.938484 -0.034885 -0.322112
0.997045 -0.047211 -0.339312
1.057545 -0.059810 -0.356846
1.119829 -0.072655 -0.374546
1.183364 -0.085648 -0.392196
1.247580 -0.098688 -0.409689
1.312270 -0.111730 -0.426977
1.377200 -0.124760 -0.444114
-0.068871 0.195499 -0.068871
-0.029597 0.196654 -0.068009
0.009704 0.197827 -0.068091
0.049360 0.199231 -0.070010
0.089969 0.201159 -0.074526
0.131967 0.203552 -0.082106
0.175143 0.205644 -0.092713
0.218497 0.206080 -0.105718
0.260635 0.203537 -0.120074
0.300391 0.197354 -0.134678
0.337264 0.187747 -0.148691
0.371490 0.175570 -0.161679
0.403830 0.161906 -0.173565
0.435280 0.147735 -0.184507
0.466828 0.133760 -0.194786
0.499308 0.120373 -0.204732
0.533357 0.107707 -0.214680
0.569428 0.095719 -0.224932
0.607831 0.084277 -0.235733
0.648773 0.073205 -0.247268
0.692380 0.062325 -0.259669
0.738717 0.051472 -0.273012
0.787797 0.040512 -0.287322
0.839588 0.029352 -0.302561
0.893997 0.017944 -0.318635
0.950813 0.006278 -0.335397
1.009642 -0.005625 -0.352658
1.070491 -0.017784 -0.370315
1.133164 -0.030184 -0.388171
1.197078 -0.042730 -0.405969
1.261643 -0.055318 -0.423580
1.326639 -0.067908 -0.440950
1.391845 -0.080484 -0.458146
-0.079763 0.223757 -0.079763
-0.040587 0.224665 -0.078730
-0.001550 0.225469 -0.078437
0.037526 0.226315 -0.079623
0.077238 0.227618 -0.083035
0.118347 0.229756 -0.089352
0.161299 0.232576 -0.098971
0.205794 0.235132 -0.111753
0.250777 0.235955 -0.126943
0.294868 0.233721 -0.143383
0.336937 0.227829 -0.159888
0.376469 0.218525 -0.175563
0.413605 0.206646 -0.189930
0.448964 0.193230 -0.202900
0.483390 0.179203 -0.214659
0.517753 0.165234 -0.225552
0.552830 0.151710 -0.235982
0.589264 0.138794 -0.246344
0.627560 0.126491 -0.256977
0.668083 0.114713 -0.268151
0.711002 0.103318 -0.280035
0.756390 0.092150 -0.292729
0.805248 0.081096 -0.306615
0.856683 0.070018 -0.321364
0.910720 0.058841 -0.336932
0.967243 0.047521 -0.353219
1.025847 0.036041 -0.370047
1.086533 0.024360 -0.387315
1.149086 0.012476 -0.404819
1.212893 0.000467 -0.422274
1.277338 -0.011579 -0.439541
1.342194 -0.023625 -0.456556
1.407243 -0.035660 -0.473391
-0.090828 0.252444 -0.090828
-0.051654 0.253181 -0.089794
-0.012718 0.253727 -0.089338
0.026009 0.254116 -0.090046
0.064972 0.254709 -0.092556
0.104968 0.256072 -0.097584
0.146825 0.258570 -0.105803
0.190933 0.261905 -0.117563
0.236918 0.264964 -0.132627
0.283716 0.266216 -0.150122
0.330011 0.264383 -0.168802
0.374734 0.258926 -0.187425
0.417360 0.250101 -0.205060
0.457925 0.238686 -0.221211
0.496879 0.225627 -0.235783
0.534896 0.211780 -0.248971
0.572719 0.197784 -0.261135
0.611066 0.184051 -0.272689
0.650566 0.170794 -0.284034
0.691733 0.158075 -0.295516
0.734881 0.145849 -0.307390
0.780214 0.134015 -0.319830
0.828775 0.122565 -0.333204
0.879779 0.111294 -0.347287
0.933304 0.100120 -0.362071
0.989249 0.088974 -0.377485
1.047231 0.077800 -0.393381
1.107274 0.066543 -0.409676
1.169103 0.055184 -0.426177
1.232138 0.043766 -0.442610
1.295802 0.032332 -0.458855
1.359850 0.020906 -0.474856
1.424072 0.009492 -0.490681
-0.101982 0.281733 -0.101982
-0.062761 0.282351 -0.101060
-0.023811 0.282741 -0.100601
0.014795 0.282842 -0.101061
0.053327 0.282886 -0.102940
0.092434 0.283410 -0.106869
0.133021 0.285043 -0.113601
0.175912 0.288070 -0.123826
0.221422 0.292017 -0.137847
0.269122 0.295638 -0.155323
0.317977 0.297384 -0.175285
0.366762 0.296044 -0.196429
0.414481 0.291132 -0.217494
0.460591 0.282879 -0.237543
0.505021 0.271976 -0.256064
0.548063 0.259274 -0.272932
0.590237 0.245571 -0.288299
0.632167 0.231499 -0.302475
0.674485 0.217499 -0.315835
0.717762 0.203835 -0.328749
0.762413 0.190614 -0.341534
0.808756 0.177850 -0.354431
0.857780 0.165673 -0.367717
0.908867 0.153855 -0.381352
0.962160 0.142345 -0.395368
1.017585 0.131068 -0.409734
1.074801 0.119940 -0.424364
1.133824 0.108918 -0.439182
1.194471 0.097972 -0.454023
1.256150 0.087083 -0.468700
1.318325 0.076234 -0.483151
1.380783 0.065420 -0.497342
1.443353 0.054629 -0.511356
-0.113131 0.311808 -0.113131
-0.073841 0.312337 -0.112396
-0.034813 0.312640 -0.112042
0.003834 0.312604 -0.112428
0.042232 0.312332 -0.113933
0.080834 0.312220 -0.117049
0.120420 0.312917 -0.122463
0.161940 0.315050 -0.131000
0.206178 0.318773 -0.143368
0.253367 0.323436 -0.159813
0.303046 0.327684 -0.179904
0.354236 0.329983 -0.202604
0.405814 0.329191 -0.226592
0.456854 0.324855 -0.250612
0.506803 0.317169 -0.273719
0.555506 0.306745 -0.295354
0.603125 0.294357 -0.315307
0.650035 0.280757 -0.333634
0.696720 0.266574 -0.350551
0.743686 0.252271 -0.366353
0.791357 0.238146 -0.381352
0.840086 0.224373 -0.395818
0.890669 0.211216 -0.409825
0.942789 0.198534 -0.423608
0.996546 0.186321 -0.437214
1.051898 0.174533 -0.450659
1.108600 0.163085 -0.463943
1.166655 0.151973 -0.476990
1.225833 0.141169 -0.489678
1.285677 0.130590 -0.501957
1.345770 0.120139 -0.513893
1.405923 0.109773 -0.525507
1.466054 0.099451 -0.536920
-0.124190 0.342845 -0.124190
-0.084816 0.343311 -0.123686
-0.045674 0.343575 -0.123505
-0.006891 0.343509 -0.123940
0.031583 0.343123 -0.125271
0.070037 0.342658 -0.127860
0.109050 0.342637 -0.132254
0.149482 0.343770 -0.139241
0.192290 0.346628 -0.149730
0.238191 0.351201 -0.164447
0.287345 0.356660 -0.183583
0.339280 0.361575 -0.206637
0.393092 0.364443 -0.232536
0.447770 0.364194 -0.259956
0.502470 0.360406 -0.287633
0.556649 0.353246 -0.314572
0.610083 0.343260 -0.340118
0.662804 0.331152 -0.363935
0.715027 0.317632 -0.385936
0.767059 0.303314 -0.406205
0.819217 0.288681 -0.424944
0.871790 0.274085 -0.442373
0.925271 0.259893 -0.458246
0.979561 0.246142 -0.473090
1.034732 0.232920 -0.486958
1.090754 0.220250 -0.499897
1.147471 0.208082 -0.512025
1.204824 0.196466 -0.523254
1.262601 0.185406 -0.533523
1.320434 0.174770 -0.542955
1.378080 0.164359 -0.551840
1.435418 0.154098 -0.560275
1.492517 0.143911 -0.568447
-0.135088 0.375009 -0.135088
-0.095613 0.375441 -0.134842
-0.056333 0.375704 -0.134876
-0.017362 0.375676 -0.135435
0.021316 0.375320 -0.136736
0.059878 0.374755 -0.139033
0.098720 0.374332 -0.142727
0.138509 0.374668 -0.148472
0.180151 0.376489 -0.157187
0.224580 0.380263 -0.169877
0.272437 0.385789 -0.187284
0.323826 0.392080 -0.209552
0.378293 0.397657 -0.236120
0.435038 0.401078 -0.265879
0.493180 0.401351 -0.297477
0.551960 0.398092 -0.329603
0.610842 0.391439 -0.361164
0.669514 0.381870 -0.391365
0.727856 0.370022 -0.419696
0.785882 0.356558 -0.445887
0.843682 0.342091 -0.469899
0.901366 0.327136 -0.491792
0.959016 0.312086 -0.510863
1.016675 0.297261 -0.527914
1.074330 0.282873 -0.542954
1.131930 0.269047 -0.556047
1.189407 0.255803 -0.567450
1.246599 0.243270 -0.577050
1.303229 0.231492 -0.584860
1.359069 0.220307 -0.591246
1.414139 0.209447 -0.596781
1.468415 0.198811 -0.601656
1.522173 0.188289 -0.606164
-0.145784 0.408439 -0.145784
-0.106185 0.408871 -0.145810
-0.066744 0.409170 -0.146084
-0.027553 0.409229 -0.146819
0.011395 0.408996 -0.148186
0.050219 0.408511 -0.150369
0.089180 0.407976 -0.153647
0.128751 0.407837 -0.158515
0.169663 0.408777 -0.165774
0.212842 0.411494 -0.176501
0.259183 0.416313 -0.191800
0.309262 0.422841 -0.212420
0.363158 0.429963 -0.238447
0.420482 0.436196 -0.269243
0.480558 0.440176 -0.303638
0.542630 0.440992 -0.340210
0.606001 0.438277 -0.377550
0.670098 0.432130 -0.414417
0.734483 0.422958 -0.449816
0.798831 0.411334 -0.483013
0.862921 0.397902 -0.513600
0.926581 0.383283 -0.541349
0.989424 0.367797 -0.564972
1.051505 0.352119 -0.585466
1.112658 0.336603 -0.602725
1.172758 0.321497 -0.616802
1.231797 0.306930 -0.628109
1.289449 0.293112 -0.636482
1.345325 0.280155 -0.642003
1.399403 0.267881 -0.645419
1.452009 0.256021 -0.647566
1.503251 0.244467 -0.648748
1.553650 0.233076 -0.649402
-0.156277 0.443237 -0.156277
-0.116528 0.443710 -0.156585
-0.076904 0.444081 -0.157118
-0.037471 0.444267 -0.158064
0.001780 0.444215 -0.159568
0.040942 0.443922 -0.161770
0.080196 0.443486 -0.164864
0.119864 0.443187 -0.169200
0.160478 0.443554 -0.175411
0.202820 0.445304 -0.184485
0.247825 0.449073 -0.197669
0.296351 0.455022 -0.216152
0.348937 0.462587 -0.240663
0.405683 0.470562 -0.271197
0.466287 0.477491 -0.307010
0.530195 0.482086 -0.346824
0.596736 0.483492 -0.389096
0.665215 0.481339 -0.432244
0.734956 0.475673 -0.474804
0.805322 0.466830 -0.515530
0.875748 0.455366 -0.553545
0.945713 0.441921 -0.588212
1.014361 0.426617 -0.617562
1.081605 0.410526 -0.642650
1.147054 0.394125 -0.663182
1.210448 0.377791 -0.679158
1.271789 0.361787 -0.691146
1.330537 0.346400 -0.698918
1.386155 0.331834 -0.702602
1.438836 0.317971 -0.703345
1.489289 0.304585 -0.702301
1.537770 0.291582 -0.699904
1.585071 0.278796 -0.696777
-0.166618 0.479454 -0.166619
-0.126693 0.480012 -0.167218
-0.086862 0.480497 -0.168026
-0.047173 0.480847 -0.169215
-0.007605 0.481016 -0.170914
0.031926 0.480984 -0.173237
0.071562 0.480783 -0.176324
0.111524 0.480569 -0.180418
0.152181 0.480697 -0.185985
0.194127 0.481767 -0.193836
0.238189 0.484507 -0.205170
0.285310 0.489461 -0.221398
0.336329 0.496630 -0.243765
0.391782 0.505294 -0.272933
0.451813 0.514191 -0.308762
0.516208 0.521892 -0.350348
0.584492 0.527167 -0.396237
0.656003 0.529183 -0.444672
0.729954 0.527540 -0.493815
0.805475 0.522225 -0.541928
0.881681 0.513583 -0.587616
0.957692 0.502163 -0.629745
1.032248 0.487781 -0.665629
1.104966 0.471873 -0.696212
1.175164 0.455003 -0.720936
1.242389 0.437659 -0.739710
1.306599 0.420251 -0.753233
1.366991 0.403137 -0.761183
1.422856 0.386626 -0.763739
1.474649 0.370767 -0.762342
1.523444 0.355411 -0.758556
1.569666 0.340500 -0.752973
1.614370 0.325856 -0.746408
-0.176893 0.517109 -0.176893
-0.136768 0.517800 -0.177798
-0.096711 0.518443 -0.178900
-0.056752 0.518995 -0.180362
-0.016859 0.519421 -0.182307
0.023051 0.519696 -0.184831
0.063104 0.519819 -0.188045
0.103469 0.519861 -0.192122
0.144401 0.520034 -0.197388
0.186325 0.520775 -0.204460
0.229895 0.522740 -0.214367
0.275983 0.526648 -0.228528
0.325550 0.532933 -0.248495
0.379435 0.541428 -0.275513
0.438191 0.551282 -0.310112
0.502006 0.561181 -0.351943
0.570711 0.569709 -0.399854
0.643821 0.575654 -0.452113
0.720571 0.578166 -0.506658
0.799972 0.576811 -0.561345
0.880903 0.571629 -0.614280
0.962161 0.562975 -0.663785
1.042194 0.550260 -0.706497
1.120200 0.535201 -0.743078
1.195174 0.518383 -0.772658
1.266423 0.500370 -0.795014
1.333806 0.481728 -0.810924
1.396263 0.462871 -0.819955
1.452934 0.444241 -0.822299
1.504362 0.426119 -0.819465
1.552106 0.408480 -0.813624
1.596731 0.391318 -0.805507
1.639526 0.374459 -0.796129
-0.187197 0.556211 -0.187197
-0.146851 0.557084 -0.188423
-0.106551 0.557932 -0.189840
-0.066308 0.558729 -0.191609
-0.026085 0.559451 -0.193844
0.014206 0.560074 -0.196637
0.054689 0.560582 -0.200080
0.095508 0.560998 -0.204303
0.136856 0.561433 -0.209538
0.179027 0.562166 -0.216227
0.222505 0.563710 -0.225177
0.268013 0.566772 -0.237659
0.316473 0.572032 -0.255306
0.368868 0.579797 -0.279755
0.426049 0.589728 -0.312161
0.488578 0.600840 -0.352823
0.556641 0.611752 -0.401072
0.630019 0.621023 -0.455404
0.708094 0.627420 -0.513713
0.789887 0.630082 -0.573585
0.874144 0.628688 -0.632692
0.959426 0.623313 -0.688833
1.044023 0.612896 -0.738089
1.126647 0.599307 -0.780698
1.205971 0.583081 -0.815459
1.281048 0.564810 -0.841966
1.351604 0.545215 -0.861010
1.416326 0.524755 -0.871974
1.474190 0.504021 -0.874971
1.525885 0.483538 -0.871706
1.573290 0.463467 -0.864761
1.617082 0.443865 -0.855003
1.658764 0.424577 -0.843685
-0.197610 0.596775 -0.197610
-0.157027 0.597883 -0.199178
-0.116469 0.598986 -0.200937
-0.075933 0.600074 -0.203044
-0.035373 0.601136 -0.205613
0.005302 0.602151 -0.208732
0.046217 0.603096 -0.212485
0.087512 0.603968 -0.216978
0.129346 0.604816 -0.222380
0.171937 0.605799 -0.229003
0.215628 0.607271 -0.237440
0.260975 0.609818 -0.248723
0.308768 0.614177 -0.264369
0.359984 0.620963 -0.286176
0.415625 0.630324 -0.315773
0.476530 0.641729 -0.354098
0.543215 0.654033 -0.401090
0.615771 0.665758 -0.455647
0.693812 0.675415 -0.515807
0.776483 0.681772 -0.579043
0.862516 0.684135 -0.642711
0.950333 0.682242 -0.704170
1.038206 0.674532 -0.759135
1.124365 0.662888 -0.807323
1.207205 0.647720 -0.847198
1.285546 0.629616 -0.878144
1.358932 0.609425 -0.900857
1.425595 0.587623 -0.914262
1.484261 0.564968 -0.917947
1.537495 0.542241 -0.916071
1.585520 0.519782 -0.909405
1.629298 0.497723 -0.899118
1.670696 0.475956 -0.886915
-0.208197 0.638828 -0.208197
-0.167365 0.640225 -0.210133
-0.126537 0.641635 -0.212261
-0.085698 0.643066 -0.214740
-0.044795 0.644515 -0.217686
-0.003735 0.645967 -0.221184
0.037611 0.647398 -0.225315
0.079386 0.648791 -0.230170
0.121739 0.650157 -0.235883
0.164846 0.651576 -0.242674
0.208957 0.653265 -0.250962
0.254478 0.655651 -0.261518
0.302037 0.659388 -0.275614
0.352493 0.665212 -0.294987
0.406853 0.673624 -0.321513
0.466105 0.684565 -0.356671
0.531017 0.697275 -0.401039
0.601973 0.710432 -0.454051
0.678863 0.722456 -0.514060
0.761039 0.731852 -0.578601
0.847316 0.737581 -0.644860
0.936084 0.739021 -0.709890
1.025721 0.734133 -0.769276
1.114046 0.724681 -0.822158
1.199250 0.710903 -0.866679
1.279936 0.693335 -0.901935
1.355470 0.672923 -0.928393
1.424075 0.650153 -0.944847
1.484562 0.625913 -0.951246
1.539153 0.601258 -0.951209
1.588123 0.576635 -0.945624
1.632543 0.552274 -0.935882
1.674411 0.528145 -0.923929
-0.219010 0.682401 -0.219010
-0.177919 0.684141 -0.221340
-0.136813 0.685912 -0.223867
-0.095664 0.687736 -0.226754
-0.054414 0.689622 -0.230117
-0.012967 0.691559 -0.234043
0.028809 0.693525 -0.238609
0.071064 0.695493 -0.243899
0.113950 0.697453 -0.250022
0.157622 0.699434 -0.257141
0.202278 0.701554 -0.265542
0.248213 0.704085 -0.275767
0.295894 0.707525 -0.288790
0.346012 0.712569 -0.306115
0.399468 0.719898 -0.329634
0.457260 0.729842 -0.361169
0.520299 0.742087 -0.401877
0.589205 0.755626 -0.451799
0.664138 0.768969 -0.509745
0.744694 0.780487 -0.573488
0.829842 0.788867 -0.640217
0.918040 0.793146 -0.706836
1.007863 0.790879 -0.769048
1.096857 0.783608 -0.825395
1.183125 0.771380 -0.873770
1.265171 0.754652 -0.913025
1.342245 0.734424 -0.943411
1.412480 0.711140 -0.963476
1.474577 0.685750 -0.972952
1.530637 0.659567 -0.975459
1.580945 0.633137 -0.971934
1.626557 0.606778 -0.963819
1.669518 0.580557 -0.953240
-0.230091 0.727519 -0.230091
-0.188733 0.729656 -0.232843
-0.147343 0.731841 -0.235799
-0.105879 0.734111 -0.239126
-0.064278 0.736484 -0.242945
-0.022440 0.738957 -0.247340
0.019769 0.741505 -0.252387
0.062506 0.744096 -0.258161
0.105929 0.746705 -0.264756
0.150192 0.749330 -0.272296
0.195462 0.752015 -0.280975
0.241960 0.754908 -0.291157
0.290018 0.758336 -0.303529
0.340153 0.762850 -0.319274
0.393094 0.769144 -0.340094
0.449744 0.777791 -0.367915
0.511039 0.788891 -0.404318
0.577742 0.801846 -0.449939
0.650232 0.815407 -0.504157
0.728344 0.827964 -0.565146
0.811243 0.838029 -0.630274
0.897532 0.844360 -0.696459
0.986057 0.844222 -0.759740
1.074253 0.838876 -0.818095
1.160252 0.828174 -0.869235
1.242541 0.812474 -0.911794
1.320280 0.792770 -0.945770
1.391588 0.769424 -0.969510
1.455060 0.743380 -0.982477
1.512621 0.716164 -0.988213
1.564478 0.688386 -0.987583
1.611634 0.660448 -0.982044
1.656126 0.632527 -0.973845
-0.241471 0.774197 -0.241471
-0.199842 0.776784 -0.244671
-0.158162 0.779437 -0.248084
-0.116377 0.782205 -0.251881
-0.074416 0.785116 -0.256184
-0.032179 0.788170 -0.261078
0.010470 0.791344 -0.266635
0.053695 0.794599 -0.272921
0.097661 0.797894 -0.280016
0.142526 0.801200 -0.288015
0.188440 0.804513 -0.297057
0.235573 0.807887 -0.307374
0.284162 0.811496 -0.319418
0.334567 0.815712 -0.334037
0.387334 0.821121 -0.352602
0.443199 0.828372 -0.376910
0.503019 0.837866 -0.408746
0.567591 0.849422 -0.449255
0.637434 0.862146 -0.498440
0.712581 0.874595 -0.555028
0.792409 0.885232 -0.616718
0.875727 0.892627 -0.680589
0.961691 0.893911 -0.743176
1.047793 0.890033 -0.801973
1.132296 0.880670 -0.854599
1.213742 0.866056 -0.899521
1.291244 0.847126 -0.936485
1.362958 0.824120 -0.963665
1.427420 0.797913 -0.980281
1.486296 0.770179 -0.989643
1.539698 0.741561 -0.992500
1.588543 0.712529 -0.990273
1.634784 0.683378 -0.985260
-0.253170 0.822443 -0.253170
-0.211261 0.825534 -0.256838
-0.169282 0.828705 -0.260727
-0.127165 0.832020 -0.265011
-0.084832 0.835513 -0.269815
-0.042182 0.839189 -0.275222
0.000921 0.843021 -0.281297
0.044643 0.846960 -0.288100
0.089156 0.850950 -0.295695
0.134620 0.854935 -0.304158
0.181175 0.858874 -0.313586
0.228961 0.862754 -0.324126
0.278149 0.866633 -0.336050
0.328979 0.870717 -0.349907
0.381827 0.875418 -0.366690
0.437234 0.881324 -0.387893
0.495896 0.888978 -0.415277
0.558543 0.898536 -0.450323
0.625745 0.909501 -0.493636
0.697681 0.920720 -0.544576
0.773931 0.930755 -0.601310
0.853547 0.938112 -0.661213
0.936018 0.939942 -0.721445
1.018985 0.936965 -0.779127
1.100958 0.928628 -0.831877
1.180592 0.915030 -0.878063
1.256985 0.897001 -0.917188
1.328388 0.874640 -0.947321
1.393337 0.848706 -0.967465
1.453179 0.820938 -0.980565
1.507914 0.791979 -0.987199
1.558397 0.762366 -0.988778
1.606393 0.732486 -0.987505
-0.265183 0.872257 -0.265183
-0.222981 0.875898 -0.269330
-0.180689 0.879633 -0.273701
-0.138225 0.883535 -0.278479
-0.095503 0.887643 -0.283785
-0.052423 0.891962 -0.289701
-0.008853 0.896459 -0.296286
0.035373 0.901076 -0.303591
0.080430 0.905733 -0.311667
0.126477 0.910354 -0.320570
0.173652 0.914864 -0.330367
0.222075 0.919205 -0.341141
0.271873 0.923355 -0.353041
0.323204 0.927381 -0.366377
0.376301 0.931514 -0.381788
0.431519 0.936189 -0.400389
0.489350 0.941934 -0.423721
0.550371 0.949110 -0.453391
