Project4/LongBeachMorning.cube
TITLE "Long Beach Morning"
# Created by Photon 3D ColorGrading
# AUTHOR Todd Blankenship
DOMAIN_MIN 0 0 0
DOMAIN_MAX 1 1 1
LUT_3D_SIZE 9
-0.000002 -0.000002 -0.000002
0.112309 -0.037923 -0.037872
0.225290 -0.080386 -0.080193
0.346381 -0.125793 -0.125333
0.486102 -0.169935 -0.169051
0.650005 -0.214224 -0.212728
0.839941 -0.263125 -0.260801
1.056417 -0.317786 -0.314408
1.294205 -0.375323 -0.370687
-0.037770 0.111887 -0.037770
0.120899 0.115024 -0.053905
0.254110 0.084800 -0.093714
0.364171 0.031989 -0.135449
0.497007 -0.014259 -0.179718
0.664205 -0.057058 -0.229079
0.865047 -0.104046 -0.287082
1.097007 -0.156516 -0.352156
1.349165 -0.211404 -0.418396
-0.079763 0.223757 -0.079763
0.077238 0.227618 -0.083035
0.250777 0.235955 -0.126943
0.413605 0.206646 -0.189930
0.552830 0.151710 -0.235982
0.711002 0.103318 -0.280035
0.910720 0.058841 -0.336932
1.149086 0.012476 -0.404819
1.407243 -0.035660 -0.473391
-0.124190 0.342845 -0.124190
0.031583 0.343123 -0.125271
0.192290 0.346628 -0.149730
0.393092 0.364443 -0.232536
0.610083 0.343260 -0.340118
0.819217 0.288681 -0.424944
1.034732 0.232920 -0.486958
1.262601 0.185406 -0.533523
1.492517 0.143911 -0.568447
-0.166618 0.479454 -0.166619
-0.007605 0.481016 -0.170914
0.152181 0.480697 -0.185985
0.336329 0.496630 -0.243765
0.584492 0.527167 -0.396237
0.881681 0.513583 -0.587616
1.175164 0.455003 -0.720936
1.422856 0.386626 -0.763739
1.614370 0.325856 -0.746408
-0.208197 0.638828 -0.208197
-0.044795 0.644515 -0.217686
0.121739 0.650157 -0.235883
0.302037 0.659388 -0.275614
0.531017 0.697275 -0.401039
0.847316 0.737581 -0.644860
1.199250 0.710903 -0.866679
1.484562 0.625913 -0.951246
1.674411 0.528145 -0.923929
-0.253170 0.822443 -0.253170
-0.084832 0.835513 -0.269815
0.089156 0.850950 -0.295695
0.278149 0.866633 -0.336050
0.495896 0.888978 -0.415277
0.773931 0.930755 -0.601310
1.100958 0.928628 -0.831877
1.393337 0.848706 -0.967465
1.606393 0.732486 -0.987505
-0.302684 1.030829 -0.302684
-0.128598 1.053276 -0.326866
0.053155 1.078090 -0.359921
0.251204 1.098964 -0.402862
0.469376 1.105969 -0.455624
0.707621 1.101494 -0.547276
0.969117 1.080606 -0.703389
1.226636 1.010899 -0.844552
1.446517 0.902892 -0.918662
-0.354058 1.258034 -0.354058
-0.173644 1.287475 -0.384135
0.015901 1.316231 -0.420433
0.220153 1.332093 -0.459798
0.435250 1.314896 -0.495395
0.648988 1.260653 -0.523794
0.857126 1.195533 -0.584249
1.065144 1.122690 -0.685640
1.265274 1.030020 -0.779870
-0.037771 -0.037771 0.111887
0.102014 -0.046891 0.101982
0.222479 -0.080208 0.070748
0.343710 -0.125449 0.030432
0.483485 -0.172214 -0.008882
0.649843 -0.220814 -0.047307
0.845578 -0.276041 -0.089631
1.070270 -0.337570 -0.136774
1.313683 -0.400366 -0.186035
-0.046881 0.101989 0.101989
0.040764 0.039096 0.036056
0.175976 0.009034 0.003712
0.318979 -0.025415 -0.026708
0.481827 -0.061940 -0.061035
0.670148 -0.103249 -0.101263
0.884717 -0.150604 -0.147599
1.136222 -0.213106 -0.208843
1.442312 -0.293399 -0.287705
-0.080125 0.222286 0.070809
0.009263 0.167972 0.006171
0.172412 0.158641 -0.027870
0.347470 0.136166 -0.066048
0.511298 0.095274 -0.100412
0.702317 0.055396 -0.141677
0.927117 0.012065 -0.193818
1.199237 -0.046934 -0.267756
1.506771 -0.102803 -0.345292
-0.125047 0.342889 0.030733
-0.022616 0.310009 -0.022960
0.138435 0.306013 -0.046214
0.354046 0.317422 -0.102404
0.578713 0.291144 -0.187123
0.789279 0.239563 -0.245250
1.009291 0.192656 -0.285360
1.270078 0.142609 -0.345605
1.576956 0.092328 -0.431685
-0.170927 0.481128 -0.007906
-0.055474 0.470201 -0.055533
0.107351 0.470257 -0.075305
0.306969 0.479439 -0.112100
0.570418 0.496688 -0.247013
0.873041 0.465112 -0.413134
1.134926 0.398061 -0.480632
1.379893 0.333877 -0.512547
1.681755 0.282279 -0.597311
-0.217701 0.644584 -0.044934
-0.092140 0.652198 -0.092156
0.077934 0.660862 -0.115467
0.275142 0.668694 -0.141353
0.513714 0.686645 -0.234385
0.827632 0.696326 -0.444466
1.139312 0.633433 -0.598819
1.415458 0.544484 -0.673679
1.763896 0.483201 -0.811832
-0.269823 0.835547 -0.084887
-0.133258 0.857161 -0.133263
0.044071 0.874697 -0.162286
0.246895 0.886989 -0.189784
0.472063 0.884869 -0.235514
0.728355 0.874162 -0.355982
1.005013 0.824098 -0.520387
1.295221 0.743666 -0.670360
1.680191 0.695974 -0.895219
-0.326868 1.053295 -0.128615
-0.190872 1.099487 -0.190873
-0.010176 1.136793 -0.235053
0.203362 1.151484 -0.269874
0.431514 1.130038 -0.303201
0.661222 1.067801 -0.342050
0.888094 0.991795 -0.433147
1.133625 0.910820 -0.572932
1.482577 0.878824 -0.822291
-0.384136 1.287476 -0.173648
-0.276830 1.409061 -0.276830
-0.072299 1.452338 -0.325746
0.146241 1.483097 -0.390842
0.382944 1.475953 -0.461864
0.629252 1.393392 -0.498366
0.857157 1.263137 -0.519718
1.069364 1.140281 -0.591682
1.272462 1.017721 -0.677505
-0.079763 -0.079763 0.223757
0.070809 -0.080125 0.222286
0.205003 -0.101135 0.204999
0.335321 -0.139353 0.176916
0.480910 -0.184712 0.147878
0.652086 -0.236522 0.118774
0.855662 -0.298299 0.085708
1.087078 -0.365632 0.048218
1.331848 -0.430323 0.008433
-0.080125 0.070809 0.222286
0.006987 0.006928 0.166539
0.147308 -0.017313 0.146421
0.303222 -0.042206 0.127993
0.474384 -0.076937 0.103439
0.669020 -0.120327 0.073267
0.889977 -0.171761 0.036407
1.157771 -0.247279 -0.019548
1.475603 -0.337626 -0.081391
-0.101134 0.205000 0.205000
-0.017138 0.146720 0.146574
0.115683 0.112154 0.108927
0.292280 0.090859 0.085273
0.481066 0.060333 0.059367
0.691087 0.024426 0.026255
0.938524 -0.029125 -0.025498
1.249852 -0.105682 -0.099731
1.538471 -0.149325 -0.142434
-0.139334 0.335285 0.176930
-0.041535 0.301672 0.128558
0.094833 0.279467 0.090348
0.300376 0.274282 0.053246
0.526762 0.247288 -0.000506
0.744450 0.204830 -0.037131
1.002290 0.150658 -0.091877
1.308199 0.094147 -0.168181
1.587888 0.048386 -0.223277
-0.184552 0.480637 0.148000
-0.074863 0.470635 0.105038
0.068808 0.464126 0.068164
0.269747 0.465923 0.040686
0.538948 0.466369 -0.059068
0.824046 0.419722 -0.173025
1.078347 0.351582 -0.217832
1.371922 0.294527 -0.290276
1.626254 0.247631 -0.333157
-0.235937 0.651428 0.119262
-0.115520 0.661380 0.076953
0.039431 0.666918 0.039303
0.239758 0.673053 0.016777
0.481667 0.670193 -0.035377
0.764949 0.637358 -0.178532
1.058177 0.558926 -0.312517
1.409681 0.491670 -0.464287
1.694219 0.437143 -0.527605
-0.295872 0.852054 0.087466
-0.162343 0.875008 0.043611
-0.007095 0.902313 -0.007129
0.194269 0.923370 -0.043089
0.429660 0.895656 -0.063958
0.664690 0.824483 -0.114652
0.915808 0.743424 -0.248333
1.286062 0.689747 -0.493407
1.686763 0.642020 -0.704318
-0.360067 1.078879 0.052138
-0.235082 1.136951 -0.010371
-0.083663 1.209933 -0.083673
0.136770 1.232886 -0.134266
0.379188 1.207407 -0.184450
0.626035 1.114811 -0.219578
0.855547 0.986535 -0.276663
1.120030 0.882423 -0.426686
1.499348 0.838129 -0.682331
-0.420521 1.316688 0.015404
-0.325745 1.452386 -0.072362
-0.124430 1.494023 -0.124433
0.093081 1.511150 -0.191675
0.326667 1.493247 -0.269349
0.580618 1.436437 -0.353517
0.836139 1.312285 -0.409364
1.059724 1.146550 -0.465417
1.268619 0.994002 -0.549220
-0.124190 -0.124190 0.342845
0.030733 -0.125047 0.342889
0.176930 -0.139334 0.335285
0.321551 -0.169153 0.321551
0.478804 -0.212025 0.306094
0.660400 -0.268167 0.289325
0.872794 -0.335859 0.268928
1.106759 -0.404872 0.243137
1.342425 -0.464030 0.212557
-0.125047 0.030733 0.342889
-0.022906 -0.022906 0.309960
0.128571 -0.041568 0.301663
0.295550 -0.059712 0.295495
0.473460 -0.092955 0.283324
0.673080 -0.139040 0.265195
0.894838 -0.192403 0.239399
1.162096 -0.274524 0.196351
1.496578 -0.396930 0.139133
-0.139334 0.176930 0.335285
-0.041566 0.128566 0.301664
0.091766 0.091655 0.278480
0.269643 0.073027 0.268214
0.467865 0.048523 0.255144
0.681856 0.013442 0.232328
0.939654 -0.052249 0.185682
1.255372 -0.146691 0.126756
1.540598 -0.207969 0.080142
-0.169153 0.321551 0.321551
-0.059693 0.295510 0.295509
0.073466 0.268686 0.268530
0.250296 0.244361 0.240751
0.470677 0.221190 0.214165
0.709487 0.178843 0.177350
1.017051 0.102887 0.107077
1.294351 0.054374 0.061578
1.550460 0.000201 0.008320
-0.212023 0.478800 0.306096
-0.092807 0.473203 0.283436
0.050039 0.465095 0.256396
0.231338 0.451691 0.224802
0.480929 0.436298 0.170149
0.753787 0.379475 0.096748
1.046008 0.317455 0.023998
1.299216 0.266118 -0.020063
1.532161 0.208118 -0.069970
-0.268218 0.660580 0.289324
-0.138291 0.672022 0.265719
0.017672 0.675011 0.235573
0.195901 0.680337 0.194896
0.426883 0.663708 0.165284
0.686784 0.586554 0.084908
1.020065 0.516525 -0.085378
1.318976 0.453510 -0.173004
1.525435 0.395501 -0.184629
-0.335541 0.872390 0.269120
-0.189919 0.891043 0.241200
-0.043198 0.924779 0.192433
0.125417 0.977275 0.125188
0.373065 0.941896 0.089707
0.619930 0.834015 0.051733
0.893677 0.722933 -0.086097
1.261391 0.645297 -0.294292
1.549651 0.574432 -0.372521
-0.403410 1.104834 0.243961
-0.270167 1.154485 0.199834
-0.134191 1.233479 0.135989
0.082009 1.245067 0.081923
0.324694 1.198946 0.027169
0.574741 1.117270 -0.039178
0.830221 0.995509 -0.128172
1.111272 0.860399 -0.277483
1.469905 0.778436 -0.477060
-0.460507 1.337136 0.214826
-0.390305 1.484217 0.144496
-0.191504 1.511211 0.092851
0.034374 1.490137 0.034356
0.267868 1.429081 -0.025145
0.505654 1.352051 -0.094936
0.772355 1.278515 -0.201345
1.037366 1.144006 -0.309816
1.261088 0.963451 -0.403543
-0.166619 -0.166618 0.479454
-0.007906 -0.170927 0.481129
0.148000 -0.184552 0.480638
0.306096 -0.212023 0.478800
0.476963 -0.256430 0.476963
0.671998 -0.318209 0.474195
0.892739 -0.388948 0.466117
1.121631 -0.452062 0.447961
1.331691 -0.496316 0.417538
-0.170927 -0.007906 0.481128
-0.055535 -0.055535 0.470223
0.105038 -0.074867 0.470636
0.283436 -0.092807 0.473203
0.472909 -0.126883 0.472907
0.680117 -0.174378 0.466130
0.895868 -0.222549 0.447588
1.143541 -0.301381 0.414426
1.487329 -0.460440 0.369831
-0.184552 0.148000 0.480637
-0.074867 0.105037 0.470636
0.068263 0.068263 0.464216
0.256418 0.049992 0.465095
0.464328 0.028383 0.464227
0.674589 -0.000040 0.448207
0.907789 -0.060618 0.413343
1.220567 -0.186384 0.367282
1.505628 -0.272026 0.316806
-0.212023 0.306096 0.478800
-0.092807 0.283436 0.473203
0.049996 0.256410 0.465097
0.227597 0.227417 0.451743
0.444198 0.209841 0.441915
0.673236 0.177255 0.408424
0.957426 0.085319 0.361958
1.221749 0.016700 0.312768
1.461369 -0.042548 0.253094
-0.256430 0.476963 0.476963
-0.126881 0.472907 0.472907
0.028424 0.464258 0.464258
0.210739 0.442742 0.442574
0.420021 0.410678 0.406741
0.680725 0.357799 0.351171
0.935155 0.301178 0.303511
1.170152 0.241369 0.248490
1.400255 0.174425 0.183381
-0.318209 0.671998 0.474195
-0.174357 0.680087 0.466144
0.000146 0.674185 0.448371
0.179960 0.668563 0.410802
0.374801 0.652245 0.367228
0.623759 0.565565 0.300198
0.901911 0.492572 0.200630
1.139319 0.424637 0.153117
1.353379 0.359963 0.104281
-0.388923 0.892723 0.466104
-0.222487 0.895720 0.447686
-0.059287 0.905623 0.414304
0.091735 0.945989 0.366839
0.325231 0.893509 0.323405
0.564115 0.800253 0.258485
0.842499 0.700478 0.116708
1.134301 0.593732 0.000682
1.353905 0.516728 -0.026058
-0.451694 1.121237 0.447797
-0.302336 1.144259 0.414755
-0.182203 1.214066 0.369791
0.028839 1.199971 0.321874
0.273704 1.113028 0.273152
0.501623 1.023284 0.212544
0.765886 0.950236 0.090325
1.063823 0.824433 -0.073707
1.343982 0.697712 -0.176204
-0.495976 1.331188 0.417741
-0.458810 1.484296 0.371208
-0.265730 1.494334 0.321804
-0.024465 1.429260 0.266931
0.213511 1.330427 0.213408
0.433523 1.231808 0.158241
0.672830 1.163448 0.069705
0.987454 1.108206 -0.095987
1.236203 0.921140 -0.217128
-0.208197 -0.208197 0.638828
-0.044934 -0.217684 0.644582
0.119167 -0.235704 0.651388
0.289195 -0.268062 0.660557
0.474195 -0.318209 0.671998
0.680942 -0.382678 0.680942
0.902223 -0.446781 0.677679
1.111467 -0.492715 0.653325
1.289765 -0.515361 0.611639
-0.217701 -0.044934 0.644584
-0.092474 -0.092340 0.652202
0.076787 -0.115426 0.661352
0.265620 -0.138165 0.672040
0.466074 -0.174316 0.680162
0.675412 -0.215848 0.675412
0.873602 -0.247673 0.648779
1.091337 -0.313408 0.615879
1.421550 -0.491810 0.595302
-0.235936 0.119263 0.651428
-0.115697 0.076975 0.661399
0.038715 0.039015 0.666872
0.235465 0.017664 0.675083
0.448484 0.000088 0.674390
0.643847 -0.009973 0.643841
0.839905 -0.052401 0.606944
1.138495 -0.202751 0.589230
1.445965 -0.337124 0.553266
-0.268218 0.289324 0.660580
-0.138302 0.265723 0.672028
0.017367 0.235839 0.675046
0.194730 0.194782 0.680780
0.410837 0.179899 0.668581
0.606662 0.182576 0.606486
0.852707 0.085349 0.579974
1.129346 -0.024693 0.548093
1.360978 -0.089058 0.488743
-0.318209 0.474195 0.671998
-0.174370 0.466150 0.680097
-0.000073 0.448756 0.674413
0.179931 0.410969 0.668305
0.370904 0.370639 0.653750
0.584589 0.340841 0.581710
0.814547 0.274160 0.539541
1.040269 0.211368 0.484304
1.260064 0.145017 0.418140
-0.382678 0.680942 0.680942
-0.215862 0.675426 0.675426
-0.009976 0.644177 0.644215
0.183012 0.606336 0.606336
0.342081 0.582668 0.582541
0.538442 0.527661 0.525276
0.751481 0.468163 0.467128
0.970696 0.403290 0.409084
1.193732 0.337165 0.346630
-0.446781 0.902223 0.677679
-0.247630 0.873568 0.648771
-0.050620 0.838173 0.606264
0.085201 0.852888 0.580498
0.277807 0.808228 0.542338
0.490776 0.723245 0.480050
0.722006 0.650079 0.379802
0.959643 0.552476 0.298521
1.185194 0.490547 0.261988
-0.492716 1.111467 0.653325
-0.313412 1.091320 0.615894
-0.204206 1.139678 0.589835
-0.023452 1.127451 0.549664
0.220256 1.024468 0.491116
0.434984 0.920915 0.431811
0.659237 0.857437 0.342907
0.939716 0.756291 0.201830
1.197397 0.638440 0.136615
-0.515388 1.289784 0.611645
-0.491891 1.421484 0.595423
-0.338060 1.446910 0.554436
-0.084753 1.353501 0.492096
0.160566 1.232293 0.430030
0.377554 1.123830 0.376978
0.589464 1.057433 0.321160
0.886227 1.025743 0.197564
1.137111 0.848562 0.064332
-0.253170 -0.253170 0.822443
-0.084886 -0.269823 0.835547
0.087466 -0.295872 0.852054
0.269121 -0.335540 0.872390
0.466105 -0.388923 0.892723
0.677679 -0.446780 0.902222
0.886081 -0.492272 0.886081
1.068484 -0.513576 0.842369
1.219576 -0.514489 0.783875
-0.269823 -0.084887 0.835547
-0.133263 -0.133264 0.857164
0.043612 -0.162342 0.875007
0.241201 -0.189920 0.891043
0.447702 -0.222501 0.895739
0.648796 -0.247687 0.873619
0.823957 -0.256257 0.823957
1.009883 -0.302248 0.784302
1.304343 -0.476152 0.789032
-0.295872 0.087466 0.852054
-0.162343 0.043611 0.875008
-0.007135 -0.007135 0.902341
0.192433 -0.043199 0.924780
0.414305 -0.059287 0.905623
0.606966 -0.052373 0.839856
0.771442 -0.056955 0.771442
1.024674 -0.187717 0.767805
1.351294 -0.374359 0.771149
-0.335540 0.269120 0.872390
-0.189919 0.241200 0.891043
-0.043199 0.192433 0.924780
0.125195 0.125195 0.977442
0.366842 0.091727 0.945994
0.580301 0.085759 0.851970
0.772170 0.056584 0.772162
1.034846 -0.059909 0.752368
1.286377 -0.155563 0.711103
-0.388923 0.466104 0.892723
-0.222486 0.447686 0.895720
-0.059287 0.414304 0.905623
0.091727 0.366841 0.945994
0.324078 0.324077 0.894005
0.542407 0.277727 0.808237
0.751228 0.212893 0.751025
0.967534 0.148557 0.698158
1.165980 0.096246 0.632353
-0.446781 0.677679 0.902223
-0.247672 0.648780 0.873600
-0.052372 0.606965 0.839855
0.085761 0.580300 0.851969
0.277738 0.542394 0.808241
0.485365 0.485080 0.724858
0.679357 0.421969 0.676359
0.871154 0.365553 0.619976
1.075849 0.318578 0.566531
-0.492273 0.886082 0.886082
-0.256258 0.823958 0.823957
-0.056955 0.771441 0.771441
0.056589 0.772163 0.772163
0.212976 0.751090 0.751089
0.423665 0.677399 0.677297
0.621714 0.607877 0.607395
0.823733 0.534399 0.539371
1.053363 0.496106 0.506265
-0.513571 1.068482 0.842367
-0.302252 1.009886 0.784303
-0.187720 1.024674 0.767807
-0.059874 1.034783 0.752397
0.149098 0.966589 0.698587
0.370555 0.863476 0.623755
0.569483 0.789947 0.556382
0.810812 0.710081 0.464214
1.066714 0.646456 0.422148
-0.514500 1.219584 0.783877
-0.476159 1.304348 0.789034
-0.374349 1.351275 0.771158
-0.155367 1.286029 0.711263
0.098164 1.162614 0.633871
0.329619 1.057446 0.575161
0.538508 0.998205 0.535281
0.785761 0.973570 0.475653
1.039906 0.835708 0.342716
-0.302684 -0.302684 1.030829
-0.128766 -0.326651 1.053210
0.052034 -0.359966 1.078872
0.243800 -0.403336 1.104959
0.447770 -0.451765 1.121549
0.653348 -0.492741 1.111509
0.842374 -0.513580 1.068494
1.002674 -0.512675 1.002676
1.135823 -0.498882 0.928910
-0.326789 -0.128671 1.053266
-0.191775 -0.191310 1.099532
-0.010436 -0.235051 1.136978
0.199772 -0.270161 1.154866
0.414884 -0.302249 1.144411
0.615889 -0.313018 1.090907
0.784294 -0.302225 1.009867
0.940427 -0.310343 0.940425
1.180684 -0.444214 0.943534
-0.359980 0.052046 1.078872
-0.235127 -0.009660 1.135902
-0.084343 -0.084099 1.210576
0.135892 -0.134138 1.233984
0.369917 -0.182552 1.214782
0.589393 -0.202563 1.138144
0.767806 -0.187717 1.024671
0.944531 -0.211321 0.944531
1.212744 -0.357372 0.944502
-0.403365 0.243854 1.104904
-0.269507 0.200581 1.152996
-0.135676 0.135655 1.234876
0.081778 0.081977 1.245809
0.322018 0.028836 1.200297
0.549428 -0.022999 1.126323
0.752397 -0.059874 1.034782
0.953142 -0.105355 0.953141
1.208420 -0.215348 0.920993
-0.451751 0.447776 1.121459
-0.301143 0.415052 1.142727
-0.184146 0.369781 1.215952
0.028606 0.321882 1.200867
0.273729 0.273406 1.113085
0.491123 0.220244 1.024469
0.698588 0.149098 0.966589
0.918692 0.069061 0.918683
1.125438 0.013625 0.851879
-0.492716 0.653325 1.111466
-0.313398 0.615892 1.091313
-0.203306 0.589521 1.138705
-0.023000 0.549428 1.126323
0.220244 0.491123 1.024469
0.433085 0.433084 0.921007
0.623836 0.370433 0.863485
0.830888 0.299145 0.830612
1.032415 0.265558 0.781625
-0.513572 0.842367 1.068482
-0.302249 0.784301 1.009883
-0.187851 0.767800 1.024691
-0.059873 0.752397 1.034782
0.149099 0.698587 0.966588
0.370447 0.623820 0.863494
0.562171 0.561744 0.793012
0.761790 0.508543 0.757394
0.985686 0.491866 0.738301
-0.512666 1.002672 1.002673
-0.310351 0.940430 0.940429
-0.211467 0.944537 0.944537
-0.105355 0.953141 0.953141
0.069065 0.918686 0.918686
0.299270 0.830715 0.830715
0.511552 0.759119 0.759101
0.731603 0.709949 0.711751
0.987573 0.700228 0.704912
-0.498897 1.135833 0.928917
-0.444215 1.180684 0.943535
-0.357768 1.212953 0.944663
-0.215347 1.208419 0.920994
0.013653 1.125391 0.851903
0.266124 1.031563 0.782108
0.497564 0.979366 0.742822
0.734242 0.967871 0.724456
0.988726 0.911727 0.647927
-0.354049 -0.354066 1.258032
-0.173823 -0.384267 1.287551
0.015305 -0.420627 1.316748
0.214833 -0.460510 1.337121
0.417744 -0.495979 1.331184
0.611644 -0.515388 1.289777
0.783877 -0.514489 1.219575
0.928913 -0.498882 1.135820
1.050787 -0.476923 1.050787
-0.384136 -0.173648 1.287476
-0.277199 -0.277326 1.409482
-0.072397 -0.325840 1.452465
0.144471 -0.390411 1.484302
0.371246 -0.459172 1.484694
0.595448 -0.492187 1.421822
0.789087 -0.476277 1.304385
0.943549 -0.444248 1.180697
1.069979 -0.413879 1.069979
-0.420522 0.015404 1.316688
-0.325747 -0.072363 1.452388
-0.124432 -0.124433 1.494025
0.092851 -0.191540 1.511281
0.321823 -0.265860 1.494608
0.553908 -0.336470 1.444813
0.771159 -0.374348 1.351275
0.944503 -0.357373 1.212744
1.080174 -0.328152 1.080174
-0.460505 0.214827 1.337135
-0.390305 0.144496 1.484217
-0.191504 0.092852 1.511210
0.034360 0.034360 1.490146
0.266927 -0.024470 1.429270
0.492088 -0.084754 1.353336
0.711263 -0.155367 1.286029
0.920994 -0.215347 1.208418
1.087603 -0.223896 1.087603
-0.495976 0.417741 1.331188
-0.458811 0.371208 1.484296
-0.265730 0.321804 1.494333
-0.024471 0.266927 1.429271
0.213448 0.213448 1.330443
0.430031 0.160565 1.232293
0.633871 0.098163 1.162615
0.851903 0.013653 1.125391
1.090591 -0.081329 1.090591
-0.515379 0.611644 1.289777
-0.491742 0.595370 1.421414
-0.336378 0.553890 1.444610
-0.084756 0.492088 1.353338
0.160565 0.430030 1.232293
0.377192 0.377192 1.123882
0.575167 0.329607 1.057448
0.782108 0.266124 1.031563
1.029311 0.172238 1.029311
-0.514494 0.783875 1.219580
-0.476159 0.789034 1.304348
-0.374347 0.771158 1.351274
-0.155367 0.711263 1.286029
0.098164 0.633871 1.162614
0.329607 0.575167 1.057448
0.536278 0.536278 0.998264
0.742852 0.497472 0.979369
0.979259 0.437522 0.979258
-0.498874 0.928906 1.135818
-0.444225 0.943540 1.180691
-0.357372 0.944503 1.212744
-0.215347 0.920994 1.208418
0.013653 0.851903 1.125391
0.266124 0.782108 1.031563
0.497472 0.742852 0.979370
0.727927 0.727927 0.969683
0.972914 0.706415 0.972913
-0.476920 1.050786 1.050786
-0.413878 1.069979 1.069979
-0.328151 1.080174 1.080174
-0.223895 1.087603 1.087603
-0.081329 1.090591 1.090591
0.172239 1.029311 1.029311
0.437523 0.979258 0.979258
0.706415 0.972913 0.972913
1.000045 1.000044 1.000044
