Project4/LongBeachMorning.cube
TITLE "Long Beach Morning"
# Created by Photon 3D ColorGrading
# AUTHOR Todd Blankenship
DOMAIN_MIN 0 0 0
DOMAIN_MAX 1 1 1
LUT_3D_SIZE 5
-0.000002 -0.000002 -0.000002
0.225290 -0.080386 -0.080193
0.486102 -0.169935 -0.169051
0.839941 -0.263125 -0.260801
1.294205 -0.375323 -0.370687
-0.079763 0.223757 -0.079763
0.250777 0.235955 -0.126943
0.552830 0.151710 -0.235982
0.910720 0.058841 -0.336932
1.407243 -0.035660 -0.473391
-0.166618 0.479454 -0.166619
0.152181 0.480697 -0.185985
0.584492 0.527167 -0.396237
1.175164 0.455003 -0.720936
1.614370 0.325856 -0.746408
-0.253170 0.822443 -0.253170
0.089156 0.850950 -0.295695
0.495896 0.888978 -0.415277
1.100958 0.928628 -0.831877
1.606393 0.732486 -0.987505
-0.354058 1.258034 -0.354058
0.015901 1.316231 -0.420433
0.435250 1.314896 -0.495395
0.857126 1.195533 -0.584249
1.265274 1.030020 -0.779870
-0.079763 -0.079763 0.223757
0.205003 -0.101135 0.204999
0.480910 -0.184712 0.147878
0.855662 -0.298299 0.085708
1.331848 -0.430323 0.008433
-0.101134 0.205000 0.205000
0.115683 0.112154 0.108927
0.481066 0.060333 0.059367
0.938524 -0.029125 -0.025498
1.538471 -0.149325 -0.142434
-0.184552 0.480637 0.148000
0.068808 0.464126 0.068164
0.538948 0.466369 -0.059068
1.078347 0.351582 -0.217832
1.626254 0.247631 -0.333157
-0.295872 0.852054 0.087466
-0.007095 0.902313 -0.007129
0.429660 0.895656 -0.063958
0.915808 0.743424 -0.248333
1.686763 0.642020 -0.704318
-0.420521 1.316688 0.015404
-0.124430 1.494023 -0.124433
0.326667 1.493247 -0.269349
0.836139 1.312285 -0.409364
1.268619 0.994002 -0.549220
-0.166619 -0.166618 0.479454
0.148000 -0.184552 0.480638
0.476963 -0.256430 0.476963
0.892739 -0.388948 0.466117
1.331691 -0.496316 0.417538
-0.184552 0.148000 0.480637
0.068263 0.068263 0.464216
0.464328 0.028383 0.464227
0.907789 -0.060618 0.413343
1.505628 -0.272026 0.316806
-0.256430 0.476963 0.476963
0.028424 0.464258 0.464258
0.420021 0.410678 0.406741
0.935155 0.301178 0.303511
1.400255 0.174425 0.183381
-0.388923 0.892723 0.466104
-0.059287 0.905623 0.414304
0.325231 0.893509 0.323405
0.842499 0.700478 0.116708
1.353905 0.516728 -0.026058
-0.495976 1.331188 0.417741
-0.265730 1.494334 0.321804
0.213511 1.330427 0.213408
0.672830 1.163448 0.069705
1.236203 0.921140 -0.217128
-0.253170 -0.253170 0.822443
0.087466 -0.295872 0.852054
0.466105 -0.388923 0.892723
0.886081 -0.492272 0.886081
1.219576 -0.514489 0.783875
-0.295872 0.087466 0.852054
-0.007135 -0.007135 0.902341
0.414305 -0.059287 0.905623
0.771442 -0.056955 0.771442
1.351294 -0.374359 0.771149
-0.388923 0.466104 0.892723
-0.059287 0.414304 0.905623
0.324078 0.324077 0.894005
0.751228 0.212893 0.751025
1.165980 0.096246 0.632353
-0.492273 0.886082 0.886082
-0.056955 0.771441 0.771441
0.212976 0.751090 0.751089
0.621714 0.607877 0.607395
1.053363 0.496106 0.506265
-0.514500 1.219584 0.783877
-0.374349 1.351275 0.771158
0.098164 1.162614 0.633871
0.538508 0.998205 0.535281
1.039906 0.835708 0.342716
-0.354049 -0.354066 1.258032
0.015305 -0.420627 1.316748
0.417744 -0.495979 1.331184
0.783877 -0.514489 1.219575
1.050787 -0.476923 1.050787
-0.420522 0.015404 1.316688
-0.124432 -0.124433 1.494025
0.321823 -0.265860 1.494608
0.771159 -0.374348 1.351275
1.080174 -0.328152 1.080174
-0.495976 0.417741 1.331188
-0.265730 0.321804 1.494333
0.213448 0.213448 1.330443
0.633871 0.098163 1.162615
1.090591 -0.081329 1.090591
-0.514494 0.783875 1.219580
-0.374347 0.771158 1.351274
0.098164 0.633871 1.162614
0.536278 0.536278 0.998264
0.979259 0.437522 0.979258
-0.476920 1.050786 1.050786
-0.328151 1.080174 1.080174
-0.081329 1.090591 1.090591
0.437523 0.979258 0.979258
1.000045 1.000044 1.000044
