Project4/LushGreen.cube
TITLE "Lush Green"
# Created by Photon 3D ColorGrading
DOMAIN_MIN 0 0 0
DOMAIN_MAX 1 1 1
LUT_3D_SIZE 33
0.000016 0.000046 0.000153
0.002455 0.001556 0.001522
0.005052 0.003060 0.002859
0.007946 0.004519 0.004106
0.011305 0.005908 0.005208
0.015334 0.007195 0.006103
0.020240 0.008307 0.006682
0.026303 0.009190 0.006850
0.033806 0.009770 0.006488
0.043045 0.009964 0.005472
0.054174 0.009714 0.003724
0.068140 0.008750 0.000838
0.086321 0.006677 -0.003776
0.108399 0.003520 -0.010033
0.135107 -0.001030 -0.018318
0.166940 -0.007213 -0.028911
0.203325 -0.014964 -0.041640
0.244938 -0.024620 -0.056890
0.291374 -0.036130 -0.074533
0.342296 -0.049496 -0.094491
0.398495 -0.065164 -0.117232
0.459893 -0.083271 -0.142810
0.525831 -0.103691 -0.170963
0.595290 -0.126053 -0.201196
0.667839 -0.150253 -0.233311
0.743101 -0.176160 -0.267113
0.820544 -0.203562 -0.302320
0.899889 -0.232408 -0.338797
0.980626 -0.262430 -0.376246
1.062265 -0.293317 -0.414361
1.144510 -0.324846 -0.452943
1.227141 -0.356809 -0.491829
1.310003 -0.389015 -0.530891
0.001614 0.002128 0.001733
0.002320 0.001958 0.001381
0.004533 0.003143 0.002350
0.007294 0.004565 0.003485
0.010584 0.006024 0.004547
0.014554 0.007453 0.005425
0.019398 0.008777 0.005993
0.025379 0.009948 0.006144
0.032775 0.010899 0.005750
0.041885 0.011562 0.004681
0.052872 0.011880 0.002850
0.066705 0.011622 -0.000172
0.084722 0.010466 -0.004979
0.106542 0.008430 -0.011454
0.132987 0.005214 -0.020023
0.164464 0.000628 -0.030925
0.200476 -0.005323 -0.044009
0.242140 -0.013091 -0.059873
0.288741 -0.022555 -0.078233
0.339771 -0.033693 -0.098917
0.396129 -0.046973 -0.122439
0.457769 -0.062568 -0.148850
0.524040 -0.080403 -0.177874
0.593904 -0.100153 -0.208991
0.666921 -0.121742 -0.241986
0.742701 -0.145065 -0.276649
0.820701 -0.169930 -0.312679
0.900628 -0.196315 -0.349921
0.981955 -0.223962 -0.388068
1.064183 -0.252553 -0.426817
1.147011 -0.281854 -0.465975
1.230221 -0.311643 -0.505398
1.313660 -0.341699 -0.544974
0.003069 0.004147 0.003170
0.003496 0.003744 0.002542
0.004881 0.004164 0.002688
0.007206 0.005242 0.003395
0.010277 0.006616 0.004253
0.014093 0.008085 0.004999
0.018813 0.009555 0.005471
0.024689 0.010979 0.005546
0.031980 0.012283 0.005069
0.040976 0.013405 0.003899
0.051823 0.014293 0.001950
0.065458 0.014763 -0.001210
0.083246 0.014551 -0.006210
0.104883 0.013635 -0.012959
0.131168 0.011747 -0.021879
0.162487 0.008709 -0.033204
0.198374 0.004487 -0.046782
0.239981 -0.001342 -0.063231
0.286584 -0.008697 -0.082254
0.337679 -0.017593 -0.103664
0.394187 -0.028488 -0.127979
0.456068 -0.041585 -0.155232
0.522665 -0.056854 -0.185124
0.592918 -0.074013 -0.217115
0.666377 -0.093017 -0.250967
0.742646 -0.113780 -0.286458
0.821165 -0.136135 -0.323273
0.901629 -0.160088 -0.361233
0.983497 -0.185386 -0.400025
1.066259 -0.211707 -0.439352
1.149612 -0.238809 -0.479031
1.233340 -0.266446 -0.518931
1.317293 -0.294378 -0.558961
0.004567 0.006373 0.004652
0.004883 0.005898 0.003895
0.005891 0.005994 0.003647
0.007729 0.006667 0.003852
0.010443 0.007812 0.004337
0.014033 0.009242 0.004842
0.018586 0.010809 0.005133
0.024312 0.012446 0.005050
0.031465 0.014092 0.004434
0.040311 0.015678 0.003121
0.051005 0.017151 0.001017
0.064494 0.018366 -0.002336
0.082148 0.019112 -0.007607
0.103681 0.019344 -0.014701
0.129874 0.018813 -0.024045
0.161107 0.017346 -0.035863
0.196930 0.014873 -0.049992
0.238523 0.010997 -0.067063
0.285165 0.005758 -0.086773
0.336351 -0.000893 -0.108922
0.393022 -0.009410 -0.134029
0.455141 -0.020027 -0.162113
0.522041 -0.032756 -0.192852
0.592646 -0.047355 -0.225686
0.666495 -0.063809 -0.260359
0.743184 -0.082054 -0.296634
0.822141 -0.101942 -0.334179
0.903046 -0.123507 -0.372791
0.985347 -0.146502 -0.412151
1.068527 -0.170601 -0.451968
1.152281 -0.195549 -0.492070
1.236396 -0.221082 -0.532342
1.320733 -0.246936 -0.572717
0.006047 0.008841 0.006118
0.006344 0.008374 0.005294
0.007160 0.008317 0.004803
0.008702 0.008765 0.004657
0.011087 0.009696 0.004751
0.014405 0.011030 0.004912
0.018770 0.012660 0.004930
0.024355 0.014498 0.004603
0.031394 0.016477 0.003748
0.040154 0.018536 0.002191
0.050779 0.020616 -0.000174
0.064205 0.022603 -0.003833
0.081798 0.024351 -0.009476
0.103266 0.025781 -0.017000
0.129404 0.026656 -0.026836
0.160603 0.026806 -0.039212
0.196462 0.026112 -0.053978
0.238167 0.024201 -0.071772
0.284870 0.021098 -0.092215
0.336123 0.016707 -0.115120
0.392954 0.010564 -0.141039
0.455300 0.002407 -0.169958
0.522466 -0.007815 -0.201520
0.593364 -0.019896 -0.235149
0.667524 -0.033849 -0.270570
0.744532 -0.049630 -0.307533
0.823805 -0.067113 -0.345693
0.905009 -0.086353 -0.384822
0.987585 -0.107113 -0.424599
1.071011 -0.129057 -0.464743
1.154986 -0.151919 -0.505096
1.239302 -0.175418 -0.545565
1.323831 -0.199263 -0.586106
0.007443 0.011597 0.007503
0.007780 0.011179 0.006629
0.008554 0.011107 0.006001
0.009936 0.011453 0.005588
0.012112 0.012279 0.005351
0.015208 0.013557 0.005146
0.019392 0.015250 0.004811
0.024852 0.017294 0.004148
0.031811 0.019626 0.002953
0.040538 0.022188 0.001038
0.051172 0.024917 -0.001710
0.064692 0.027730 -0.005821
0.082384 0.030540 -0.011981
0.103759 0.033230 -0.019985
0.129820 0.035574 -0.030362
0.161072 0.037393 -0.043399
0.197001 0.038536 -0.058872
0.238782 0.038647 -0.077414
0.285677 0.037690 -0.098688
0.337171 0.035544 -0.122462
0.394221 0.031756 -0.149236
0.456785 0.026031 -0.178982
0.524176 0.018274 -0.211330
0.595295 0.008657 -0.245689
0.669664 -0.002861 -0.281767
0.746862 -0.016251 -0.319299
0.826297 -0.031405 -0.357930
0.907621 -0.048405 -0.397409
0.990270 -0.067017 -0.437415
1.073725 -0.086896 -0.477685
1.157691 -0.107765 -0.518076
1.241970 -0.129321 -0.558519
1.326448 -0.151251 -0.599000
0.008717 0.014729 0.008770
0.009169 0.014420 0.007866
0.009969 0.014385 0.007109
0.011314 0.014737 0.006486
0.013390 0.015557 0.005947
0.016370 0.016873 0.005386
0.020443 0.018692 0.004659
0.025818 0.020986 0.003580
0.032733 0.023723 0.001964
0.041433 0.026844 -0.000393
0.052056 0.030285 -0.003602
0.065536 0.033999 -0.008192
0.083243 0.037949 -0.014916
0.104886 0.041981 -0.023652
0.131270 0.045868 -0.034838
0.162774 0.049425 -0.048697
0.198934 0.052455 -0.065014
0.240944 0.054613 -0.084428
0.288066 0.055828 -0.106591
0.339784 0.055941 -0.131252
0.397050 0.054495 -0.158888
0.459809 0.051165 -0.189443
0.527366 0.045815 -0.222520
0.598615 0.038592 -0.257522
0.673070 0.029428 -0.294135
0.750304 0.018337 -0.332086
0.829719 0.005411 -0.371013
0.910951 -0.009454 -0.410637
0.993438 -0.026028 -0.450646
1.076670 -0.043954 -0.490797
1.160360 -0.062942 -0.530970
1.244327 -0.082670 -0.571122
1.328474 -0.102798 -0.611272
0.009841 0.018357 0.009892
0.010446 0.018180 0.008927
0.011361 0.018257 0.008057
0.012765 0.018701 0.007235
0.014849 0.019613 0.006407
0.017818 0.021071 0.005483
0.021878 0.023109 0.004323
0.027269 0.025748 0.002765
0.034234 0.028969 0.000615
0.043032 0.032737 -0.002320
0.053798 0.036983 -0.006153
0.067469 0.041694 -0.011426
0.085416 0.046885 -0.018918
0.107337 0.052360 -0.028482
0.134024 0.057882 -0.040550
0.165848 0.063256 -0.055338
0.202330 0.068235 -0.072610
0.244653 0.072482 -0.092991
0.292072 0.075890 -0.116116
0.344062 0.078266 -0.141709
0.401556 0.079142 -0.170218
0.464484 0.078160 -0.201551
0.532139 0.075152 -0.235285
0.603417 0.070237 -0.270820
0.677821 0.063330 -0.307826
0.754921 0.054426 -0.346021
0.834117 0.043607 -0.385036
0.915029 0.030745 -0.424571
0.997100 0.016070 -0.464325
1.079837 -0.000047 -0.504082
1.162967 -0.017301 -0.543749
1.246329 -0.035349 -0.583315
1.329846 -0.053826 -0.622834
0.010796 0.022626 0.010850
0.011567 0.022603 0.009800
0.012617 0.022829 0.008809
0.014100 0.023418 0.007805
0.016216 0.024504 0.006740
0.019153 0.026170 0.005511
0.023142 0.028493 0.003989
0.028436 0.031519 0.002010
0.035294 0.035269 -0.000596
0.043868 0.039696 -0.003965
0.054610 0.044802 -0.008385
0.068936 0.050708 -0.014695
0.087649 0.057367 -0.023358
0.110231 0.064481 -0.034085
0.137581 0.071813 -0.047349
0.170025 0.079141 -0.063331
0.207076 0.086172 -0.081769
0.249898 0.092566 -0.103269
0.297751 0.098192 -0.127458
0.350108 0.102824 -0.154047
0.407876 0.105983 -0.183440
0.470966 0.107281 -0.215509
0.538658 0.106522 -0.249811
0.609859 0.103810 -0.285749
0.684064 0.099038 -0.322979
0.760841 0.092191 -0.361211
0.839592 0.083340 -0.400078
0.919926 0.072334 -0.439258
1.001301 0.059406 -0.478470
1.083248 0.044939 -0.517533
1.165514 0.029257 -0.556382
1.247961 0.012724 -0.595043
1.330539 -0.004268 -0.633612
0.011510 0.027646 0.011576
0.012537 0.027845 0.010385
0.013821 0.028295 0.009208
0.015532 0.029143 0.007963
0.017851 0.030520 0.006561
0.020992 0.032553 0.004906
0.025193 0.035337 0.002854
0.030735 0.038952 0.000245
0.037887 0.043435 -0.003097
0.046827 0.048757 -0.007292
0.058009 0.054933 -0.012628
0.072846 0.062144 -0.019954
0.092097 0.070346 -0.029732
0.115191 0.079165 -0.041616
0.143037 0.088359 -0.056068
0.175997 0.097690 -0.073267
0.213553 0.106816 -0.092908
0.256828 0.115386 -0.115550
0.305072 0.123240 -0.140812
0.357746 0.130121 -0.168381
0.415722 0.135525 -0.198610
0.478885 0.139035 -0.231329
0.546508 0.140424 -0.266071
0.617510 0.139786 -0.302254
0.691377 0.137000 -0.339518
0.767674 0.132040 -0.377569
0.845806 0.124971 -0.416045
0.925366 0.115625 -0.454601
1.005824 0.104241 -0.492979
1.086740 0.091224 -0.531041
1.167883 0.076913 -0.568755
1.249143 0.061694 -0.606187
1.330500 0.045988 -0.643473
0.011944 0.033566 0.012030
0.013282 0.034059 0.010636
0.014868 0.034818 0.009215
0.016875 0.036015 0.007661
0.019493 0.037811 0.005868
0.022942 0.040351 0.003713
0.027477 0.043759 0.001047
0.033391 0.048137 -0.002303
0.040966 0.053541 -0.006507
0.050372 0.059942 -0.011669
0.062068 0.067364 -0.018073
0.077477 0.076042 -0.026584
0.097337 0.085927 -0.037629
0.121065 0.096582 -0.050814
0.149567 0.107748 -0.066586
0.183188 0.119165 -0.085114
0.221379 0.130443 -0.106053
0.265221 0.141210 -0.129915
0.313954 0.151281 -0.156300
0.367018 0.160370 -0.184865
0.425233 0.167947 -0.215897
0.488454 0.173562 -0.249178
0.555942 0.176967 -0.284222
0.626634 0.178256 -0.320468
0.700012 0.177293 -0.357545
0.775639 0.174048 -0.395159
0.852929 0.168583 -0.432957
0.931463 0.160713 -0.470577
1.010731 0.150688 -0.507791
1.090332 0.138931 -0.544510
1.170062 0.125801 -0.580741
1.249841 0.111707 -0.616591
1.329684 0.097096 -0.652240
0.012051 0.040529 0.012167
0.013754 0.041410 0.010488
0.015703 0.042582 0.008746
0.018078 0.044251 0.006807
0.021073 0.046606 0.004543
0.024910 0.049810 0.001810
0.029852 0.054011 -0.001551
0.036203 0.059331 -0.005716
0.044255 0.065841 -0.010859
0.054195 0.073507 -0.017076
0.066479 0.082343 -0.024637
0.082548 0.092650 -0.034429
0.103186 0.104397 -0.046908
0.127777 0.117067 -0.061633
0.157157 0.130355 -0.078972
0.191604 0.143964 -0.099018
0.230541 0.157454 -0.121383
0.274750 0.170496 -0.146409
0.323677 0.182840 -0.173783
0.377471 0.194017 -0.203457
0.436177 0.203623 -0.235331
0.499403 0.211226 -0.269049
0.566671 0.216503 -0.304225
0.636942 0.219554 -0.340327
0.709691 0.220234 -0.376979
0.784484 0.218509 -0.413885
0.860744 0.214444 -0.450711
0.938041 0.207839 -0.487081
1.015894 0.198957 -0.522800
1.093941 0.188244 -0.557836
1.172012 0.176080 -0.592237
1.250062 0.162898 -0.626156
1.328138 0.149168 -0.659817
0.011775 0.048661 0.011935
0.013907 0.050059 0.009877
0.016287 0.051780 0.007717
0.019105 0.054066 0.005290
0.022565 0.057135 0.002442
0.026899 0.061177 -0.000993
0.032387 0.066367 -0.005189
0.039332 0.072837 -0.010337
0.048030 0.080663 -0.016605
0.058656 0.089801 -0.024068
0.071674 0.100287 -0.032993
0.088552 0.112448 -0.044281
0.110063 0.126233 -0.058354
0.135574 0.141062 -0.074720
0.165871 0.156584 -0.093684
0.201182 0.172457 -0.115286
0.240903 0.188201 -0.139096
0.285778 0.203456 -0.165405
0.335249 0.217962 -0.193885
0.389423 0.231219 -0.224430
0.448311 0.242799 -0.256897
0.511490 0.252247 -0.290887
0.578459 0.259227 -0.325989
0.648206 0.263853 -0.361711
0.720203 0.265977 -0.397670
0.794015 0.265567 -0.433577
0.869082 0.262693 -0.469116
0.944963 0.257145 -0.503901
1.021209 0.249204 -0.537782
1.097504 0.239343 -0.570783
1.173713 0.227959 -0.602998
1.249828 0.215508 -0.634628
1.325935 0.202483 -0.665943
0.011077 0.058081 0.011293
0.013687 0.060156 0.008738
0.016551 0.062592 0.006042
0.019867 0.065671 0.003010
0.023850 0.069643 -0.000542
0.028742 0.074728 -0.004799
0.034829 0.081117 -0.009956
0.042430 0.088960 -0.016218
0.051846 0.098334 -0.023759
0.063250 0.109184 -0.032646
0.077104 0.121536 -0.043124
0.094882 0.135741 -0.056074
0.117347 0.151726 -0.071870
0.143838 0.168839 -0.089953
0.175113 0.186680 -0.110584
0.211368 0.204871 -0.133779
0.251957 0.222891 -0.159062
0.297574 0.240346 -0.186652
0.347648 0.256965 -0.216203
0.402237 0.272215 -0.247542
0.461310 0.285644 -0.280474
0.524414 0.296780 -0.314564
0.591030 0.305277 -0.349384
0.660179 0.311276 -0.384485
0.731332 0.314627 -0.419491
0.804058 0.315302 -0.454120
0.877818 0.313383 -0.488088
0.952163 0.308655 -0.521002
1.026681 0.301417 -0.552761
1.101105 0.292170 -0.583449
1.175337 0.281333 -0.613212
1.249407 0.269382 -0.642290
1.323435 0.256833 -0.671002
0.009913 0.068875 0.010203
0.013052 0.071831 0.007010
0.016453 0.075191 0.003633
0.020326 0.079278 -0.000156
0.024896 0.084380 -0.004570
0.030412 0.090737 -0.009818
0.037166 0.098558 -0.016110
0.045480 0.108001 -0.023649
0.055659 0.119142 -0.032601
0.067880 0.131909 -0.043071
0.082621 0.146327 -0.055255
0.101397 0.162778 -0.069889
0.124963 0.181159 -0.087487
0.152588 0.200727 -0.107469
0.184951 0.220998 -0.129918
0.222208 0.241553 -0.154769
0.263726 0.261840 -0.181529
0.310130 0.281432 -0.210339
0.360754 0.300072 -0.240819
0.415700 0.317187 -0.272776
0.474925 0.332302 -0.305978
0.537911 0.344937 -0.339945
0.604120 0.354746 -0.374232
0.672611 0.361897 -0.408448
0.742850 0.366249 -0.442222
0.814418 0.367781 -0.475290
0.886793 0.366589 -0.507399
0.959527 0.362456 -0.538161
1.032248 0.355704 -0.567525
1.104738 0.346862 -0.595644
1.176938 0.336369 -0.622703
1.248913 0.324721 -0.648989
1.320817 0.312456 -0.674859
0.008256 0.081097 0.008637
0.011964 0.085185 0.004641
0.015946 0.089722 0.000421
0.020427 0.095080 -0.004290
0.025648 0.101582 -0.009731
0.031873 0.109499 -0.016134
0.039407 0.119056 -0.023729
0.048585 0.130423 -0.032731
0.059717 0.143666 -0.043306
0.073057 0.158736 -0.055551
0.088986 0.175586 -0.069623
0.108740 0.194431 -0.086202
0.133269 0.215244 -0.105732
0.161888 0.237266 -0.127575
0.195202 0.259927 -0.151754
0.233375 0.282789 -0.178174
0.275705 0.305283 -0.206297
0.322786 0.326932 -0.236192
0.374029 0.347469 -0.267508
0.429385 0.366298 -0.299947
0.488742 0.382924 -0.333219
0.551583 0.396860 -0.366828
0.617355 0.407760 -0.400320
0.685153 0.415835 -0.433374
0.754448 0.420953 -0.465630
0.824828 0.423106 -0.496848
0.895797 0.422412 -0.526816
0.966909 0.418657 -0.555155
1.037833 0.412189 -0.581872
1.108401 0.403566 -0.607181
1.178592 0.393245 -0.631313
1.248502 0.381741 -0.654593
1.318320 0.369604 -0.677416
0.006086 0.094763 0.006579
0.010377 0.100258 0.001604
0.014949 0.106245 -0.003637
0.020042 0.113139 -0.009438
0.025906 0.121294 -0.016070
0.032815 0.131006 -0.023783
0.041080 0.142514 -0.032816
0.051041 0.155986 -0.043390
0.063009 0.171479 -0.055661
0.077147 0.188872 -0.069641
0.093940 0.208146 -0.085536
0.114910 0.229651 -0.104191
0.140721 0.253175 -0.125818
0.170547 0.277846 -0.149656
0.205010 0.303053 -0.175673
0.244254 0.328315 -0.203715
0.287541 0.353044 -0.233204
0.335403 0.376705 -0.264114
0.387249 0.399045 -0.296105
0.442987 0.419446 -0.328820
0.502470 0.437402 -0.361928
0.565158 0.452429 -0.394920
0.630482 0.464196 -0.427342
0.697583 0.472966 -0.458950
0.765937 0.478627 -0.489408
0.835142 0.481186 -0.518504
0.904731 0.480789 -0.546072
0.974265 0.477232 -0.571752
1.043454 0.470889 -0.595607
1.112180 0.462345 -0.617912
1.180454 0.452074 -0.638940
1.248407 0.440601 -0.659053
1.316245 0.428484 -0.678675
0.003396 0.109839 0.004023
0.008275 0.117089 -0.002149
0.013446 0.124871 -0.008627
0.019162 0.133646 -0.015740
0.025684 0.143800 -0.023786
0.033296 0.155647 -0.033031
0.042315 0.169434 -0.043724
0.053082 0.185324 -0.056081
0.065911 0.203359 -0.070250
0.080961 0.223392 -0.086221
0.098706 0.245374 -0.104166
0.120685 0.269616 -0.124881
0.147607 0.295877 -0.148549
0.178622 0.323236 -0.174363
0.214259 0.350976 -0.202155
0.254568 0.378551 -0.231673
0.298792 0.405379 -0.262333
0.347431 0.430878 -0.294032
0.399890 0.454822 -0.326444
0.456031 0.476574 -0.359164
0.515669 0.495621 -0.391821
0.578236 0.511495 -0.423898
0.643154 0.523890 -0.454956
0.709604 0.533126 -0.484831
0.777072 0.539117 -0.513222
0.845174 0.541893 -0.539946
0.913472 0.541626 -0.564891
0.981540 0.538129 -0.587718
1.049130 0.531801 -0.608549
1.116171 0.523248 -0.627712
1.182706 0.512957 -0.645519
1.248883 0.501456 -0.662360
1.314933 0.489305 -0.678687
0.000195 0.126250 0.000977
0.005649 0.135637 -0.006624
0.011406 0.145590 -0.014572
0.017740 0.156619 -0.023232
0.024929 0.169139 -0.032927
0.033270 0.183484 -0.043947
0.043093 0.199910 -0.056548
0.054747 0.218575 -0.070948
0.068540 0.239499 -0.087277
0.084710 0.262552 -0.105561
0.103639 0.287593 -0.125874
0.126592 0.314731 -0.148768
0.154498 0.343743 -0.174442
0.186563 0.373646 -0.201985
0.223191 0.403702 -0.231214
0.264417 0.433402 -0.261926
0.309468 0.462151 -0.293496
0.358799 0.489307 -0.325717
0.411809 0.514664 -0.358277
0.468310 0.537565 -0.390714
0.528080 0.557488 -0.422620
0.590529 0.573989 -0.453483
0.655070 0.586790 -0.482882
0.720926 0.596276 -0.510745
0.787596 0.602393 -0.536808
0.854712 0.605199 -0.560928
0.921868 0.604902 -0.583048
0.988655 0.601340 -0.602862
1.054863 0.594940 -0.620543
1.120463 0.586329 -0.636479
1.185517 0.575991 -0.651004
1.250194 0.564457 -0.664536
1.314766 0.552300 -0.677528
-0.003500 0.143878 -0.002539
0.002470 0.155825 -0.011815
0.008748 0.168362 -0.021475
0.015620 0.182038 -0.031911
0.023375 0.197288 -0.043466
0.032317 0.214459 -0.056438
0.042784 0.233798 -0.071082
0.055129 0.255447 -0.087599
0.069668 0.279410 -0.106096
0.086556 0.305468 -0.126507
0.106265 0.333457 -0.148915
0.130388 0.363574 -0.173960
0.159563 0.395435 -0.201645
0.192720 0.428034 -0.231043
0.230414 0.460536 -0.261842
0.272689 0.492356 -0.293718
0.318690 0.522938 -0.326074
0.368813 0.551594 -0.358622
0.422454 0.578163 -0.391085
0.479387 0.601989 -0.422966
0.539360 0.622556 -0.453836
0.601772 0.639459 -0.483203
0.666033 0.652461 -0.510676
0.731414 0.662017 -0.536286
0.797430 0.668114 -0.559811
0.863733 0.670837 -0.581154
0.929951 0.670432 -0.600312
0.995694 0.666765 -0.617018
1.060792 0.660287 -0.631495
1.125242 0.651628 -0.644172
1.189126 0.641278 -0.655412
1.252659 0.629779 -0.665634
1.316099 0.617678 -0.675302
-0.007654 0.162573 -0.006492
-0.001238 0.177521 -0.017703
0.005491 0.193072 -0.029329
0.012837 0.209807 -0.041786
0.021101 0.228179 -0.055433
0.030602 0.248535 -0.070574
0.041685 0.271121 -0.087464
0.054715 0.296059 -0.106289
0.070012 0.323320 -0.127134
0.087725 0.352661 -0.149903
0.108323 0.383894 -0.174628
0.133357 0.417062 -0.201802
0.163491 0.451706 -0.231352
0.197756 0.486892 -0.262425
0.236603 0.521621 -0.294522
0.280256 0.555100 -0.327208
0.327503 0.587067 -0.359990
0.377975 0.617226 -0.392585
0.431795 0.645023 -0.424666
0.489085 0.669578 -0.455663
0.549300 0.690554 -0.485170
0.611746 0.707643 -0.512737
0.675839 0.720659 -0.538018
0.740889 0.730132 -0.561143
0.806433 0.736090 -0.581945
0.872144 0.738653 -0.600369
0.937681 0.738102 -0.616469
1.002679 0.734335 -0.630018
1.066992 0.727814 -0.641286
1.130644 0.719174 -0.650733
1.193766 0.708923 -0.658733
1.256550 0.697571 -0.665706
1.319271 0.685649 -0.672130
-0.012229 0.182153 -0.010844
-0.005468 0.200575 -0.024259
0.001610 0.219600 -0.038119
0.009327 0.239835 -0.052856
0.018003 0.261742 -0.068840
0.027968 0.285668 -0.086376
0.039584 0.311841 -0.105704
0.053223 0.340358 -0.126991
0.069213 0.371160 -0.150291
0.087697 0.403973 -0.175478
0.109135 0.438560 -0.202528
0.135070 0.474832 -0.231795
0.166122 0.512258 -0.263110
0.201204 0.549986 -0.295653
0.240589 0.587090 -0.328852
0.284774 0.622505 -0.362140
0.333051 0.655609 -0.394987
0.384703 0.686508 -0.427230
0.439375 0.714930 -0.458568
0.497172 0.739891 -0.488342
0.557678 0.761032 -0.516167
0.620245 0.778094 -0.541643
0.684298 0.790953 -0.564486
0.749188 0.800209 -0.584925
0.814473 0.805945 -0.602850
0.879848 0.808313 -0.618254
0.945006 0.807629 -0.631248
1.009599 0.803824 -0.641648
1.073506 0.797367 -0.649759
1.136800 0.788914 -0.656059
1.199596 0.778941 -0.660924
1.262103 0.767940 -0.664794
1.324559 0.756402 -0.668088
-0.017176 0.202428 -0.015547
-0.010201 0.224799 -0.031438
-0.002909 0.247758 -0.047797
0.005042 0.271932 -0.065070
0.013986 0.297785 -0.083630
0.024268 0.325649 -0.103777
0.036257 0.355733 -0.125732
0.050335 0.388101 -0.149630
0.066833 0.422654 -0.175486
0.085896 0.459095 -0.203139
0.107997 0.497127 -0.232502
0.134756 0.536514 -0.263784
0.166750 0.576639 -0.296709
0.203027 0.616552 -0.330426
0.243725 0.655419 -0.364366
0.288432 0.692528 -0.397968
0.337142 0.726843 -0.430576
0.389519 0.758447 -0.462100
0.444884 0.787285 -0.492310
0.503231 0.812371 -0.520488
0.564124 0.833406 -0.546283
0.626934 0.850211 -0.569364
0.691108 0.862735 -0.589516
0.756046 0.871697 -0.607110
0.821370 0.877382 -0.622229
0.886744 0.879732 -0.634697
0.951808 0.878729 -0.644373
1.016349 0.874848 -0.651550
1.080321 0.868684 -0.656639
1.143747 0.860676 -0.659975
1.206729 0.851269 -0.661913
1.269552 0.840958 -0.663000
1.332271 0.830117 -0.663369
-0.022445 0.223200 -0.020552
-0.015401 0.250027 -0.039201
-0.008036 0.277410 -0.058335
0.000024 0.305989 -0.078401
0.009141 0.336216 -0.099772
0.019686 0.368410 -0.122736
0.032056 0.402751 -0.147494
0.046649 0.439268 -0.174150
0.063796 0.477818 -0.202677
0.083615 0.518069 -0.232872
0.106507 0.559645 -0.264562
0.133944 0.602103 -0.297722
0.166516 0.644739 -0.331979
0.203457 0.686708 -0.366586
0.244691 0.727188 -0.400937
0.289936 0.765472 -0.434454
0.339586 0.800520 -0.466435
0.392721 0.832613 -0.496915
0.448638 0.861693 -0.525696
0.507517 0.886723 -0.551991
0.568876 0.907500 -0.575509
0.632076 0.923940 -0.596001
0.696573 0.936077 -0.613331
0.761800 0.944700 -0.627963
0.827399 0.950136 -0.640033
0.893058 0.952372 -0.649428
0.958440 0.951434 -0.656052
1.023386 0.947838 -0.660225
1.087842 0.942148 -0.662379
1.151827 0.934784 -0.662837
1.215464 0.926172 -0.661982
1.278931 0.916726 -0.660200
1.342565 0.906910 -0.658038
-0.027984 0.244284 -0.025812
-0.021084 0.276065 -0.047492
-0.013869 0.308348 -0.069660
-0.005943 0.341769 -0.092755
0.003069 0.376756 -0.117131
0.013552 0.413595 -0.143049
0.025907 0.452426 -0.170678
0.040540 0.493235 -0.200075
0.057793 0.535842 -0.231172
0.077796 0.579897 -0.263745
0.101010 0.624975 -0.297566
0.129025 0.670447 -0.332446
0.162439 0.715531 -0.367914
0.200380 0.759462 -0.403257
0.242643 0.801431 -0.437832
0.288822 0.840810 -0.471085
0.339320 0.876473 -0.502207
0.393360 0.908701 -0.531282
0.450124 0.937656 -0.558266
0.509717 0.962371 -0.582372
0.571700 0.982695 -0.603359
0.635466 0.998645 -0.621067
0.700502 1.010339 -0.635438
0.766271 1.018623 -0.647025
0.832436 1.023863 -0.656029
0.898707 1.026092 -0.662376
0.964811 1.025418 -0.666025
1.030591 1.022341 -0.667333
1.095988 1.017397 -0.666713
1.161028 1.010986 -0.664499
1.225834 1.003505 -0.661071
1.290613 0.995347 -0.656861
1.355432 0.986783 -0.652005
-0.033746 0.265514 -0.031280
-0.027161 0.302668 -0.056225
-0.020262 0.340261 -0.081658
-0.012627 0.378917 -0.107998
-0.003856 0.419029 -0.135576
0.006452 0.460844 -0.164623
0.018721 0.504453 -0.195263
0.033375 0.549791 -0.227505
0.050775 0.596626 -0.261232
0.071072 0.644585 -0.296190
0.094728 0.693177 -0.332083
0.123376 0.741552 -0.368511
0.157558 0.788857 -0.404899
0.196178 0.834496 -0.440620
0.239293 0.877649 -0.475017
0.286441 0.917750 -0.507575
0.337540 0.953681 -0.537429
0.392200 0.985840 -0.564776
0.449707 1.014512 -0.589687
0.510016 1.038756 -0.611349
0.572704 1.058504 -0.629592
0.637182 1.073893 -0.644357
0.702958 1.085139 -0.655676
0.769513 1.093129 -0.664184
0.836529 1.098269 -0.670130
0.903771 1.100673 -0.673483
0.970973 1.100471 -0.674246
1.037936 1.098100 -0.672680
