Project4/LushGreen.cube
TITLE "Lush Green"
# Created by Photon 3D ColorGrading
DOMAIN_MIN 0 0 0
DOMAIN_MAX 1 1 1
LUT_3D_SIZE 5
0.000016 0.000046 0.000153
0.033806 0.009770 0.006488
0.203325 -0.014964 -0.041640
0.667839 -0.150253 -0.233311
1.310003 -0.389015 -0.530891
0.010796 0.022626 0.010850
0.035294 0.035269 -0.000596
0.207076 0.086172 -0.081769
0.684064 0.099038 -0.322979
1.330539 -0.004268 -0.633612
0.006086 0.094763 0.006579
0.063009 0.171479 -0.055661
0.287541 0.353044 -0.233204
0.765937 0.478627 -0.489408
1.316245 0.428484 -0.678675
-0.027984 0.244284 -0.025812
0.057793 0.535842 -0.231172
0.339320 0.876473 -0.502207
0.832436 1.023863 -0.656029
1.355432 0.986783 -0.652005
-0.077719 0.410970 -0.073008
-0.032226 1.065283 -0.492972
0.278098 1.503483 -0.757365
0.846978 1.624997 -0.722988
1.454875 1.621448 -0.505380
0.003580 0.003753 0.044001
0.092780 -0.018644 0.056813
0.339646 -0.082922 0.071596
0.756307 -0.206477 0.018601
1.229296 -0.355403 -0.099198
-0.010163 0.058630 0.055408
0.134583 0.131363 0.109670
0.412063 0.126506 0.062956
0.847784 0.067802 -0.057435
1.233126 0.040537 -0.106049
-0.073707 0.252098 0.078883
0.079488 0.426376 0.050042
0.395637 0.476960 -0.049786
0.858215 0.454244 -0.167041
1.261814 0.388055 -0.166714
-0.234751 0.634049 0.051435
-0.046702 0.882539 -0.084468
0.324442 0.974218 -0.204946
0.830614 0.958460 -0.251379
1.267975 0.850874 -0.149549
-0.441401 1.078541 -0.044948
-0.113982 1.273970 -0.147373
0.239169 1.395797 -0.245183
0.750030 1.399470 -0.187386
1.308194 1.407161 -0.057121
-0.033908 -0.032694 0.211761
0.122529 -0.059882 0.254342
0.393026 -0.120032 0.313213
0.751145 -0.201830 0.331700
1.132585 -0.283803 0.301555
-0.057698 0.108026 0.244765
0.149301 0.143335 0.354216
0.451855 0.116038 0.357136
0.845687 0.050293 0.314127
1.177356 0.043877 0.281756
-0.134725 0.366274 0.297032
0.084513 0.456785 0.340187
0.429196 0.461163 0.327067
0.798486 0.423749 0.303983
1.220217 0.353204 0.241017
-0.282480 0.758614 0.303433
-0.040205 0.880734 0.273164
0.363309 0.836404 0.282809
0.779068 0.824663 0.267666
1.202091 0.766027 0.257670
-0.450115 1.186891 0.244236
-0.096912 1.234976 0.222425
0.249298 1.264935 0.199565
0.704969 1.240795 0.246962
1.186519 1.233662 0.334477
-0.119015 -0.116267 0.527252
0.130346 -0.127768 0.581079
0.414251 -0.150875 0.631506
0.725423 -0.183955 0.651096
1.054714 -0.215433 0.644269
-0.130113 0.129638 0.574130
0.124692 0.117946 0.690796
0.430764 0.088522 0.710673
0.798806 0.037076 0.710063
1.103579 0.070737 0.655648
-0.166738 0.413334 0.619249
0.080530 0.423724 0.702312
0.429276 0.429326 0.684717
0.782752 0.389514 0.702234
1.136898 0.351612 0.655483
-0.232876 0.733732 0.628210
0.002682 0.794192 0.683428
0.369309 0.778726 0.689411
0.750758 0.756446 0.688462
1.110858 0.708384 0.654451
-0.302800 1.066113 0.598182
-0.000579 1.108951 0.619480
0.298519 1.136812 0.633921
0.680964 1.111910 0.649599
1.086877 1.103249 0.677613
-0.200434 -0.196953 0.853093
0.107187 -0.183897 0.912011
0.408081 -0.176706 0.954125
0.702865 -0.174507 0.967550
0.995422 -0.165728 0.953211
-0.185807 0.110428 0.910187
0.174181 0.176724 0.936877
0.418810 0.130434 1.009369
0.722907 0.109748 1.024351
1.030384 0.109433 0.998439
-0.178578 0.408300 0.948670
0.127399 0.420857 1.006484
0.393341 0.397245 1.072902
0.723953 0.377396 1.066542
1.058935 0.361679 1.036102
-0.178139 0.694361 0.952697
0.103584 0.719426 1.016031
0.369970 0.724059 1.063367
0.696056 0.698945 1.049064
1.037170 0.672273 1.025762
-0.174444 0.972030 0.923955
0.096299 1.017974 0.980974
0.348030 1.052957 1.026171
0.665127 1.034326 1.020921
0.999991 0.999991 0.999990
