Project4/LushGreen.cube
TITLE "Lush Green"
# Created by Photon 3D ColorGrading
DOMAIN_MIN 0 0 0
DOMAIN_MAX 1 1 1
LUT_3D_SIZE 9
0.000016 0.000046 0.000153
0.011305 0.005908 0.005208
0.033806 0.009770 0.006488
0.086321 0.006677 -0.003776
0.203325 -0.014964 -0.041640
0.398495 -0.065164 -0.117232
0.667839 -0.150253 -0.233311
0.980626 -0.262430 -0.376246
1.310003 -0.389015 -0.530891
0.006047 0.008841 0.006118
0.011087 0.009696 0.004751
0.031394 0.016477 0.003748
0.081798 0.024351 -0.009476
0.196462 0.026112 -0.053978
0.392954 0.010564 -0.141039
0.667524 -0.033849 -0.270570
0.987585 -0.107113 -0.424599
1.323831 -0.199263 -0.586106
0.010796 0.022626 0.010850
0.016216 0.024504 0.006740
0.035294 0.035269 -0.000596
0.087649 0.057367 -0.023358
0.207076 0.086172 -0.081769
0.407876 0.105983 -0.183440
0.684064 0.099038 -0.322979
1.001301 0.059406 -0.478470
1.330539 -0.004268 -0.633612
0.011775 0.048661 0.011935
0.022565 0.057135 0.002442
0.048030 0.080663 -0.016605
0.110063 0.126233 -0.058354
0.240903 0.188201 -0.139096
0.448311 0.242799 -0.256897
0.720203 0.265977 -0.397670
1.021209 0.249204 -0.537782
1.325935 0.202483 -0.665943
0.006086 0.094763 0.006579
0.025906 0.121294 -0.016070
0.063009 0.171479 -0.055661
0.140721 0.253175 -0.125818
0.287541 0.353044 -0.233204
0.502470 0.437402 -0.361928
0.765937 0.478627 -0.489408
1.043454 0.470889 -0.595607
1.316245 0.428484 -0.678675
-0.007654 0.162573 -0.006492
0.021101 0.228179 -0.055433
0.070012 0.323320 -0.127134
0.163491 0.451706 -0.231352
0.327503 0.587067 -0.359990
0.549300 0.690554 -0.485170
0.806433 0.736090 -0.581945
1.066992 0.727814 -0.641286
1.319271 0.685649 -0.672130
-0.027984 0.244284 -0.025812
0.003069 0.376756 -0.117131
0.057793 0.535842 -0.231172
0.162439 0.715531 -0.367914
0.339320 0.876473 -0.502207
0.571700 0.982695 -0.603359
0.832436 1.023863 -0.656029
1.095988 1.017397 -0.666713
1.355432 0.986783 -0.652005
-0.051978 0.328870 -0.048575
-0.029881 0.553725 -0.196143
0.021215 0.791415 -0.357942
0.130827 1.019908 -0.518424
0.319279 1.190162 -0.638000
0.565143 1.286373 -0.697388
0.843937 1.323573 -0.701081
1.135334 1.333323 -0.670412
1.432381 1.335639 -0.623185
-0.077719 0.410970 -0.073008
-0.074633 0.743116 -0.283856
-0.032226 1.065283 -0.492972
0.080427 1.335111 -0.666340
0.278098 1.503483 -0.757365
0.539535 1.586167 -0.768113
0.846978 1.624997 -0.722988
1.178746 1.657563 -0.650464
1.454875 1.621448 -0.505380
0.004066 0.004107 0.014866
0.024203 -0.000546 0.015591
0.067452 -0.005760 0.019978
0.147737 -0.020762 0.019549
0.284163 -0.053673 0.002728
0.479281 -0.108126 -0.040474
0.725653 -0.185481 -0.114829
0.997143 -0.277737 -0.209851
1.277753 -0.377460 -0.314568
0.001986 0.013714 0.016006
0.043573 0.035425 0.041100
0.091634 0.040242 0.045308
0.174767 0.037038 0.035006
0.312220 0.022032 0.001805
0.508213 -0.008308 -0.059986
0.757277 -0.058469 -0.151071
1.032346 -0.124545 -0.256985
1.314534 -0.200366 -0.367094
0.000909 0.038379 0.022664
0.044064 0.074853 0.046133
0.092673 0.090578 0.040919
0.181898 0.103788 0.019554
0.326293 0.110689 -0.027510
0.527737 0.106210 -0.102872
0.779745 0.082327 -0.201953
1.054602 0.039591 -0.308423
1.334398 -0.015834 -0.412226
-0.008921 0.088500 0.029424
0.033521 0.145261 0.038837
0.087239 0.181929 0.019489
0.184821 0.215195 -0.019258
0.340365 0.244184 -0.082523
0.550762 0.261439 -0.168272
0.803046 0.256332 -0.266595
1.071094 0.227285 -0.361183
1.339557 0.181598 -0.445190
-0.035495 0.177244 0.030579
0.008829 0.258510 0.016108
0.071559 0.322418 -0.024384
0.181675 0.381553 -0.084342
0.350827 0.432904 -0.163473
0.570355 0.466582 -0.253276
0.821872 0.470459 -0.339453
1.079852 0.444907 -0.408695
1.332966 0.399491 -0.460374
-0.082423 0.307331 0.020103
-0.031815 0.417356 -0.025662
0.042027 0.512283 -0.092650
0.166260 0.600468 -0.174710
0.349781 0.672370 -0.264273
0.579114 0.715569 -0.347316
0.832050 0.720462 -0.408624
1.085249 0.693559 -0.442950
1.330911 0.646694 -0.456624
-0.146222 0.465769 -0.005083
-0.088919 0.613046 -0.086411
-0.005381 0.743053 -0.181799
0.130847 0.859958 -0.281714
0.329388 0.945377 -0.370123
0.570301 0.989887 -0.431895
0.831649 0.993516 -0.458723
1.094780 0.971468 -0.456339
1.352450 0.934312 -0.434730
-0.219168 0.634166 -0.043129
-0.158312 0.829181 -0.161382
-0.066781 0.997715 -0.283224
0.079568 1.138709 -0.392058
0.289985 1.228447 -0.464773
0.544176 1.269134 -0.493555
0.823717 1.276524 -0.482416
1.114284 1.273707 -0.447035
1.397004 1.257592 -0.388460
-0.295560 0.802573 -0.088852
-0.234411 1.051313 -0.244072
-0.136886 1.260611 -0.388009
0.017705 1.420731 -0.496992
0.238131 1.507921 -0.544271
0.506653 1.533963 -0.525658
0.788199 1.484649 -0.415990
1.080521 1.491688 -0.346189
1.379373 1.511012 -0.276204
0.003580 0.003753 0.044001
0.036157 -0.005498 0.047756
0.092780 -0.018644 0.056813
0.189441 -0.042245 0.068300
0.339646 -0.082922 0.071596
0.534201 -0.139236 0.056130
0.756307 -0.206477 0.018601
0.990674 -0.279688 -0.035543
1.229296 -0.355403 -0.099198
-0.001801 0.022341 0.046565
0.057232 0.045258 0.082987
0.122579 0.044540 0.094135
0.228164 0.034520 0.094710
0.383949 0.009657 0.077596
0.582792 -0.028843 0.040771
0.811515 -0.078635 -0.013868
1.055409 -0.136113 -0.079183
1.197310 -0.104670 -0.062074
-0.010163 0.058630 0.055408
0.050854 0.101950 0.091554
0.134583 0.131363 0.109670
0.249153 0.136819 0.097971
0.412063 0.126506 0.062956
0.615529 0.102995 0.008991
0.847784 0.067802 -0.057435
1.093564 0.024029 -0.126762
1.233126 0.040537 -0.106049
-0.030694 0.130199 0.068853
0.029446 0.201697 0.088843
0.117148 0.254365 0.091355
0.239110 0.274039 0.062715
0.411369 0.277937 0.016095
0.622607 0.267884 -0.044252
0.859365 0.243682 -0.110367
1.106347 0.208251 -0.171605
1.255341 0.202017 -0.143734
-0.073707 0.252098 0.078883
-0.012526 0.350493 0.071420
0.079488 0.426376 0.050042
0.212157 0.462510 0.005647
0.395637 0.476960 -0.049786
0.616250 0.474300 -0.110147
0.858215 0.454244 -0.167041
1.105620 0.420182 -0.211077
1.261814 0.388055 -0.166714
-0.143487 0.425509 0.075231
-0.076137 0.543919 0.036993
0.023433 0.640351 -0.010601
0.169640 0.691678 -0.069039
0.366545 0.714720 -0.127673
0.597975 0.715013 -0.180131
0.847286 0.695346 -0.217990
1.098662 0.660765 -0.237148
1.262240 0.603600 -0.170102
-0.234751 0.634049 0.051435
-0.156821 0.767841 -0.014231
-0.046702 0.882539 -0.084468
0.113913 0.945573 -0.151388
0.324442 0.974218 -0.204946
0.568500 0.975703 -0.239617
0.830614 0.958460 -0.251379
1.094816 0.929083 -0.242238
1.267975 0.850874 -0.149549
-0.336655 0.855817 0.008843
-0.245684 1.004477 -0.077754
-0.123878 1.135660 -0.163063
0.050436 1.206341 -0.229434
0.273037 1.236326 -0.268172
0.529823 1.238173 -0.277355
0.808495 1.228708 -0.259819
1.100719 1.222263 -0.224228
1.284415 1.123237 -0.105774
-0.441401 1.078541 -0.044948
-0.336381 1.242495 -0.147107
-0.113982 1.273970 -0.147373
0.034926 1.359215 -0.218866
0.239169 1.395797 -0.245183
0.482001 1.402382 -0.231838
0.750030 1.399470 -0.187386
1.028714 1.400613 -0.125572
1.308194 1.407161 -0.057121
-0.007524 -0.006974 0.105157
0.039035 -0.017532 0.115519
0.109458 -0.034428 0.132823
0.219654 -0.062657 0.155952
0.372628 -0.103538 0.175976
0.558187 -0.154200 0.182467
0.760603 -0.209526 0.170078
0.968919 -0.265990 0.142896
1.179922 -0.322487 0.107821
-0.014977 0.029104 0.112263
0.057057 0.047682 0.160768
0.139120 0.043146 0.184319
0.259765 0.026922 0.195741
0.419464 -0.001301 0.194400
0.609373 -0.039672 0.178976
0.817985 -0.084624 0.150040
1.036217 -0.132199 0.112524
1.179580 -0.107957 0.116943
-0.028415 0.083363 0.126485
0.047438 0.122179 0.180010
0.149271 0.145840 0.213840
0.280134 0.141729 0.212879
0.449557 0.124328 0.194758
0.649139 0.094591 0.162176
0.871598 0.055340 0.119335
0.995468 0.102180 0.151840
1.209437 0.038063 0.088191
-0.056371 0.174519 0.147703
0.019422 0.238712 0.185767
0.125051 0.281494 0.204880
0.271855 0.297166 0.198867
0.448349 0.286869 0.168981
0.654469 0.262499 0.126091
0.887174 0.228219 0.076952
1.023108 0.238649 0.107144
1.238993 0.188231 0.054036
-0.107177 0.315962 0.167399
-0.029519 0.402404 0.178157
0.080387 0.462933 0.175950
0.234804 0.488467 0.155882
0.419090 0.479427 0.120237
0.632084 0.459317 0.077271
0.872328 0.430916 0.032186
1.032855 0.410107 0.069119
1.248802 0.365490 0.032727
-0.183380 0.505970 0.173455
-0.098525 0.604749 0.155412
0.018101 0.678595 0.130872
0.179690 0.714981 0.096825
0.377600 0.706704 0.059664
0.602845 0.687763 0.022243
0.853225 0.663537 -0.009273
1.029682 0.614485 0.047197
1.246071 0.571767 0.030617
-0.278642 0.727602 0.158166
-0.182393 0.831578 0.117677
-0.057130 0.915952 0.075756
0.113200 0.966263 0.032230
0.325992 0.960138 -0.001186
0.567078 0.942854 -0.024957
0.833322 0.924997 -0.034342
1.023826 0.845518 0.046627
1.240693 0.804701 0.052293
-0.381710 0.960259 0.122713
-0.270874 1.066358 0.068819
-0.110372 1.134009 0.036208
0.111633 1.102250 0.051389
0.297286 1.116234 0.021432
0.518742 1.111109 0.014198
0.761087 1.096400 0.032546
1.005653 1.078662 0.072377
1.240178 1.056056 0.095696
-0.485273 1.192849 0.075343
-0.357695 1.300113 0.014913
-0.128216 1.285842 0.021885
0.033259 1.326745 -0.015423
0.235333 1.337042 -0.025636
0.469231 1.329768 -0.008573
0.723171 1.318939 0.031781
0.984095 1.313809 0.086688
1.243922 1.314364 0.146408
-0.033908 -0.032694 0.211761
0.035346 -0.043623 0.229792
0.122529 -0.059882 0.254342
0.240728 -0.085310 0.284984
0.393026 -0.120032 0.313213
0.566683 -0.159986 0.330331
0.751145 -0.201830 0.331700
0.940086 -0.243234 0.319921
1.132585 -0.283803 0.301555
-0.042434 0.029707 0.224715
0.046819 0.039054 0.280166
0.144130 0.031065 0.313603
0.271816 0.014111 0.334649
0.430434 -0.011938 0.343020
0.609232 -0.044678 0.340350
0.801760 -0.081962 0.326743
1.003888 -0.119731 0.305553
1.155331 -0.102613 0.298944
-0.057698 0.108026 0.244765
0.035507 0.130919 0.307878
0.149301 0.143335 0.354216
0.286279 0.135167 0.364410
0.451855 0.116038 0.357136
0.638394 0.087260 0.339589
0.845687 0.050293 0.314127
0.986749 0.084580 0.317306
1.177356 0.043877 0.281756
-0.086783 0.217294 0.271632
0.007791 0.257096 0.322415
0.125833 0.282807 0.356382
0.278827 0.291438 0.369217
0.453887 0.277481 0.352612
0.653284 0.247441 0.324146
0.796942 0.278786 0.340609
1.005673 0.221453 0.290398
1.209897 0.184378 0.256811
-0.134725 0.366274 0.297032
-0.037362 0.420871 0.324590
0.084513 0.456785 0.340187
0.243725 0.471219 0.341252
0.429196 0.461163 0.327067
0.630637 0.434564 0.290068
0.798486 0.423749 0.303983
1.017042 0.383999 0.262099
1.220217 0.353204 0.241017
-0.201947 0.551330 0.309848
-0.099098 0.614976 0.313673
0.027531 0.659105 0.311141
0.189006 0.682370 0.300227
0.383636 0.676489 0.275823
0.602851 0.654463 0.237707
0.797391 0.612308 0.273223
1.011338 0.580663 0.247869
1.214185 0.548839 0.240101
-0.282480 0.758614 0.303433
-0.171732 0.827166 0.289306
-0.040205 0.880734 0.273164
0.163809 0.877942 0.279792
0.363309 0.836404 0.282809
0.555940 0.836644 0.259581
0.779068 0.824663 0.267666
0.994604 0.798096 0.255439
1.202091 0.766027 0.257670
-0.367012 0.972965 0.279082
-0.246437 1.045769 0.254796
-0.105966 1.107464 0.232682
0.124029 1.051482 0.248967
0.300693 1.058106 0.230584
0.512094 1.051505 0.227856
0.743828 1.036007 0.245386
0.975546 1.020216 0.278371
1.192666 0.997331 0.292347
-0.450115 1.186891 0.244236
-0.317817 1.263710 0.215284
-0.096912 1.234976 0.222425
0.057656 1.262287 0.202096
0.249298 1.264935 0.199565
0.468747 1.254174 0.214972
0.704969 1.240795 0.246962
0.946160 1.233873 0.288929
1.186519 1.233662 0.334477
-0.073844 -0.071816 0.359629
0.021851 -0.080526 0.382713
0.130046 -0.093180 0.410535
0.258693 -0.111959 0.441882
0.407430 -0.135948 0.469675
0.569220 -0.163123 0.487626
0.738183 -0.191713 0.493280
0.911947 -0.219908 0.489032
1.090390 -0.246639 0.479896
-0.081229 0.020942 0.377869
0.026198 0.021643 0.435748
0.140622 0.011177 0.471531
0.276127 -0.003806 0.495035
0.431016 -0.023930 0.507103
0.599720 -0.049299 0.509725
0.779977 -0.078359 0.504231
0.970804 -0.106441 0.493128
1.130303 -0.094626 0.480057
-0.094198 0.124782 0.401386
0.014160 0.131361 0.467286
0.138977 0.131623 0.518496
0.282267 0.120885 0.532177
0.442952 0.103606 0.530626
0.619370 0.077270 0.521868
0.817280 0.044312 0.509684
0.984616 0.059458 0.495397
1.141122 0.055300 0.471834
-0.117713 0.249305 0.429087
-0.007933 0.265099 0.485232
0.119606 0.273707 0.526526
0.272201 0.272670 0.552662
0.439732 0.257982 0.535075
0.624429 0.225726 0.520276
0.818029 0.219965 0.507709
0.982200 0.212332 0.484152
1.172432 0.188738 0.460012
-0.154515 0.398757 0.453872
-0.043288 0.424292 0.492414
0.086341 0.438833 0.518619
0.243514 0.441090 0.528319
0.427031 0.437929 0.532321
0.617222 0.406590 0.509637
0.795541 0.391466 0.489447
0.992571 0.368277 0.469888
1.180447 0.349701 0.451382
-0.204176 0.569755 0.467201
-0.090739 0.603597 0.488187
0.039578 0.624811 0.501316
0.194946 0.631340 0.504194
0.374514 0.635941 0.500274
0.593382 0.611925 0.497550
0.790855 0.580515 0.474431
0.983419 0.555543 0.461915
1.171551 0.533531 0.450190
-0.261951 0.753206 0.465239
-0.146080 0.796048 0.473170
-0.015719 0.829991 0.477856
0.134617 0.861267 0.478761
0.356838 0.802149 0.474148
0.549322 0.804479 0.465310
0.767581 0.788753 0.476981
0.964296 0.759719 0.465673
1.156478 0.734291 0.460078
-0.321304 0.940951 0.449283
-0.201790 0.995032 0.449624
-0.069052 1.044419 0.449872
0.145451 0.996576 0.452862
0.311441 1.004079 0.445919
0.511949 0.996264 0.447784
0.728435 0.980608 0.460097
0.944965 0.968361 0.480641
1.143901 0.946654 0.481850
-0.378612 1.129160 0.425194
-0.253713 1.194534 0.420861
-0.049679 1.168350 0.425001
0.094083 1.193314 0.418789
0.272551 1.195509 0.421305
0.475709 1.184021 0.433274
0.691933 1.170355 0.453804
0.912808 1.163641 0.480396
1.134636 1.163933 0.510301
-0.119015 -0.116267 0.527252
0.002743 -0.121024 0.553419
0.130346 -0.127768 0.581079
0.267408 -0.137674 0.608659
0.414251 -0.150875 0.631506
0.567586 -0.166743 0.646026
0.725423 -0.183955 0.651096
0.887651 -0.200739 0.649546
1.054714 -0.215433 0.644269
-0.122741 0.003910 0.549582
0.002483 -0.000054 0.605635
0.132000 -0.009923 0.639385
0.273246 -0.021369 0.662815
0.426189 -0.036211 0.675764
0.588730 -0.055525 0.681060
0.761326 -0.076919 0.680345
0.943735 -0.095577 0.675688
1.108231 -0.087779 0.660245
-0.130113 0.129638 0.574130
-0.007555 0.126009 0.636410
0.124692 0.117946 0.690796
0.271526 0.105707 0.707112
0.430764 0.088522 0.710673
0.604374 0.063735 0.710747
0.798806 0.037076 0.710063
0.981148 0.041715 0.693901
1.103579 0.070737 0.655648
-0.144224 0.265649 0.599051
-0.024262 0.266426 0.656287
0.107066 0.263405 0.703777
0.254768 0.250296 0.750148
0.424139 0.228670 0.739811
0.616317 0.194432 0.741613
0.834968 0.180787 0.738555
0.955617 0.215967 0.681009
1.131267 0.198689 0.657599
-0.166738 0.413334 0.619249
-0.048870 0.421291 0.665387
0.080530 0.423724 0.702312
0.225665 0.418799 0.733702
0.429276 0.429326 0.684717
0.592321 0.401821 0.706790
0.782752 0.389514 0.702234
0.962267 0.366442 0.679300
1.136898 0.351612 0.655483
-0.197332 0.570612 0.629700
-0.081794 0.588117 0.664951
0.043946 0.599968 0.694725
0.182597 0.608332 0.723986
0.395675 0.589846 0.699097
0.575604 0.579095 0.708337
0.772961 0.565910 0.697226
0.951454 0.541724 0.673836
1.126924 0.523443 0.652972
-0.232876 0.733732 0.628210
-0.119735 0.764537 0.656000
0.002682 0.794192 0.683428
0.139169 0.833383 0.717856
0.369309 0.778726 0.689411
0.553066 0.772855 0.691473
0.750758 0.756446 0.688462
0.932368 0.729939 0.670324
1.110858 0.708384 0.654451
-0.268840 0.899244 0.616205
-0.156662 0.947191 0.639830
-0.034135 0.995707 0.664450
0.172211 0.953684 0.656770
0.330205 0.959915 0.661810
0.516888 0.950121 0.664154
0.714598 0.934692 0.666817
0.914802 0.924590 0.674022
1.096782 0.902857 0.663006
-0.302800 1.066113 0.598182
-0.189664 1.129779 0.617249
-0.000579 1.108951 0.619480
0.133192 1.134133 0.627203
0.298519 1.136812 0.633921
0.484550 1.125625 0.640836
0.680964 1.111910 0.649599
0.882179 1.103918 0.661633
1.086877 1.103249 0.677613
-0.161500 -0.158286 0.693581
-0.020760 -0.157329 0.721653
0.121327 -0.157450 0.748809
0.266148 -0.159544 0.773242
0.413505 -0.164151 0.792037
0.562663 -0.171162 0.803725
0.713741 -0.179086 0.807943
0.867071 -0.185490 0.805589
1.023707 -0.189413 0.799754
-0.159694 -0.018033 0.719348
-0.022356 -0.022108 0.775665
0.118365 -0.028933 0.808324
0.265170 -0.036958 0.832322
0.418677 -0.047915 0.847685
0.579238 -0.061998 0.856683
0.747765 -0.075873 0.859977
0.922695 -0.085527 0.857401
1.089161 -0.082292 0.842140
-0.160002 0.123349 0.744635
-0.028871 0.116777 0.806497
0.106646 0.104056 0.870198
0.257986 0.091044 0.892437
0.419517 0.073526 0.905344
0.595011 0.052971 0.914162
0.785313 0.036007 0.917797
0.973780 0.037442 0.905736
1.066684 0.088681 0.830925
-0.164227 0.267368 0.767166
-0.039293 0.262676 0.828250
0.091189 0.254036 0.890453
0.298014 0.296202 0.840196
0.425176 0.266844 0.867006
0.583375 0.245617 0.881246
0.756048 0.238930 0.879934
0.926850 0.232931 0.869074
1.091107 0.211057 0.845550
-0.173546 0.414162 0.783645
-0.054881 0.415981 0.840638
0.069282 0.414903 0.899303
0.265837 0.422192 0.864081
0.402759 0.401775 0.890021
0.573234 0.387386 0.897578
0.754714 0.381561 0.890364
0.931502 0.376608 0.876554
1.096065 0.355839 0.849631
-0.187706 0.562980 0.791272
-0.075450 0.576329 0.844434
0.042599 0.589190 0.901434
0.239394 0.579009 0.874003
0.383587 0.569747 0.893838
0.557890 0.557760 0.894847
0.741529 0.547678 0.885785
0.922202 0.539758 0.873628
1.086941 0.516778 0.846747
-0.204441 0.712790 0.788875
-0.097840 0.742947 0.839992
0.017120 0.775711 0.895953
0.225298 0.750359 0.868027
0.370765 0.749568 0.882777
0.542131 0.738435 0.882377
0.722854 0.723831 0.874241
0.905244 0.712815 0.865754
1.070874 0.687876 0.841513
-0.220792 0.862961 0.777760
-0.117953 0.913478 0.827670
-0.003906 0.968729 0.882759
0.207182 0.920684 0.852734
0.356058 0.925597 0.865144
0.526077 0.917567 0.867138
0.705203 0.903571 0.863121
0.885917 0.889611 0.856940
1.053814 0.865020 0.837573
-0.235333 1.014092 0.761505
-0.134007 1.080897 0.806206
0.046558 1.061264 0.804631
0.171878 1.085850 0.824418
0.323928 1.090349 0.834550
0.493200 1.081652 0.837561
0.671691 1.067854 0.836922
0.854143 1.055244 0.835911
1.042186 1.049361 0.839690
-0.200434 -0.196953 0.853093
-0.045849 -0.189995 0.883729
0.107187 -0.183897 0.912011
0.258571 -0.179302 0.936203
0.408081 -0.176706 0.954125
0.556100 -0.175730 0.964906
0.702865 -0.174507 0.967550
0.848685 -0.171371 0.962587
0.995422 -0.165728 0.953211
-0.192535 -0.042301 0.882727
-0.047441 -0.044386 0.941503
0.102204 -0.046772 0.977605
0.254153 -0.051216 1.006797
0.409923 -0.057989 1.027578
0.570390 -0.065424 1.039854
0.734292 -0.070574 1.042395
0.899433 -0.072217 1.036335
1.066266 -0.070961 1.025816
-0.185807 0.110428 0.910187
-0.049270 0.105421 0.976072
0.174181 0.176724 0.936877
0.286055 0.151307 0.979142
0.418810 0.130434 1.009369
0.567328 0.116245 1.024211
0.722907 0.109748 1.024351
0.878061 0.109714 1.013918
1.030384 0.109433 0.998439
-0.180961 0.260756 0.932832
-0.053674 0.256792 1.003896
0.148683 0.288836 0.978043
0.264784 0.268039 1.023448
0.405771 0.251191 1.051741
0.563845 0.239501 1.060937
0.728279 0.232469 1.055660
0.892111 0.228837 1.042150
1.053094 0.225151 1.025179
-0.178578 0.408300 0.948670
-0.060820 0.410936 1.022827
0.127399 0.420857 1.006484
0.247091 0.408637 1.050398
0.393341 0.397245 1.072902
0.555774 0.386784 1.075673
0.723953 0.377396 1.066542
0.892357 0.369380 1.052191
1.058935 0.361679 1.036102
-0.178177 0.552826 0.955618
-0.069032 0.568170 1.031389
0.112089 0.567243 1.019160
0.233971 0.565006 1.058084
0.381478 0.558172 1.074476
0.543835 0.547516 1.072874
0.712049 0.535257 1.061970
0.882008 0.523536 1.048370
1.051905 0.512819 1.034708
-0.178139 0.694361 0.952697
-0.075856 0.726874 1.028433
0.103584 0.719426 1.016031
0.224650 0.726758 1.050286
0.369970 0.724059 1.063367
0.529827 0.713439 1.060269
0.696056 0.698945 1.049064
0.865440 0.684513 1.036497
1.037170 0.672273 1.025762
-0.177104 0.833383 0.940941
-0.080309 0.885118 1.015585
0.100773 0.870267 1.001201
0.218037 0.887159 1.033018
0.359146 0.889606 1.045923
0.515696 0.880737 1.044161
0.679668 0.865551 1.034260
0.846956 0.848684 1.022009
1.019014 0.835460 1.013346
-0.174444 0.972030 0.923955
-0.082649 1.043569 0.997289
0.096299 1.017974 0.980974
0.210488 1.044355 1.011761
0.348030 1.052957 1.026171
0.502099 1.047670 1.027460
0.665127 1.034326 1.020921
0.831917 1.017568 1.010916
0.999991 0.999991 0.999990
