Project4/NaturalBoost.cube
TITLE "NaturalBoost"
# Created by Photon 3D ColorGrading
DOMAIN_MIN 0 0 0
DOMAIN_MAX 1 1 1
LUT_3D_SIZE 9
0.000001 0.000001 0.000001
0.075640 -0.022256 -0.002710
0.192578 -0.061619 -0.010872
0.350470 -0.123641 -0.029014
0.523701 -0.200152 -0.055734
0.681691 -0.269998 -0.080203
0.818942 -0.318974 -0.092223
0.952685 -0.347207 -0.088415
1.091603 -0.359372 -0.070690
-0.006937 0.130977 -0.034854
0.077699 0.071009 -0.034208
0.185374 0.018169 -0.047723
0.322182 -0.038907 -0.079292
0.494090 -0.110541 -0.131546
0.700291 -0.190383 -0.197933
0.913483 -0.254368 -0.242828
1.102020 -0.274251 -0.226763
1.266901 -0.247470 -0.151599
-0.014665 0.258684 -0.069967
0.083830 0.196787 -0.069702
0.187023 0.143730 -0.083649
0.306107 0.091406 -0.118192
0.473953 0.026793 -0.183829
0.715326 -0.051394 -0.278163
0.988301 -0.114663 -0.342997
1.219172 -0.118574 -0.307488
1.398675 -0.056727 -0.174599
-0.022434 0.382744 -0.104328
0.100807 0.343396 -0.110820
0.223407 0.303946 -0.130643
0.355379 0.259915 -0.172654
0.530200 0.205657 -0.245755
0.775346 0.145150 -0.338842
1.057029 0.106200 -0.387157
1.299122 0.124789 -0.321103
1.483684 0.199713 -0.151873
-0.027819 0.505110 -0.135392
0.109921 0.483188 -0.144344
0.251532 0.459590 -0.166016
0.406078 0.432105 -0.210641
0.595200 0.400166 -0.281467
0.835724 0.372117 -0.357078
1.107130 0.367791 -0.379911
1.347010 0.400359 -0.299277
1.530821 0.461504 -0.129783
-0.027431 0.628374 -0.159589
0.113397 0.615565 -0.164701
0.260347 0.603516 -0.178248
0.422514 0.593691 -0.209733
0.616927 0.589776 -0.263564
0.855567 0.598503 -0.321367
1.121642 0.624865 -0.336312
1.358105 0.659433 -0.268680
1.536756 0.691202 -0.127977
-0.018042 0.755124 -0.173544
0.123900 0.750039 -0.173234
0.271701 0.747353 -0.176763
0.433141 0.751192 -0.191417
0.623018 0.768484 -0.224828
0.852278 0.803328 -0.268203
1.106526 0.848321 -0.287309
1.331353 0.878539 -0.242756
1.500113 0.882321 -0.136208
0.001400 0.887193 -0.176361
0.144178 0.890253 -0.171810
0.291831 0.896390 -0.169073
0.449924 0.909985 -0.173311
0.629194 0.937888 -0.192394
0.838521 0.982597 -0.224039
1.067842 1.032173 -0.244853
1.273758 1.055876 -0.219174
1.433481 1.041660 -0.141971
0.027715 1.023645 -0.171717
0.170360 1.034893 -0.164699
0.316563 1.049525 -0.159347
0.469271 1.070455 -0.158732
0.633908 1.101588 -0.168195
0.818820 1.145721 -0.189898
1.017189 1.190028 -0.208423
1.201008 1.205728 -0.195327
1.354156 1.182510 -0.143019
-0.038571 -0.004827 0.140499
0.062038 -0.036243 0.125990
0.191105 -0.075960 0.119189
0.343113 -0.126590 0.113162
0.496601 -0.181984 0.101223
0.641158 -0.231020 0.090260
0.780684 -0.265353 0.089121
0.925403 -0.283390 0.101759
1.077539 -0.289565 0.125380
-0.049029 0.126346 0.097365
0.053152 0.069360 0.080340
0.178041 0.015491 0.061020
0.325697 -0.037759 0.038677
0.490120 -0.091965 0.012887
0.670594 -0.141136 -0.009480
0.860681 -0.172525 -0.010810
1.049917 -0.176555 0.022522
1.237325 -0.158711 0.082467
-0.068662 0.265654 0.062222
0.042723 0.198700 0.039699
0.169643 0.139730 0.013376
0.317705 0.087206 -0.017833
0.494299 0.036755 -0.053680
0.706901 -0.007376 -0.084566
0.939299 -0.029202 -0.082728
1.160678 -0.015458 -0.027437
1.367195 0.026077 0.066827
-0.090020 0.402851 0.022521
0.039088 0.343776 0.001745
0.179375 0.292879 -0.022981
0.339238 0.249546 -0.056179
0.531503 0.210548 -0.097058
0.763025 0.181142 -0.128721
1.014593 0.176439 -0.117345
1.249263 0.204691 -0.045015
1.459342 0.255679 0.068113
-0.105084 0.535851 -0.021335
0.040252 0.490049 -0.029160
0.194328 0.453042 -0.041949
0.365983 0.426160 -0.066944
0.568633 0.408076 -0.103955
0.807921 0.402557 -0.131790
1.065559 0.417166 -0.116355
1.302125 0.449883 -0.044069
1.505741 0.491270 0.065437
-0.110169 0.672908 -0.057767
0.047608 0.638091 -0.048744
0.209995 0.612797 -0.044809
0.384403 0.600925 -0.053608
0.585274 0.603774 -0.078128
0.821401 0.622027 -0.101918
1.076264 0.652279 -0.094418
1.307567 0.682462 -0.038490
1.499982 0.706414 0.053136
-0.100203 0.816941 -0.078291
0.065638 0.791499 -0.056698
0.231797 0.775330 -0.040391
0.403437 0.773287 -0.035684
0.593256 0.787814 -0.047131
0.814733 0.819540 -0.066897
1.053771 0.857144 -0.070341
1.273389 0.882316 -0.036218
1.457817 0.890601 0.029852
-0.069561 0.961535 -0.078344
0.095578 0.948188 -0.054067
0.259315 0.941952 -0.034546
0.424674 0.946441 -0.024290
0.600939 0.963984 -0.027511
0.799760 0.995948 -0.042459
1.014366 1.031846 -0.052761
1.217728 1.050894 -0.037398
1.395467 1.046924 0.004633
-0.021053 1.100371 -0.061840
0.134025 1.104357 -0.044389
0.289242 1.110732 -0.029156
0.445834 1.120880 -0.018903
0.607747 1.136623 -0.017306
0.782525 1.161268 -0.027102
0.970007 1.189562 -0.040242
1.153672 1.201675 -0.037400
1.319914 1.187408 -0.010985
-0.077876 -0.011022 0.276897
0.039079 -0.054943 0.264072
0.173419 -0.094958 0.259340
0.319578 -0.133306 0.258300
0.464478 -0.169935 0.255789
0.607091 -0.200846 0.255722
0.753100 -0.220978 0.264390
0.907906 -0.229520 0.284333
1.070947 -0.230858 0.312327
-0.097250 0.130500 0.245788
0.015343 0.065995 0.218124
0.147804 0.010559 0.196873
0.299540 -0.033665 0.184278
0.462405 -0.067740 0.179943
0.633786 -0.091022 0.186362
0.815775 -0.100400 0.209182
1.008583 -0.097491 0.247752
1.208706 -0.088171 0.294623
-0.125356 0.279703 0.215357
-0.006608 0.203356 0.178163
0.131032 0.139757 0.147656
0.292191 0.093044 0.127340
0.474635 0.061898 0.119615
0.674747 0.046315 0.129793
0.888232 0.049210 0.165202
1.107014 0.066120 0.220518
1.326424 0.088518 0.283040
-0.153653 0.426687 0.172714
-0.019783 0.353114 0.141991
0.130076 0.293951 0.116807
0.303645 0.253502 0.097679
0.503994 0.230416 0.087368
0.727491 0.225290 0.097709
0.963308 0.240601 0.140532
1.193524 0.266713 0.203511
1.411613 0.295036 0.272666
-0.172363 0.569366 0.121841
-0.020200 0.508184 0.111336
0.142875 0.461065 0.103660
0.324912 0.433291 0.095894
0.533811 0.424552 0.088329
0.768800 0.433362 0.095145
1.014705 0.457437 0.132426
1.243011 0.485559 0.193048
1.440292 0.511956 0.268201
-0.176997 0.716930 0.078733
-0.007522 0.668145 0.090966
0.165977 0.632634 0.102952
0.349064 0.616080 0.110032
0.552587 0.619915 0.109127
0.781769 0.640295 0.111047
1.023358 0.669690 0.133987
1.239886 0.696520 0.185769
1.409221 0.719151 0.269895
-0.161650 0.871033 0.054852
0.018858 0.832465 0.083283
0.196654 0.805821 0.107984
0.374776 0.796240 0.124496
0.563947 0.804970 0.128996
0.773905 0.828397 0.127554
0.998283 0.857866 0.135426
1.203656 0.880948 0.169520
1.366290 0.895957 0.240550
-0.117947 1.018682 0.056384
0.059274 0.994229 0.088035
0.231311 0.978623 0.114491
0.399639 0.974511 0.132352
0.572367 0.982047 0.138817
0.759075 1.000148 0.136092
0.960603 1.024018 0.132825
1.156494 1.040891 0.143917
1.329904 1.045140 0.178693
-0.048407 1.150380 0.078872
0.110205 1.149045 0.101409
0.266771 1.149545 0.120817
0.421861 1.151660 0.134892
0.578810 1.155483 0.141221
0.743588 1.164106 0.138257
0.921267 1.179020 0.127775
1.103835 1.189110 0.120883
1.280582 1.183830 0.125289
-0.117086 -0.018057 0.408397
0.000680 -0.075181 0.403315
0.135544 -0.117438 0.402680
0.283155 -0.146762 0.405047
0.433210 -0.169036 0.409209
0.584365 -0.184273 0.418081
0.740020 -0.191527 0.434473
0.903166 -0.193083 0.458243
1.073186 -0.192407 0.486656
-0.148595 0.134339 0.400668
-0.029183 0.061923 0.370365
0.107862 0.006440 0.351712
0.263627 -0.027733 0.348353
0.430351 -0.045175 0.357574
0.604356 -0.050957 0.377650
0.787395 -0.050130 0.407218
0.980945 -0.047662 0.442120
1.181832 -0.045920 0.477947
-0.184146 0.291284 0.381683
-0.054850 0.211439 0.340302
0.090469 0.148609 0.312615
0.257169 0.110812 0.304763
0.441262 0.095704 0.315430
0.638013 0.096813 0.342833
0.845018 0.106086 0.382919
1.058922 0.115704 0.426160
1.275071 0.122273 0.465773
-0.216417 0.448144 0.343572
-0.070438 0.372491 0.310676
0.088570 0.312029 0.288556
0.267873 0.275587 0.282096
0.467817 0.263098 0.292050
0.684297 0.269248 0.320396
0.908694 0.285121 0.363754
1.128856 0.300723 0.409942
1.338862 0.312191 0.452090
-0.235299 0.603443 0.294730
-0.070814 0.538992 0.282112
0.102195 0.487227 0.276168
0.290082 0.456843 0.278434
0.497229 0.449382 0.288789
0.723156 0.460417 0.311742
0.954440 0.480420 0.349323
1.164709 0.500339 0.399175
1.341323 0.519184 0.461643
-0.234532 0.762015 0.252184
-0.053629 0.708034 0.260748
0.129279 0.664811 0.272005
0.317546 0.640466 0.284693
0.518343 0.637134 0.296476
0.737363 0.651060 0.310968
0.962208 0.672980 0.337061
1.152478 0.697246 0.394355
1.282346 0.727166 0.499184
-0.209463 0.921263 0.227683
-0.019527 0.875069 0.251433
0.165678 0.839098 0.273793
0.346852 0.819563 0.292219
0.532179 0.816998 0.304012
0.731619 0.828814 0.310931
0.939699 0.848539 0.323712
1.118515 0.871363 0.373182
1.238573 0.899503 0.483936
-0.151683 1.064072 0.226823
0.030473 1.031490 0.254971
0.205641 1.006999 0.279252
0.373701 0.993364 0.296928
0.541576 0.989296 0.306332
0.718715 0.994480 0.307926
0.906835 1.007332 0.307952
1.086483 1.022386 0.327065
1.237925 1.036523 0.382476
-0.064131 1.181357 0.244676
0.091782 1.174654 0.267124
0.245020 1.169172 0.285903
0.395973 1.163666 0.298735
0.547473 1.157425 0.304441
0.704358 1.153710 0.302100
0.872296 1.157189 0.291996
1.051603 1.164656 0.278407
1.235099 1.168228 0.266635
-0.153712 -0.023480 0.537256
-0.044031 -0.092359 0.543122
0.089831 -0.138517 0.550145
0.244523 -0.162529 0.558277
0.406711 -0.173790 0.568872
0.570716 -0.177789 0.584026
0.737287 -0.177074 0.604394
0.907594 -0.175581 0.627834
1.081429 -0.175296 0.652427
-0.194541 0.130820 0.547605
-0.068784 0.058742 0.525428
0.074051 0.006383 0.514948
0.236023 -0.020870 0.519218
0.409641 -0.028332 0.535033
0.588469 -0.026569 0.558138
0.773125 -0.024016 0.586183
0.964256 -0.024921 0.615015
1.159512 -0.028933 0.641765
-0.237506 0.292149 0.544423
-0.092543 0.220337 0.510118
0.063560 0.164632 0.490227
0.235487 0.133763 0.490226
0.420611 0.126485 0.507092
0.613520 0.130982 0.534559
0.813415 0.136115 0.567794
1.017822 0.136609 0.599179
1.222699 0.132892 0.624631
-0.275535 0.460470 0.521407
-0.110628 0.393462 0.493710
0.061529 0.338719 0.476629
0.245377 0.305373 0.475519
0.441408 0.295391 0.490023
0.646583 0.299480 0.516537
0.857139 0.306936 0.549920
1.064174 0.310897 0.580722
1.261295 0.311084 0.605912
-0.296662 0.632532 0.484875
-0.114592 0.572191 0.473366
0.071216 0.520798 0.467602
0.263468 0.486748 0.470614
0.464856 0.474032 0.482781
0.675965 0.476685 0.503694
0.890092 0.485798 0.532000
1.086687 0.495510 0.567180
1.250753 0.507881 0.615779
-0.293157 0.805559 0.448402
-0.098038 0.749180 0.452907
0.095523 0.700159 0.459399
0.287863 0.667158 0.468732
0.483833 0.652636 0.479664
0.688918 0.653366 0.493023
0.896074 0.663792 0.514682
1.071027 0.682656 0.565959
1.186513 0.715918 0.670543
-0.260056 0.970982 0.423594
-0.059762 0.916937 0.439610
0.132989 0.871253 0.454528
0.316615 0.840640 0.467343
0.498269 0.824846 0.476583
0.686885 0.822034 0.482872
0.879703 0.830658 0.495526
1.041341 0.851945 0.550548
1.138693 0.891783 0.684172
-0.191223 1.108823 0.414692
-0.003322 1.066073 0.435684
0.175521 1.030998 0.453395
0.343960 1.006389 0.465703
0.508773 0.989910 0.471812
0.678094 0.981782 0.472251
0.854764 0.984289 0.472931
1.020052 0.997573 0.499343
1.151836 1.021626 0.577651
-0.090423 1.212423 0.417519
0.064412 1.197568 0.437916
0.216745 1.182872 0.454039
0.366390 1.167177 0.463193
0.515284 1.150346 0.465095
0.667004 1.135940 0.460382
0.827971 1.130248 0.448747
1.001913 1.133977 0.431462
1.185825 1.141964 0.411156
-0.184168 -0.023814 0.666456
-0.082966 -0.100971 0.689137
0.049919 -0.150192 0.708150
0.212685 -0.170240 0.723786
0.387465 -0.174398 0.739623
0.564017 -0.172515 0.758055
0.740060 -0.169869 0.778135
0.915626 -0.169222 0.797457
1.091032 -0.170488 0.815264
-0.229480 0.126994 0.689980
-0.097889 0.060722 0.683376
0.050821 0.013748 0.684768
0.219334 -0.008120 0.695563
0.398778 -0.011985 0.712522
0.581249 -0.009610 0.733227
0.765933 -0.010052 0.756340
0.953962 -0.015822 0.778938
1.143551 -0.024562 0.798946
-0.277862 0.289225 0.703875
-0.117684 0.230508 0.682291
0.049137 0.184265 0.671741
0.226600 0.159249 0.675751
0.411734 0.153100 0.689900
0.599671 0.153915 0.709933
0.790848 0.151712 0.733867
0.985439 0.143909 0.756646
1.180287 0.132962 0.774899
-0.322287 0.466051 0.701214
-0.139302 0.411228 0.681845
0.045719 0.365075 0.669762
0.234548 0.335216 0.668244
0.426287 0.322449 0.675825
0.619565 0.319120 0.691323
0.814821 0.316215 0.712522
1.008833 0.310046 0.732394
1.197308 0.301476 0.746970
-0.348753 0.652401 0.682606
-0.151118 0.598290 0.674001
0.046284 0.550005 0.667593
0.243221 0.514343 0.665175
0.439509 0.494182 0.667533
0.636191 0.485900 0.676492
0.832560 0.482792 0.692046
1.018334 0.481364 0.712251
1.185607 0.482355 0.738069
-0.346789 0.838831 0.656126
-0.141282 0.782616 0.657792
0.060732 0.731238 0.658645
0.257570 0.690856 0.658854
0.450671 0.664713 0.659118
0.643973 0.651836 0.661945
0.836053 0.648684 0.671740
1.006755 0.655918 0.702916
1.137438 0.678255 0.772928
-0.312158 1.010983 0.630755
-0.106169 0.952600 0.639097
0.092181 0.900381 0.645352
0.280437 0.859193 0.648551
0.462109 0.830195 0.648378
0.643717 0.813355 0.646591
0.825696 0.808626 0.650312
0.983221 0.821589 0.691034
1.090621 0.859257 0.801997
-0.239625 1.147743 0.610091
-0.048782 1.098136 0.622742
0.134126 1.053965 0.632320
0.307010 1.017648 0.636881
0.473356 0.988742 0.635760
0.639214 0.968310 0.630321
0.807915 0.959311 0.626324
0.965826 0.967392 0.649306
1.094211 0.995281 0.726886
-0.135635 1.247401 0.592125
0.022028 1.222659 0.608680
0.178105 1.196800 0.620565
0.331571 1.169465 0.625020
0.482348 1.141986 0.621871
0.632577 1.117975 0.612773
0.788063 1.103058 0.599083
0.955962 1.101209 0.580264
1.135928 1.108701 0.556848
-0.205002 -0.015738 0.798756
-0.108434 -0.094560 0.841632
0.025043 -0.142841 0.873809
0.194657 -0.158484 0.895141
0.378025 -0.158319 0.912598
0.561324 -0.155653 0.929861
0.741062 -0.155133 0.945899
0.917030 -0.157079 0.958900
1.090253 -0.160268 0.968973
-0.250834 0.131555 0.833532
-0.115129 0.073046 0.845843
0.038894 0.032802 0.858730
0.213118 0.015811 0.872123
0.395799 0.013255 0.885750
0.577761 0.012839 0.900311
0.758843 0.007728 0.916593
0.941466 -0.002711 0.933319
1.125315 -0.016139 0.948726
-0.300508 0.292047 0.862969
-0.131335 0.245507 0.857187
0.043886 0.209229 0.855493
0.226418 0.188902 0.858672
0.410709 0.181469 0.864812
0.592204 0.176855 0.874194
0.773586 0.167823 0.888526
0.958381 0.153535 0.905190
1.145354 0.136070 0.920520
-0.348018 0.470733 0.879979
-0.156079 0.426315 0.871444
0.037286 0.388007 0.863411
0.230986 0.361308 0.856937
0.420274 0.346178 0.852969
0.603446 0.335864 0.854347
0.784601 0.324607 0.863561
0.966855 0.310758 0.875809
1.148669 0.294898 0.886147
-0.379362 0.662205 0.879736
-0.176153 0.614318 0.876874
0.027625 0.570104 0.869723
0.229216 0.534501 0.858199
0.423380 0.509734 0.845925
0.609275 0.492671 0.838927
0.790147 0.479890 0.841145
0.966812 0.468743 0.848867
1.136837 0.458641 0.858676
-0.382669 0.853906 0.863844
-0.176455 0.800946 0.866945
0.029012 0.750322 0.863300
0.230471 0.706583 0.851730
0.423772 0.673059 0.836184
0.609065 0.649440 0.823584
0.787938 0.635152 0.820081
0.955698 0.629423 0.830475
1.106469 0.632824 0.858824
-0.353113 1.029527 0.838250
-0.149918 0.973160 0.844578
0.049875 0.919474 0.844181
0.242931 0.872226 0.835413
0.427633 0.833810 0.820912
0.605875 0.805270 0.806290
0.778766 0.789144 0.799402
0.936829 0.788997 0.817216
1.069571 0.808066 0.874849
-0.288081 1.171427 0.806945
-0.098318 1.120277 0.815419
0.087032 1.071552 0.818137
0.265443 1.027197 0.812997
0.436460 0.988540 0.801056
0.602631 0.957457 0.786353
0.766431 0.938461 0.775545
0.922006 0.936797 0.786044
1.060601 0.954714 0.832941
-0.193862 1.278857 0.771319
-0.030783 1.245380 0.783026
0.131317 1.210304 0.789484
0.291158 1.173550 0.787884
0.447015 1.137401 0.778380
0.599638 1.105472 0.763953
0.753680 1.082754 0.746773
0.915789 1.072147 0.726939
1.087865 1.072343 0.703174
-0.215173 0.001945 0.936049
-0.112014 -0.064431 0.991931
0.026540 -0.102344 1.029383
0.198199 -0.111396 1.049097
0.379820 -0.109608 1.061985
0.558123 -0.109014 1.073407
0.730603 -0.111997 1.082852
0.897436 -0.117178 1.088960
1.060727 -0.122799 1.092490
-0.258919 0.145766 0.981049
-0.118874 0.098849 1.009881
0.041298 0.068795 1.028192
0.219199 0.057154 1.037230
0.399819 0.053456 1.043234
0.574954 0.048870 1.049455
0.745821 0.040201 1.056791
0.915830 0.027542 1.065180
1.086233 0.012769 1.073747
-0.306860 0.302153 1.023414
-0.136484 0.265472 1.034686
0.044327 0.237789 1.037647
0.231643 0.221518 1.034202
0.414465 0.211573 1.030091
0.588282 0.201763 1.028869
0.757597 0.188899 1.032196
0.928032 0.172405 1.039663
1.100515 0.153638 1.048592
-0.354123 0.476273 1.055876
-0.164355 0.439699 1.061635
0.032897 0.407764 1.055649
0.231523 0.383371 1.040007
0.420162 0.365248 1.023389
0.595453 0.349822 1.012279
0.763901 0.334204 1.009187
0.932090 0.317303 1.012238
1.101408 0.299252 1.016985
-0.387841 0.663177 1.069765
-0.190591 0.622104 1.077775
0.014906 0.582117 1.069331
0.221397 0.546887 1.045621
0.415938 0.518708 1.018242
0.594519 0.496705 0.997209
0.763245 0.478599 0.986598
0.928388 0.462553 0.984209
1.092135 0.447177 0.984826
-0.396331 0.850775 1.061954
-0.200930 0.806181 1.074627
0.004113 0.758893 1.067376
0.211209 0.713244 1.041406
0.406608 0.675055 1.008788
0.586964 0.645557 0.981069
0.755768 0.624479 0.964667
0.917680 0.609815 0.959416
1.074036 0.599898 0.962876
-0.375565 1.025267 1.036658
-0.186149 0.979666 1.051073
0.011461 0.929240 1.046633
0.210606 0.878153 1.023646
0.400089 0.833129 0.992512
0.577241 0.797304 0.963483
0.744067 0.772692 0.943825
0.902054 0.759755 0.939736
1.050337 0.757944 0.954053
-0.326598 1.175198 1.000073
-0.145731 1.131094 1.011926
0.039233 1.083153 1.010162
0.224015 1.033751 0.993845
0.401347 0.988131 0.969088
0.569944 0.949748 0.943178
0.731807 0.921961 0.922346
0.887857 0.907417 0.914923
1.036618 0.906177 0.925960
-0.256822 1.301766 0.957023
-0.087422 1.261713 0.962943
0.080481 1.221198 0.963811
0.246454 1.179351 0.956009
0.408372 1.138172 0.940090
0.565658 1.100760 0.919857
0.720986 1.070494 0.898041
0.879519 1.049300 0.875354
1.042776 1.035777 0.850833
-0.218121 0.026255 1.077501
-0.097734 -0.014555 1.133583
0.050788 -0.032309 1.164614
0.220246 -0.031415 1.174349
0.390287 -0.028379 1.177613
0.552329 -0.030919 1.180405
0.706851 -0.037861 1.182224
0.855532 -0.046384 1.182118
1.000846 -0.054953 1.180588
-0.258926 0.166056 1.131508
-0.113616 0.134028 1.171547
0.053719 0.116998 1.188252
0.233615 0.111151 1.187384
0.408169 0.105530 1.183468
0.571877 0.096127 1.180745
0.727034 0.084908 1.177725
0.876093 0.073969 1.173630
1.021819 0.063814 1.168863
-0.303817 0.316546 1.184462
-0.137063 0.288012 1.212263
0.047799 0.267881 1.216021
0.239332 0.254021 1.202685
0.419746 0.240529 1.188109
0.586047 0.225739 1.177077
0.741618 0.211171 1.168278
0.891019 0.198112 1.160533
1.037313 0.186377 1.153456
-0.348744 0.482175 1.228684
-0.167984 0.451393 1.250478
0.030395 0.423656 1.244556
0.233430 0.399699 1.217763
0.421485 0.378460 1.189270
0.591249 0.359075 1.167285
0.747545 0.341925 1.151972
0.897334 0.327117 1.141178
1.044493 0.313973 1.133022
-0.382456 0.658746 1.252679
-0.197854 0.624526 1.274650
0.006946 0.587580 1.263836
0.217890 0.551650 1.226558
0.412553 0.521131 1.185228
0.586096 0.496364 1.152341
0.743995 0.476418 1.130443
0.894872 0.459976 1.116965
1.043471 0.445718 1.108434
-0.394730 0.836481 1.250261
-0.215816 0.802624 1.276406
-0.013312 0.759011 1.265986
0.198627 0.711691 1.224534
0.396018 0.670593 1.175879
0.572487 0.638484 1.135162
0.732571 0.614430 1.107505
0.885408 0.595835 1.091007
1.036173 0.580431 1.081462
-0.383724 1.006484 1.225459
-0.213965 0.976193 1.254063
-0.020276 0.930632 1.247082
0.184953 0.876409 1.208857
0.379174 0.826807 1.160986
0.555143 0.787326 1.118348
0.716789 0.757813 1.086913
0.871898 0.735601 1.066574
1.025158 0.717731 1.053810
-0.355869 1.165803 1.188415
-0.188459 1.133508 1.208865
-0.005594 1.088967 1.204456
0.185257 1.036234 1.176358
0.369056 0.985719 1.138332
0.540261 0.942892 1.101070
0.701345 0.908567 1.069651
0.857674 0.881085 1.045418
1.012686 0.857795 1.026592
-0.320173 1.317962 1.147544
-0.144195 1.272641 1.146443
0.028685 1.229220 1.141593
0.199647 1.185652 1.128569
0.367474 1.142445 1.107381
0.530258 1.101852 1.081631
0.688461 1.064991 1.054174
0.844471 1.031444 1.026809
1.000000 1.000000 1.000000
