Project4/NaturalBoost.cube
TITLE "NaturalBoost"
# Created by Photon 3D ColorGrading
DOMAIN_MIN 0 0 0
DOMAIN_MAX 1 1 1
LUT_3D_SIZE 33
0.000001 0.000001 0.000001
0.016737 -0.004764 -0.000471
0.034400 -0.009861 -0.001023
0.053816 -0.015601 -0.001741
0.075640 -0.022256 -0.002710
0.100310 -0.030045 -0.004018
0.128037 -0.039134 -0.005758
0.158840 -0.049637 -0.008015
0.192578 -0.061619 -0.010872
0.228999 -0.075099 -0.014393
0.267694 -0.089981 -0.018583
0.308248 -0.106147 -0.023432
0.350470 -0.123641 -0.029014
0.393771 -0.142179 -0.035219
0.437463 -0.161374 -0.041875
0.480927 -0.180834 -0.048791
0.523701 -0.200152 -0.055734
0.565364 -0.218981 -0.062508
0.605679 -0.237067 -0.068960
0.644534 -0.254194 -0.074938
0.681691 -0.269998 -0.080203
0.717328 -0.284333 -0.084604
0.751799 -0.297171 -0.088050
0.785577 -0.308724 -0.090614
0.818942 -0.318974 -0.092223
0.852118 -0.327950 -0.092855
0.885334 -0.335716 -0.092514
0.918815 -0.342102 -0.091016
0.952685 -0.347207 -0.088415
0.986966 -0.351248 -0.084877
1.021614 -0.354449 -0.080592
1.056535 -0.357063 -0.075779
1.091603 -0.359372 -0.070690
-0.001686 0.032905 -0.008690
0.015932 0.024875 -0.008800
0.034372 0.016698 -0.009062
0.054371 0.008227 -0.009619
0.076513 -0.000696 -0.010602
0.101196 -0.010231 -0.012124
0.128624 -0.020539 -0.014277
0.158825 -0.031775 -0.017138
0.191698 -0.044073 -0.020764
0.227046 -0.057534 -0.025196
0.264536 -0.072156 -0.030415
0.303847 -0.087909 -0.036401
0.344922 -0.104903 -0.043255
0.387338 -0.122950 -0.050894
0.430625 -0.141767 -0.059195
0.474366 -0.161053 -0.068022
0.518137 -0.180435 -0.077130
0.561616 -0.199613 -0.086332
0.604581 -0.218344 -0.095447
0.646846 -0.236385 -0.104251
0.688148 -0.253350 -0.112397
0.728421 -0.268966 -0.119532
0.767724 -0.283046 -0.125348
0.806280 -0.295671 -0.129798
0.844186 -0.306694 -0.132659
0.881554 -0.316058 -0.133824
0.918532 -0.323749 -0.133249
0.955212 -0.329443 -0.130579
0.991731 -0.333223 -0.125907
1.028199 -0.335377 -0.119544
1.064671 -0.336229 -0.111835
1.101167 -0.336165 -0.103184
1.137681 -0.335622 -0.094041
-0.003394 0.065742 -0.017392
0.015063 0.054683 -0.017147
0.034235 0.043650 -0.017115
0.054763 0.032641 -0.017495
0.077162 0.021606 -0.018459
0.101789 0.010441 -0.020139
0.128837 -0.001007 -0.022633
0.158351 -0.012928 -0.026007
0.190268 -0.025516 -0.030298
0.224454 -0.038947 -0.035527
0.260652 -0.053307 -0.041657
0.298638 -0.068643 -0.048663
0.338495 -0.085132 -0.056675
0.379969 -0.102676 -0.065642
0.422805 -0.121095 -0.075495
0.466795 -0.140177 -0.086154
0.511548 -0.159583 -0.097363
0.556844 -0.179059 -0.108943
0.602474 -0.198374 -0.120688
0.648176 -0.217260 -0.132295
0.693660 -0.235306 -0.143312
0.738613 -0.252119 -0.153180
0.782791 -0.267359 -0.161372
0.826167 -0.280980 -0.167720
0.868653 -0.292711 -0.171843
0.910245 -0.302395 -0.173534
0.951008 -0.309931 -0.172682
0.990896 -0.314863 -0.168788
1.030052 -0.317325 -0.162059
1.068672 -0.317654 -0.152929
1.106915 -0.316205 -0.141824
1.144918 -0.313474 -0.129308
1.182803 -0.310073 -0.116061
-0.005140 0.098451 -0.026111
0.014105 0.084817 -0.025532
0.033949 0.071350 -0.025216
0.054937 0.058173 -0.025403
0.077510 0.045326 -0.026296
0.101982 0.032756 -0.028048
0.128536 0.020320 -0.030760
0.157237 0.007808 -0.034492
0.188065 -0.005019 -0.039269
0.220952 -0.018400 -0.045099
0.255725 -0.032487 -0.051935
0.292263 -0.047400 -0.059752
0.330793 -0.063370 -0.068722
0.371230 -0.080382 -0.078829
0.413544 -0.098355 -0.090066
0.457731 -0.117165 -0.102413
0.503435 -0.136514 -0.115605
0.550537 -0.156194 -0.129472
0.598843 -0.175994 -0.143783
0.648015 -0.195623 -0.158158
0.697738 -0.214657 -0.172036
0.747446 -0.232584 -0.184651
0.796582 -0.248908 -0.195240
0.844852 -0.263449 -0.203503
0.891966 -0.275806 -0.208900
0.937797 -0.285745 -0.211142
0.982315 -0.293096 -0.210071
1.025332 -0.297227 -0.204975
1.067020 -0.298228 -0.196060
1.107686 -0.296557 -0.183965
1.147589 -0.292719 -0.169337
1.186979 -0.287326 -0.152918
1.226107 -0.281113 -0.135559
-0.006937 0.130977 -0.034854
0.013081 0.115395 -0.033992
0.033579 0.100082 -0.033425
0.054996 0.085250 -0.033423
0.077699 0.071009 -0.034208
0.101955 0.057347 -0.035947
0.127939 0.044140 -0.038747
0.155736 0.031169 -0.042665
0.185374 0.018169 -0.047723
0.216855 0.004864 -0.053927
0.250096 -0.008952 -0.061226
0.285080 -0.023452 -0.069609
0.322182 -0.038907 -0.079292
0.361492 -0.055378 -0.090306
0.403200 -0.072872 -0.102710
0.447508 -0.091346 -0.116549
0.494090 -0.110541 -0.131546
0.542928 -0.130297 -0.147543
0.593839 -0.150417 -0.164282
0.646408 -0.170593 -0.181301
0.700291 -0.190383 -0.197933
0.754674 -0.209173 -0.213198
0.808691 -0.226330 -0.226102
0.861788 -0.241566 -0.236211
0.913483 -0.254368 -0.242828
0.963517 -0.264417 -0.245569
1.011765 -0.271462 -0.244214
1.057872 -0.274714 -0.237862
1.102020 -0.274251 -0.226763
1.144618 -0.270617 -0.211710
1.186044 -0.264430 -0.193525
1.226676 -0.256426 -0.173135
1.266901 -0.247470 -0.151599
-0.008792 0.163282 -0.043620
0.012062 0.146487 -0.042569
0.033275 0.130018 -0.041827
0.055180 0.114139 -0.041678
0.078063 0.099003 -0.042355
0.102148 0.084633 -0.044033
0.127593 0.070920 -0.046825
0.154508 0.057654 -0.050790
0.182967 0.044565 -0.055954
0.213045 0.031360 -0.062331
0.244746 0.017802 -0.069877
0.278162 0.003687 -0.078598
0.313814 -0.011287 -0.088765
0.351960 -0.027236 -0.100456
0.393006 -0.044244 -0.113803
0.437355 -0.062337 -0.128917
0.484711 -0.081296 -0.145509
0.535158 -0.101007 -0.163438
0.588532 -0.121291 -0.182422
0.644346 -0.141830 -0.201921
0.702242 -0.162177 -0.221170
0.761160 -0.181622 -0.238968
0.819919 -0.199400 -0.254074
0.877695 -0.215105 -0.265903
0.933793 -0.228110 -0.273576
0.987823 -0.238011 -0.276603
1.039563 -0.244505 -0.274716
1.088525 -0.246716 -0.266895
1.134932 -0.244757 -0.253504
1.179272 -0.239199 -0.235466
1.222009 -0.230687 -0.213707
1.263641 -0.220058 -0.189324
1.304708 -0.208319 -0.163577
-0.010705 0.195339 -0.052404
0.011139 0.178101 -0.051296
0.033225 0.161201 -0.050499
0.055782 0.144919 -0.050293
0.079017 0.129426 -0.050916
0.103108 0.114764 -0.052544
0.128199 0.100844 -0.055297
0.154414 0.087476 -0.059242
0.181874 0.074400 -0.064413
0.210719 0.061331 -0.070837
0.241039 0.048027 -0.078484
0.273027 0.034265 -0.087384
0.307338 0.019738 -0.097862
0.344389 0.004288 -0.110041
0.384785 -0.012223 -0.124122
0.429111 -0.029881 -0.140277
0.477104 -0.048502 -0.158203
0.528940 -0.068010 -0.177772
0.584472 -0.088243 -0.198674
0.643154 -0.108880 -0.220294
0.704615 -0.129463 -0.241763
0.767580 -0.149207 -0.261682
0.830597 -0.167245 -0.278591
0.892598 -0.183088 -0.291789
0.952709 -0.196025 -0.300259
1.010426 -0.205608 -0.303450
1.065435 -0.211491 -0.301057
1.117076 -0.212668 -0.291860
1.165523 -0.209171 -0.276163
1.211343 -0.201621 -0.255021
1.255141 -0.190798 -0.229594
1.297561 -0.177664 -0.201198
1.339276 -0.163321 -0.171263
-0.012668 0.227139 -0.061192
0.010384 0.210180 -0.060189
0.033572 0.193536 -0.059484
0.057032 0.177468 -0.059350
0.080897 0.162142 -0.060021
0.105298 0.147605 -0.061674
0.130363 0.133787 -0.064433
0.156225 0.120523 -0.068374
0.183039 0.107579 -0.073546
0.211000 0.094693 -0.079993
0.240272 0.081633 -0.087704
0.271135 0.068182 -0.096728
0.304347 0.054039 -0.107440
0.340463 0.039026 -0.120005
0.380257 0.022974 -0.134675
0.424473 0.005765 -0.151671
0.472890 -0.012447 -0.170677
0.525771 -0.031610 -0.191565
0.582997 -0.051572 -0.214001
0.643981 -0.072009 -0.237302
0.708361 -0.092454 -0.260509
0.774694 -0.112077 -0.282050
0.841304 -0.129946 -0.300283
0.906914 -0.145523 -0.314406
0.970490 -0.158039 -0.323274
1.031417 -0.167001 -0.326261
1.089279 -0.172024 -0.323020
1.143258 -0.172011 -0.312186
1.193496 -0.166983 -0.294097
1.240621 -0.157596 -0.269932
1.285324 -0.144690 -0.240993
1.328369 -0.129301 -0.208747
1.370562 -0.112612 -0.174789
-0.014665 0.258684 -0.069967
0.009824 0.242613 -0.069226
0.034362 0.226806 -0.068768
0.059007 0.211484 -0.068851
0.083830 0.196787 -0.069702
0.108919 0.182758 -0.071496
0.134384 0.169342 -0.074364
0.160360 0.156399 -0.078394
0.187023 0.143730 -0.083649
0.214610 0.131106 -0.090191
0.243341 0.118323 -0.098026
0.273562 0.105184 -0.107224
0.306107 0.091406 -0.118192
0.341634 0.076813 -0.131124
0.381048 0.061225 -0.146306
0.425215 0.044508 -0.163985
0.473953 0.026793 -0.183829
0.527601 0.008117 -0.205708
0.586069 -0.011378 -0.229264
0.648757 -0.031373 -0.253762
0.715326 -0.051394 -0.278163
0.784224 -0.070577 -0.300756
0.853605 -0.087940 -0.319744
0.922020 -0.102907 -0.334243
0.988301 -0.114663 -0.342997
1.051731 -0.122687 -0.345322
1.111806 -0.126573 -0.340843
1.167574 -0.125183 -0.328092
1.219172 -0.118574 -0.307488
1.267284 -0.107462 -0.280356
1.312665 -0.092715 -0.248096
1.356158 -0.075394 -0.212270
1.398675 -0.056727 -0.174599
-0.016674 0.289989 -0.078703
0.009430 0.275248 -0.078355
0.035520 0.260707 -0.078272
0.061598 0.246532 -0.078701
0.087686 0.232828 -0.079860
0.113838 0.219624 -0.081925
0.140146 0.206873 -0.085033
0.166740 0.194459 -0.089283
0.193806 0.182218 -0.094756
0.221603 0.169959 -0.101529
0.250389 0.157512 -0.109621
0.280550 0.144708 -0.119114
0.312959 0.131290 -0.130436
0.348336 0.117101 -0.143789
0.387665 0.101972 -0.159463
0.431889 0.085776 -0.177706
0.480864 0.068638 -0.198164
0.534983 0.050596 -0.220690
0.594185 0.031792 -0.244901
0.657879 0.012545 -0.270018
0.725764 -0.006661 -0.294935
0.796247 -0.024955 -0.317848
0.867404 -0.041350 -0.336871
0.937679 -0.055274 -0.351090
1.005823 -0.065906 -0.359185
1.071048 -0.072725 -0.360444
1.132774 -0.075334 -0.354492
1.189937 -0.072591 -0.339792
1.242611 -0.064548 -0.316779
1.291475 -0.051927 -0.286842
1.337334 -0.035628 -0.251489
1.381115 -0.016740 -0.212397
1.423819 0.003499 -0.171373
-0.018663 0.321079 -0.087368
0.009132 0.307925 -0.087491
0.036878 0.294904 -0.087865
0.064540 0.282125 -0.088726
0.092111 0.269654 -0.090287
0.119622 0.257504 -0.092727
0.147149 0.245627 -0.096189
0.174813 0.233929 -0.100788
0.202800 0.222276 -0.106617
0.231377 0.210513 -0.113768
0.260814 0.198505 -0.122268
0.291515 0.186115 -0.132203
0.324351 0.173117 -0.144003
0.360063 0.159381 -0.157856
0.399664 0.144767 -0.174028
0.444119 0.129174 -0.192739
0.493319 0.112730 -0.213607
0.547688 0.095491 -0.236450
0.607192 0.077603 -0.260859
0.671272 0.059388 -0.286028
0.739677 0.041342 -0.310790
0.810841 0.024325 -0.333304
0.882838 0.009296 -0.351656
0.954070 -0.003207 -0.364953
1.023249 -0.012388 -0.371855
1.089544 -0.017748 -0.371648
1.152307 -0.018917 -0.363967
1.210389 -0.014789 -0.347244
1.263800 -0.005443 -0.321949
1.313200 0.008393 -0.289529
1.359411 0.025824 -0.251546
1.403399 0.045775 -0.209730
1.446235 0.067041 -0.165936
-0.020597 0.351985 -0.095924
0.008844 0.340496 -0.096533
0.038224 0.329080 -0.097383
0.067494 0.317796 -0.098703
0.096637 0.306673 -0.100705
0.125673 0.295705 -0.103571
0.154667 0.284844 -0.107459
0.183736 0.274008 -0.112495
0.213062 0.263088 -0.118792
0.242910 0.251956 -0.126457
0.273555 0.240509 -0.135523
0.305399 0.228640 -0.146077
0.339293 0.216146 -0.158544
0.375961 0.202932 -0.173079
0.416376 0.188902 -0.189888
0.461460 0.173995 -0.209114
0.511100 0.158362 -0.230325
0.565467 0.142097 -0.253245
0.624634 0.125364 -0.277433
0.688941 0.108457 -0.302138
0.757325 0.091924 -0.326051
0.828221 0.076596 -0.347337
0.900029 0.063380 -0.364156
0.971182 0.052752 -0.375690
1.040397 0.045471 -0.380624
1.106819 0.042000 -0.378258
1.169758 0.042650 -0.368267
1.228041 0.048407 -0.349147
1.281694 0.059064 -0.321527
1.331424 0.073789 -0.287037
1.378092 0.091660 -0.247340
1.422656 0.111680 -0.204140
1.466135 0.132805 -0.159156
-0.022434 0.382744 -0.104328
0.008495 0.372852 -0.105377
0.039368 0.362988 -0.106660
0.070143 0.353169 -0.108404
0.100807 0.343396 -0.110820
0.131378 0.333648 -0.114096
0.161917 0.323875 -0.118400
0.192536 0.314005 -0.123874
0.223407 0.303946 -0.130643
0.254779 0.293596 -0.138823
0.286911 0.282877 -0.148447
0.320179 0.271708 -0.159590
0.355379 0.259915 -0.172654
0.393186 0.247436 -0.187748
0.434510 0.234215 -0.205006
0.480214 0.220233 -0.224497
0.530200 0.205657 -0.245755
0.584639 0.190602 -0.268470
0.643623 0.175249 -0.292170
0.707512 0.159925 -0.316053
0.775346 0.145150 -0.338842
0.845688 0.131703 -0.358764
0.917050 0.120418 -0.374038
0.987914 0.111689 -0.383928
1.057029 0.106200 -0.387157
1.123530 0.104360 -0.383055
1.186674 0.106429 -0.371317
1.245225 0.113311 -0.350455
1.299122 0.124789 -0.321103
1.349014 0.140069 -0.284889
1.395743 0.158279 -0.243475
1.440280 0.178484 -0.198564
1.483684 0.199713 -0.151873
-0.024126 0.413395 -0.112531
0.008050 0.404936 -0.113929
0.040189 0.396473 -0.115557
0.072269 0.387998 -0.117637
0.104287 0.379493 -0.120382
0.136271 0.370924 -0.123988
0.168286 0.362244 -0.128631
0.200440 0.353386 -0.134469
0.232896 0.344274 -0.141639
0.265886 0.334823 -0.150266
0.299644 0.324975 -0.160378
0.334509 0.314670 -0.172038
0.371216 0.303758 -0.185619
0.410368 0.292207 -0.201177
0.452784 0.280002 -0.218766
0.499247 0.267164 -0.238370
0.549662 0.253873 -0.259491
0.604191 0.240266 -0.281781
0.662936 0.226539 -0.304737
0.726265 0.213052 -0.327504
0.793329 0.200294 -0.348854
0.862839 0.188978 -0.367096
0.933433 0.179853 -0.380540
1.003670 0.173220 -0.388558
1.072346 0.169668 -0.389948
1.138603 0.169534 -0.384093
1.201667 0.173006 -0.370732
1.260267 0.180865 -0.348430
1.314267 0.192872 -0.317825
1.364252 0.208283 -0.280518
1.411034 0.226303 -0.238136
1.455578 0.246093 -0.192343
1.498960 0.266788 -0.144813
-0.025623 0.443979 -0.120481
0.007524 0.436740 -0.122111
0.040662 0.429481 -0.123965
0.073788 0.422179 -0.126261
0.106922 0.414806 -0.129212
0.140105 0.407325 -0.133018
0.173410 0.399690 -0.137867
0.206945 0.391844 -0.143926
0.240869 0.383721 -0.151344
0.275396 0.375250 -0.160254
0.310733 0.366388 -0.170684
0.347181 0.357091 -0.182683
0.385411 0.347235 -0.196596
0.425950 0.336809 -0.212428
0.469515 0.325835 -0.230155
0.516800 0.314367 -0.249685
0.567702 0.302596 -0.270491
0.622369 0.290672 -0.292194
0.680906 0.278806 -0.314269
0.743684 0.267377 -0.335818
0.809963 0.256837 -0.355659
0.878599 0.247821 -0.372186
0.948359 0.240981 -0.383804
1.017879 0.236521 -0.389997
1.086006 0.234929 -0.389650
1.151885 0.236464 -0.382199
1.214710 0.241251 -0.367420
1.273185 0.249922 -0.343955
1.327159 0.262186 -0.312520
1.377196 0.277332 -0.274732
1.424039 0.294684 -0.232109
1.468601 0.313549 -0.186178
1.511962 0.333194 -0.138548
-0.026873 0.474537 -0.128121
0.006979 0.468302 -0.129860
0.040847 0.462041 -0.131814
0.074756 0.455728 -0.134194
0.108743 0.449333 -0.137210
0.142867 0.442822 -0.141063
0.177210 0.436153 -0.145946
0.211888 0.429279 -0.152037
0.247054 0.422145 -0.159496
0.282909 0.414696 -0.168461
0.319637 0.406897 -0.178963
0.357502 0.398717 -0.191041
0.397119 0.390060 -0.205014
0.438942 0.380933 -0.220846
0.483592 0.371384 -0.238444
0.531674 0.361498 -0.257643
0.583075 0.351462 -0.277895
0.637926 0.341435 -0.298791
0.696332 0.331633 -0.319794
0.758662 0.322446 -0.339987
0.824274 0.314277 -0.358264
0.892157 0.307670 -0.373141
0.961196 0.303167 -0.383143
1.030102 0.300873 -0.387845
1.097776 0.301161 -0.386211
1.163373 0.304207 -0.377725
1.226071 0.310054 -0.362202
1.284538 0.319191 -0.338340
1.338508 0.331356 -0.306754
1.388451 0.345948 -0.268945
1.435122 0.362365 -0.226430
1.479478 0.380005 -0.180754
1.522621 0.398265 -0.133469
-0.027819 0.505110 -0.135392
0.006509 0.499689 -0.137127
0.040875 0.494245 -0.139064
0.075327 0.488753 -0.141402
0.109921 0.483188 -0.144344
0.144730 0.477524 -0.148088
0.179849 0.471727 -0.152828
0.215399 0.465763 -0.158748
0.251532 0.459590 -0.166016
0.288441 0.453164 -0.174778
0.326289 0.446463 -0.185069
0.365311 0.439465 -0.196922
0.406078 0.432105 -0.210641
0.448981 0.424405 -0.226159
0.494557 0.416433 -0.243336
0.543339 0.408295 -0.261959
0.595200 0.400166 -0.281467
0.650254 0.392206 -0.301439
0.708605 0.384625 -0.321332
0.770616 0.377814 -0.340226
0.835724 0.372117 -0.357078
0.903021 0.367979 -0.370498
0.971480 0.365830 -0.379114
1.039872 0.365681 -0.382573
1.107130 0.367791 -0.379911
1.172412 0.372259 -0.370651
1.234871 0.379058 -0.354624
1.293157 0.388522 -0.330608
1.347010 0.400359 -0.299277
1.396901 0.414037 -0.262127
1.443527 0.429087 -0.220548
1.487797 0.445060 -0.175943
1.530821 0.461504 -0.129783
-0.028404 0.535738 -0.142234
0.006223 0.530984 -0.143871
0.040908 0.526212 -0.145690
0.075713 0.521406 -0.147880
0.110710 0.516549 -0.150627
0.145986 0.511622 -0.154122
0.181645 0.506608 -0.158557
0.217811 0.501481 -0.164117
0.254640 0.496218 -0.170974
0.292318 0.490790 -0.179282
0.330993 0.485183 -0.189080
0.370878 0.479388 -0.200408
0.412513 0.473374 -0.213556
0.456239 0.467174 -0.228443
0.502531 0.460872 -0.244905
0.551865 0.454590 -0.262705
0.604100 0.448479 -0.281282
0.659339 0.442690 -0.300215
0.717683 0.437423 -0.318968
0.779493 0.433051 -0.336640
0.844261 0.429849 -0.352248
0.911158 0.428161 -0.364493
0.979225 0.428297 -0.372090
1.047278 0.430180 -0.374738
1.114278 0.433961 -0.371542
1.179389 0.439656 -0.362065
1.241753 0.447171 -0.346165
1.299991 0.456687 -0.322677
1.353752 0.467938 -0.292171
1.403440 0.480504 -0.256014
1.449779 0.494017 -0.215585
1.493733 0.508143 -0.172288
1.536431 0.522574 -0.127532
-0.028570 0.566465 -0.148586
0.006237 0.562273 -0.150051
0.041115 0.558072 -0.151677
0.076139 0.553854 -0.153634
0.111391 0.549612 -0.156091
0.146966 0.545338 -0.159227
0.182974 0.541026 -0.163226
0.219547 0.536670 -0.168268
0.256839 0.532258 -0.174530
0.295031 0.527782 -0.182169
0.334265 0.523238 -0.191236
0.374735 0.518628 -0.201774
0.416959 0.513960 -0.214071
0.461248 0.509278 -0.228047
0.508030 0.504678 -0.243536
0.557741 0.500292 -0.260296
0.610232 0.496240 -0.277779
0.665595 0.492660 -0.295571
0.723933 0.489733 -0.313158
0.785598 0.487806 -0.329670
0.850123 0.487084 -0.344177
0.916727 0.487800 -0.355458
0.984493 0.490144 -0.362307
1.052265 0.493956 -0.364453
1.119018 0.499275 -0.361055
1.183918 0.506043 -0.351704
1.246096 0.514109 -0.336265
1.304155 0.523508 -0.313629
1.357723 0.533986 -0.284332
1.407187 0.545227 -0.249665
1.453269 0.556982 -0.210933
1.496935 0.569049 -0.169471
1.539331 0.581266 -0.126618
-0.028264 0.597330 -0.154390
0.006654 0.593638 -0.155629
0.041650 0.589946 -0.157009
0.076808 0.586254 -0.158672
0.112217 0.582565 -0.160773
0.147977 0.578882 -0.163471
0.184204 0.575215 -0.166940
0.221028 0.571568 -0.171353
0.258604 0.567952 -0.176885
0.297112 0.564373 -0.183696
0.336684 0.560842 -0.191847
0.377506 0.557373 -0.201393
0.420081 0.554012 -0.212620
0.464697 0.550816 -0.225464
0.511755 0.547892 -0.239776
0.561665 0.545377 -0.255328
0.614274 0.543354 -0.271597
0.669668 0.541945 -0.288190
0.727948 0.541305 -0.304619
0.789470 0.541747 -0.320066
0.853791 0.543403 -0.333654
0.920173 0.546396 -0.344235
0.987740 0.550801 -0.350681
1.055370 0.556384 -0.352749
1.122068 0.563081 -0.349664
1.187011 0.570766 -0.341053
1.249295 0.579234 -0.326757
1.307412 0.588377 -0.305622
1.360821 0.597959 -0.277982
1.409817 0.607763 -0.244962
1.455169 0.617656 -0.207849
1.497966 0.627571 -0.168025
1.539446 0.637483 -0.126850
-0.027431 0.628374 -0.159589
0.007562 0.625152 -0.160569
0.042638 0.621937 -0.161664
0.077886 0.618737 -0.162998
0.113397 0.615565 -0.164701
0.149275 0.612436 -0.166917
0.185635 0.609370 -0.169802
0.222608 0.606388 -0.173523
0.260347 0.603516 -0.178248
0.299028 0.600780 -0.184139
0.338778 0.598202 -0.191269
0.379776 0.595810 -0.199704
0.422514 0.593691 -0.209733
0.467265 0.591912 -0.221316
0.514413 0.590588 -0.234330
0.564352 0.589860 -0.248577
0.616927 0.589776 -0.263564
0.672219 0.590434 -0.278923
0.730326 0.591962 -0.294197
0.791587 0.594633 -0.308625
0.855567 0.598503 -0.321367
0.921524 0.603588 -0.331317
0.988581 0.609849 -0.337388
1.055621 0.616993 -0.339309
1.121642 0.624865 -0.336312
1.185825 0.633282 -0.328018
1.247350 0.642001 -0.314345
1.304912 0.650794 -0.294413
1.358105 0.659433 -0.268680
1.407109 0.667781 -0.238071
1.452504 0.675810 -0.203580
1.495301 0.683578 -0.166441
1.536756 0.691202 -0.127977
-0.026025 0.659639 -0.164136
0.009031 0.656876 -0.164835
0.044173 0.654126 -0.165627
0.079490 0.651406 -0.166611
0.115077 0.648734 -0.167899
0.151035 0.646137 -0.169615
0.187479 0.643644 -0.171899
0.224537 0.641291 -0.174904
0.262359 0.639119 -0.178793
0.301115 0.637172 -0.183727
0.340928 0.635482 -0.189787
0.381973 0.634093 -0.197053
0.424728 0.633128 -0.205818
0.469460 0.632664 -0.216069
0.516542 0.632827 -0.227722
0.566357 0.633759 -0.240619
0.618754 0.635470 -0.254303
0.673816 0.638038 -0.268444
0.731642 0.641563 -0.282627
0.792579 0.646277 -0.296173
0.856211 0.652165 -0.308305
0.921829 0.659146 -0.317994
0.988589 0.667083 -0.324232
1.055400 0.675630 -0.326746
1.121249 0.684545 -0.324765
1.185213 0.693581 -0.317763
1.246318 0.702438 -0.305418
1.303206 0.710777 -0.286799
1.355632 0.718410 -0.262548
1.403887 0.725282 -0.233684
1.448545 0.731452 -0.201140
1.490605 0.737094 -0.166067
1.531319 0.742458 -0.129724
-0.024008 0.691162 -0.167993
0.011113 0.688861 -0.168397
0.046322 0.686579 -0.168874
0.081706 0.684338 -0.169502
0.117361 0.682164 -0.170372
0.153386 0.680091 -0.171590
0.189893 0.678156 -0.173279
0.227004 0.676409 -0.175580
0.264864 0.674902 -0.178647
0.303639 0.673696 -0.182638
0.343445 0.672832 -0.187642
0.384450 0.672368 -0.193752
0.427122 0.672460 -0.201263
0.471836 0.673235 -0.210250
0.518906 0.674809 -0.220645
0.568270 0.677176 -0.232112
0.620219 0.680461 -0.244454
0.674885 0.684738 -0.257397
0.732248 0.690042 -0.270511
0.792648 0.696565 -0.283185
0.855676 0.704224 -0.294682
0.920638 0.712852 -0.304028
0.986712 0.722224 -0.310273
1.052852 0.731958 -0.313156
1.118104 0.741749 -0.311992
1.181591 0.751300 -0.306302
1.242229 0.760235 -0.295583
1.298419 0.768053 -0.278571
1.349983 0.774621 -0.255920
1.397459 0.780023 -0.228904
1.441494 0.784416 -0.198505
1.483030 0.788066 -0.165763
1.523261 0.791325 -0.131828
-0.021351 0.722981 -0.171132
0.013842 0.721152 -0.171239
0.049122 0.719348 -0.171401
0.084578 0.717594 -0.171677
0.120302 0.715922 -0.172140
0.156391 0.714372 -0.172879
0.192952 0.712992 -0.174003
0.230102 0.711835 -0.175639
0.267978 0.710967 -0.177932
0.306736 0.710460 -0.181035
0.346488 0.710366 -0.185043
0.387395 0.710750 -0.190060
0.429908 0.711797 -0.196380
0.474389 0.713650 -0.204107
0.521146 0.716425 -0.213210
0.570121 0.720099 -0.223397
0.621598 0.724787 -0.234511
0.675708 0.730547 -0.246316
0.732432 0.737384 -0.258423
0.792099 0.745452 -0.270297
0.854310 0.754614 -0.281243
0.918389 0.764622 -0.290333
0.983532 0.775179 -0.296652
1.048723 0.785868 -0.299902
1.113031 0.796326 -0.299412
1.175604 0.806211 -0.294705
1.235383 0.815098 -0.285276
1.290800 0.822378 -0.269899
1.341678 0.827955 -0.249162
1.388540 0.832007 -0.224247
1.432019 0.834766 -0.196075
1.473040 0.836582 -0.165641
1.512777 0.837904 -0.134054
-0.018042 0.755124 -0.173544
0.017226 0.753778 -0.173359
0.052581 0.752461 -0.173214
0.088109 0.751202 -0.173153
0.123900 0.750039 -0.173234
0.160049 0.749016 -0.173531
0.196655 0.748183 -0.174139
0.233830 0.747605 -0.175171
0.271701 0.747353 -0.176763
0.310417 0.747508 -0.179062
0.350081 0.748128 -0.182167
0.390846 0.749288 -0.186188
0.433141 0.751192 -0.191417
0.477317 0.753993 -0.197980
0.523667 0.757812 -0.205883
0.572142 0.762606 -0.214872
0.623018 0.768484 -0.224828
0.676420 0.775490 -0.235552
0.732336 0.783602 -0.246694
0.791082 0.792943 -0.257793
0.852278 0.803328 -0.268203
0.915272 0.814449 -0.277049
0.979288 0.825944 -0.283457
1.043341 0.837373 -0.287100
1.106526 0.848321 -0.287309
1.168014 0.858411 -0.283602
1.226772 0.867173 -0.275453
1.281275 0.873902 -0.261662
1.331353 0.878539 -0.242756
1.377521 0.881341 -0.219840
1.420396 0.882605 -0.193790
1.460880 0.882754 -0.165556
1.500113 0.882321 -0.136208
-0.014081 0.787614 -0.175234
0.021261 0.786761 -0.174770
0.056688 0.785940 -0.174334
0.092285 0.785185 -0.173959
0.128139 0.784537 -0.173690
0.164340 0.784042 -0.173589
0.200981 0.783757 -0.173739
0.238167 0.783748 -0.174241
0.276016 0.784091 -0.175220
0.314666 0.784873 -0.176818
0.354211 0.786155 -0.179134
0.394795 0.788018 -0.182283
0.436823 0.790677 -0.186550
0.480626 0.794293 -0.192080
0.526486 0.798986 -0.198905
0.574358 0.804702 -0.206810
0.624508 0.811544 -0.215708
0.677059 0.819545 -0.225433
0.732001 0.828664 -0.235673
