Project4/NaturalBoost.cube
TITLE "NaturalBoost"
# Created by Photon 3D ColorGrading
DOMAIN_MIN 0 0 0
DOMAIN_MAX 1 1 1
LUT_3D_SIZE 5
0.000001 0.000001 0.000001
0.192578 -0.061619 -0.010872
0.523701 -0.200152 -0.055734
0.818942 -0.318974 -0.092223
1.091603 -0.359372 -0.070690
-0.014665 0.258684 -0.069967
0.187023 0.143730 -0.083649
0.473953 0.026793 -0.183829
0.988301 -0.114663 -0.342997
1.398675 -0.056727 -0.174599
-0.027819 0.505110 -0.135392
0.251532 0.459590 -0.166016
0.595200 0.400166 -0.281467
1.107130 0.367791 -0.379911
1.530821 0.461504 -0.129783
-0.018042 0.755124 -0.173544
0.271701 0.747353 -0.176763
0.623018 0.768484 -0.224828
1.106526 0.848321 -0.287309
1.500113 0.882321 -0.136208
0.027715 1.023645 -0.171717
0.316563 1.049525 -0.159347
0.633908 1.101588 -0.168195
1.017189 1.190028 -0.208423
1.354156 1.182510 -0.143019
-0.077876 -0.011022 0.276897
0.173419 -0.094958 0.259340
0.464478 -0.169935 0.255789
0.753100 -0.220978 0.264390
1.070947 -0.230858 0.312327
-0.125356 0.279703 0.215357
0.131032 0.139757 0.147656
0.474635 0.061898 0.119615
0.888232 0.049210 0.165202
1.326424 0.088518 0.283040
-0.172363 0.569366 0.121841
0.142875 0.461065 0.103660
0.533811 0.424552 0.088329
1.014705 0.457437 0.132426
1.440292 0.511956 0.268201
-0.161650 0.871033 0.054852
0.196654 0.805821 0.107984
0.563947 0.804970 0.128996
0.998283 0.857866 0.135426
1.366290 0.895957 0.240550
-0.048407 1.150380 0.078872
0.266771 1.149545 0.120817
0.578810 1.155483 0.141221
0.921267 1.179020 0.127775
1.280582 1.183830 0.125289
-0.153712 -0.023480 0.537256
0.089831 -0.138517 0.550145
0.406711 -0.173790 0.568872
0.737287 -0.177074 0.604394
1.081429 -0.175296 0.652427
-0.237506 0.292149 0.544423
0.063560 0.164632 0.490227
0.420611 0.126485 0.507092
0.813415 0.136115 0.567794
1.222699 0.132892 0.624631
-0.296662 0.632532 0.484875
0.071216 0.520798 0.467602
0.464856 0.474032 0.482781
0.890092 0.485798 0.532000
1.250753 0.507881 0.615779
-0.260056 0.970982 0.423594
0.132989 0.871253 0.454528
0.498269 0.824846 0.476583
0.879703 0.830658 0.495526
1.138693 0.891783 0.684172
-0.090423 1.212423 0.417519
0.216745 1.182872 0.454039
0.515284 1.150346 0.465095
0.827971 1.130248 0.448747
1.185825 1.141964 0.411156
-0.205002 -0.015738 0.798756
0.025043 -0.142841 0.873809
0.378025 -0.158319 0.912598
0.741062 -0.155133 0.945899
1.090253 -0.160268 0.968973
-0.300508 0.292047 0.862969
0.043886 0.209229 0.855493
0.410709 0.181469 0.864812
0.773586 0.167823 0.888526
1.145354 0.136070 0.920520
-0.379362 0.662205 0.879736
0.027625 0.570104 0.869723
0.423380 0.509734 0.845925
0.790147 0.479890 0.841145
1.136837 0.458641 0.858676
-0.353113 1.029527 0.838250
0.049875 0.919474 0.844181
0.427633 0.833810 0.820912
0.778766 0.789144 0.799402
1.069571 0.808066 0.874849
-0.193862 1.278857 0.771319
0.131317 1.210304 0.789484
0.447015 1.137401 0.778380
0.753680 1.082754 0.746773
1.087865 1.072343 0.703174
-0.218121 0.026255 1.077501
0.050788 -0.032309 1.164614
0.390287 -0.028379 1.177613
0.706851 -0.037861 1.182224
1.000846 -0.054953 1.180588
-0.303817 0.316546 1.184462
0.047799 0.267881 1.216021
0.419746 0.240529 1.188109
0.741618 0.211171 1.168278
1.037313 0.186377 1.153456
-0.382456 0.658746 1.252679
0.006946 0.587580 1.263836
0.412553 0.521131 1.185228
0.743995 0.476418 1.130443
1.043471 0.445718 1.108434
-0.383724 1.006484 1.225459
-0.020276 0.930632 1.247082
0.379174 0.826807 1.160986
0.716789 0.757813 1.086913
1.025158 0.717731 1.053810
-0.320173 1.317962 1.147544
0.028685 1.229220 1.141593
0.367474 1.142445 1.107381
0.688461 1.064991 1.054174
1.000000 1.000000 1.000000
