Project4/OrangeAndBlue.cube
TITLE "OrangeAndBlue"
# Created by Photon 3D ColorGrading
DOMAIN_MIN 0 0 0
DOMAIN_MAX 1 1 1
LUT_3D_SIZE 9
-0.000000 0.000000 0.000000
0.157660 -0.056283 -0.058609
0.318022 -0.113410 -0.117957
0.483972 -0.170772 -0.177283
0.658592 -0.225510 -0.233424
0.843080 -0.272382 -0.280814
1.032872 -0.304585 -0.312587
1.219917 -0.316379 -0.323314
1.400823 -0.310995 -0.316717
-0.029004 0.093914 -0.027690
0.149923 0.059346 -0.097778
0.338207 0.022696 -0.174259
0.541308 -0.017292 -0.258845
0.760133 -0.059701 -0.345874
0.989249 -0.099839 -0.421879
1.215399 -0.129642 -0.471445
1.426335 -0.142523 -0.485906
1.621810 -0.140973 -0.473500
-0.055719 0.188208 -0.052327
0.136659 0.172320 -0.127020
0.344553 0.154145 -0.213176
0.576448 0.131556 -0.315705
0.832542 0.103990 -0.428412
1.102389 0.074802 -0.532179
1.364737 0.051534 -0.603447
1.602327 0.040485 -0.629486
1.816612 0.040257 -0.620982
-0.077392 0.283834 -0.070675
0.117336 0.281821 -0.139639
0.332338 0.278446 -0.223183
0.579118 0.272070 -0.330069
0.859237 0.261700 -0.457076
1.159907 0.249018 -0.583760
1.454157 0.238731 -0.680771
1.719028 0.235015 -0.729366
1.955851 0.237299 -0.739951
-0.090888 0.382293 -0.079457
0.096950 0.389369 -0.133132
0.307604 0.396389 -0.201262
0.554333 0.403267 -0.296241
0.840876 0.410050 -0.421325
1.156492 0.417233 -0.560849
1.470860 0.425402 -0.682240
1.756461 0.434731 -0.760780
2.012702 0.444880 -0.802878
-0.093470 0.485082 -0.076095
0.082620 0.497966 -0.108327
0.281692 0.511449 -0.151722
0.516591 0.527497 -0.221259
0.792616 0.548654 -0.328399
1.103692 0.575643 -0.467165
1.419647 0.604167 -0.604417
1.711242 0.629465 -0.711275
1.975443 0.650814 -0.788170
-0.083989 0.592951 -0.059837
0.079409 0.610527 -0.068421
0.264071 0.627855 -0.083146
0.480290 0.649035 -0.120119
0.734253 0.680689 -0.199740
1.022623 0.724332 -0.323993
1.320377 0.770981 -0.464005
1.599523 0.811065 -0.589501
1.854874 0.843261 -0.694049
-0.063927 0.705329 -0.032647
0.087769 0.728302 -0.018235
0.257956 0.748578 -0.004980
0.453367 0.772335 -0.009339
0.678635 0.811008 -0.057326
0.932592 0.866820 -0.157042
1.196402 0.926522 -0.286414
1.446472 0.976972 -0.417301
1.678375 1.017455 -0.539393
-0.037633 0.820326 0.000822
0.103447 0.849919 0.036957
0.259688 0.873350 0.076163
0.434385 0.899308 0.101270
0.628873 0.943435 0.084813
0.842731 1.007430 0.016514
1.063623 1.075088 -0.092743
1.275210 1.131753 -0.219868
1.475704 1.178367 -0.352992
-0.045369 -0.040642 0.123034
0.106546 -0.074940 0.072130
0.259001 -0.110526 0.024743
0.414415 -0.146522 -0.018056
0.576729 -0.179486 -0.054577
0.747432 -0.204902 -0.081983
0.924970 -0.217942 -0.096390
1.104573 -0.216492 -0.096343
1.283057 -0.203427 -0.085026
-0.075601 0.071642 0.104444
0.095453 0.047984 0.046106
0.273177 0.023350 -0.014092
0.462012 -0.002188 -0.076181
0.663649 -0.027238 -0.136070
0.872713 -0.048397 -0.184981
1.080751 -0.060873 -0.213470
1.280451 -0.061972 -0.218938
1.471463 -0.053755 -0.207354
-0.099762 0.182188 0.083995
0.083834 0.168816 0.024978
0.279920 0.154814 -0.040827
0.495440 0.140128 -0.115860
0.730865 0.125020 -0.195541
0.974868 0.111237 -0.266080
1.212684 0.102272 -0.312601
1.434276 0.100671 -0.330263
1.641154 0.105364 -0.326564
-0.114750 0.291340 0.064936
0.072701 0.287200 0.014243
0.276906 0.282746 -0.046316
0.507340 0.278482 -0.122760
0.765211 0.274960 -0.213727
1.035645 0.272410 -0.303710
1.299120 0.271856 -0.372996
1.543059 0.274254 -0.413101
1.768902 0.279293 -0.430155
-0.118895 0.401613 0.053199
0.065389 0.405017 0.018287
0.268061 0.408229 -0.026860
0.500216 0.412516 -0.091743
0.764696 0.419888 -0.181396
1.046805 0.430329 -0.282978
1.325863 0.442428 -0.375656
1.586998 0.454489 -0.445640
1.830808 0.465971 -0.495704
-0.110457 0.515848 0.053532
0.066257 0.524924 0.038397
0.260390 0.533598 0.014839
0.482647 0.543849 -0.028675
0.737563 0.559626 -0.104317
1.014007 0.581929 -0.206300
1.293098 0.607786 -0.315672
1.559787 0.633009 -0.414831
1.813288 0.656278 -0.501589
-0.088766 0.635422 0.067752
0.077970 0.648780 0.072374
0.259602 0.661104 0.071184
0.465545 0.675467 0.051032
0.699125 0.697574 -0.003379
0.954306 0.729333 -0.094069
1.216899 0.766723 -0.207656
1.473440 0.803975 -0.325648
1.721418 0.839259 -0.440540
-0.055721 0.759664 0.094064
0.099703 0.777047 0.115655
0.266826 0.792154 0.134106
0.452126 0.809458 0.136273
0.658901 0.837269 0.103951
0.884956 0.877710 0.030311
1.119765 0.923878 -0.076017
1.351121 0.967920 -0.197583
1.576476 1.008898 -0.324393
-0.016068 0.886476 0.127389
0.127376 0.908384 0.163219
0.279297 0.926332 0.198307
0.442746 0.946471 0.219915
0.620779 0.980302 0.208335
0.815022 1.029838 0.153726
1.017257 1.083288 0.061299
1.214759 1.129106 -0.052826
1.405566 1.168158 -0.178155
-0.092189 -0.080899 0.247518
0.058687 -0.095244 0.202308
0.207962 -0.111114 0.164547
0.357471 -0.127569 0.135841
0.511313 -0.141047 0.116176
0.671941 -0.147354 0.105912
0.839385 -0.142718 0.106734
1.010574 -0.126936 0.117503
1.182892 -0.103438 0.134728
-0.128652 0.048722 0.242934
0.039969 0.036597 0.193694
0.212722 0.024369 0.146284
0.392538 0.012991 0.102640
0.580513 0.004193 0.065966
0.773155 -0.000025 0.040145
0.965314 0.002827 0.029387
1.153030 0.013249 0.032763
1.336583 0.028956 0.045029
-0.155090 0.175820 0.230856
0.025381 0.167537 0.184434
0.215624 0.159793 0.134585
0.420261 0.153852 0.081677
0.638106 0.150635 0.030194
0.860022 0.150140 -0.012241
1.076088 0.153066 -0.038218
1.281291 0.159630 -0.047624
1.478161 0.168799 -0.046464
-0.166419 0.299533 0.213356
0.018714 0.296907 0.177415
0.217566 0.294587 0.134872
0.437173 0.294194 0.082557
0.674896 0.297002 0.022750
0.918826 0.302319 -0.035688
1.155224 0.308716 -0.081929
1.378014 0.315224 -0.112829
1.590442 0.321654 -0.133178
-0.161342 0.422123 0.198964
0.022969 0.425791 0.178454
0.221859 0.428970 0.150847
0.443775 0.433164 0.109536
0.687237 0.440863 0.051401
0.940250 0.452497 -0.017714
1.188630 0.465756 -0.086113
1.425540 0.477823 -0.145930
1.653309 0.488202 -0.198156
-0.139628 0.547283 0.195473
0.039664 0.556321 0.192022
0.231673 0.563971 0.182523
0.444656 0.571362 0.158528
0.678939 0.582062 0.111408
0.925444 0.598585 0.040728
1.172910 0.619689 -0.044668
1.415206 0.641644 -0.133464
1.652634 0.662680 -0.221214
-0.102303 0.677100 0.206372
0.068098 0.689759 0.218168
0.248080 0.700402 0.225241
0.444484 0.710202 0.218654
0.659074 0.723561 0.186499
0.886637 0.744083 0.122814
1.119907 0.771688 0.031267
1.354256 0.803063 -0.076231
1.588657 0.835840 -0.191035
-0.052665 0.811044 0.230251
0.105388 0.826088 0.253224
0.269858 0.838738 0.272624
0.445576 0.851061 0.279554
0.635443 0.868803 0.260829
0.838281 0.895378 0.207637
1.049150 0.928751 0.120353
1.262515 0.964487 0.010095
1.476587 1.001080 -0.112925
0.003784 0.947134 0.261716
0.147348 0.964267 0.292467
0.294487 0.978660 0.320713
0.447743 0.993918 0.337594
0.611189 1.017920 0.329533
0.788216 1.053614 0.286578
0.974282 1.093716 0.208844
1.159084 1.128946 0.107627
1.339721 1.159114 -0.007073
-0.141029 -0.119841 0.375458
0.015770 -0.116935 0.332913
0.168873 -0.115366 0.301303
0.319318 -0.114460 0.283708
0.471022 -0.111135 0.277503
0.626909 -0.101443 0.280954
0.787065 -0.082481 0.293052
0.949492 -0.053666 0.312027
1.112319 -0.018562 0.334656
-0.191872 0.024519 0.391459
-0.017646 0.024282 0.347803
0.158757 0.024863 0.308074
0.338077 0.027576 0.277125
0.519541 0.033389 0.257112
0.701383 0.043292 0.248343
0.881076 0.058228 0.249984
1.056803 0.078285 0.259790
1.229481 0.101558 0.273811
-0.229945 0.168037 0.394892
-0.044271 0.167156 0.357443
0.149754 0.167893 0.317304
0.353524 0.172086 0.278033
0.561854 0.179819 0.245261
0.768016 0.190014 0.222545
0.966686 0.201607 0.210447
1.156118 0.214058 0.207059
1.339572 0.226970 0.208198
-0.245834 0.308718 0.384587
-0.055755 0.310590 0.359961
0.147102 0.313403 0.328585
0.365621 0.318812 0.290188
0.592704 0.327527 0.249767
0.817636 0.338154 0.212725
1.032596 0.348237 0.182402
1.235570 0.356241 0.159076
1.430946 0.362618 0.139839
-0.235156 0.446448 0.369651
-0.045358 0.453108 0.359686
0.157545 0.459234 0.342489
0.378010 0.465627 0.314100
0.610026 0.473956 0.274715
0.842478 0.484656 0.227389
1.066926 0.495691 0.177049
1.280975 0.504480 0.127702
1.488243 0.510963 0.080162
-0.198218 0.583654 0.361039
-0.012519 0.594684 0.364254
0.183162 0.603860 0.361616
0.393680 0.610877 0.347339
0.615865 0.617926 0.316462
0.841644 0.627932 0.266545
1.064720 0.641307 0.200543
1.283275 0.655765 0.124962
1.498719 0.669617 0.046048
-0.139509 0.722355 0.365276
0.036610 0.735853 0.378437
0.219080 0.746763 0.387009
0.411737 0.754474 0.384948
0.614180 0.761358 0.364474
0.822380 0.771488 0.318580
1.033077 0.787443 0.246260
1.245620 0.808564 0.153382
1.459422 0.832082 0.050473
-0.066232 0.862706 0.382710
0.094909 0.876757 0.401389
0.259237 0.888192 0.416481
0.429593 0.897157 0.421887
0.607854 0.906762 0.408973
0.793833 0.920817 0.369116
0.985825 0.940803 0.299158
1.181858 0.965414 0.203391
1.379814 0.992184 0.093577
0.013693 1.003892 0.408016
0.156597 1.017599 0.429155
0.300165 1.028881 0.447372
0.446237 1.039508 0.456606
0.598744 1.054191 0.448133
0.761703 1.076233 0.413434
0.933538 1.102821 0.349923
1.107127 1.127555 0.262002
1.278304 1.148612 0.160641
-0.191276 -0.156036 0.509403
-0.022411 -0.138101 0.468120
0.141280 -0.120564 0.440065
0.299317 -0.103838 0.428964
0.454732 -0.086235 0.432199
0.610433 -0.064295 0.445393
0.766494 -0.034843 0.465135
0.921199 0.002943 0.488359
1.074049 0.046397 0.512897
-0.265133 -0.000934 0.551564
-0.077334 0.010842 0.511011
0.111516 0.024734 0.474949
0.299088 0.041178 0.449365
0.482236 0.059763 0.437961
0.659548 0.080496 0.438905
0.830486 0.104029 0.447957
0.995288 0.130597 0.460960
1.156016 0.159245 0.475350
-0.326390 0.157525 0.579007
-0.126422 0.165195 0.547119
0.081681 0.175789 0.510839
0.295286 0.190517 0.475314
0.505100 0.208217 0.449265
0.703956 0.226545 0.435500
0.890003 0.243954 0.430800
1.065176 0.260098 0.430582
1.234029 0.275449 0.431914
-0.360047 0.317889 0.585644
-0.156375 0.324924 0.569049
0.060848 0.333672 0.542025
0.290853 0.345326 0.505576
0.520873 0.359430 0.468912
0.738058 0.373612 0.439233
0.938039 0.385237 0.416862
1.123561 0.393236 0.398508
1.300924 0.398728 0.381695
-0.353594 0.476359 0.576439
-0.151363 0.485352 0.574474
0.064787 0.493967 0.561015
0.296385 0.502328 0.532899
0.532122 0.510909 0.494777
0.757597 0.519562 0.453538
0.966391 0.526702 0.412368
1.160554 0.530707 0.371665
1.346385 0.532098 0.331301
-0.303891 0.630417 0.562660
-0.106845 0.641385 0.570363
0.100423 0.650345 0.568402
0.319635 0.656168 0.552374
0.544065 0.659463 0.521354
0.763066 0.662625 0.477073
0.970941 0.667012 0.421842
1.168684 0.671713 0.359178
1.360661 0.675818 0.293196
-0.219343 0.779416 0.554859
-0.032980 0.790549 0.566627
0.158170 0.799184 0.571779
0.355915 0.803536 0.565549
0.557766 0.804082 0.543875
0.758482 0.804333 0.503399
0.955088 0.808071 0.442733
1.148219 0.816118 0.365523
1.339652 0.826591 0.279555
-0.115066 0.924640 0.558036
0.053459 0.933980 0.569872
0.223045 0.941019 0.577226
0.394931 0.944576 0.575839
0.569784 0.945740 0.560520
0.747181 0.947928 0.525514
0.926515 0.954439 0.466853
1.107126 0.965737 0.386739
1.288178 0.979681 0.294103
-0.004054 1.068427 0.569693
0.142651 1.074441 0.578704
0.287784 1.078820 0.585079
0.432014 1.081766 0.585027
0.578610 1.085770 0.572906
0.731698 1.094017 0.542277
0.892235 1.106782 0.488993
1.056102 1.120457 0.414684
1.219264 1.132419 0.327560
-0.241603 -0.188043 0.651832
-0.056194 -0.156156 0.611162
0.123203 -0.123136 0.583835
0.293638 -0.091131 0.575643
0.456598 -0.061006 0.584107
0.614815 -0.030197 0.602893
0.768748 0.004892 0.626091
0.917489 0.046137 0.649756
1.062128 0.091943 0.672591
-0.345758 -0.026247 0.725058
-0.137754 -0.002266 0.685330
0.070512 0.025124 0.648437
0.273346 0.055033 0.621967
0.464453 0.084696 0.611567
0.642129 0.113133 0.615172
0.807765 0.141372 0.626213
0.963766 0.170635 0.639164
1.114042 0.200977 0.651847
-0.440183 0.144625 0.784726
-0.217732 0.161367 0.754518
0.013076 0.182066 0.715977
0.245831 0.207091 0.675095
0.466020 0.233333 0.644571
0.665019 0.257428 0.629519
0.843627 0.278079 0.625237
1.007422 0.295808 0.625003
1.163428 0.311956 0.625395
-0.505622 0.325813 0.819921
-0.280149 0.337503 0.807273
-0.038530 0.351412 0.777113
0.214541 0.368295 0.730743
0.459639 0.386544 0.683014
0.679438 0.403010 0.647184
0.872085 0.415244 0.623593
1.044086 0.422697 0.606434
1.206128 0.427290 0.590943
-0.517055 0.510482 0.825928
-0.295748 0.519695 0.829162
-0.057086 0.528192 0.812723
0.198254 0.535857 0.772165
0.452428 0.542853 0.718248
0.684514 0.548823 0.666522
0.887930 0.552382 0.623435
1.067789 0.552271 0.586504
1.236174 0.549564 0.551595
-0.462925 0.688184 0.809448
-0.249557 0.695576 0.820258
-0.023750 0.700290 0.814620
0.215789 0.700685 0.785822
0.457589 0.697366 0.738131
0.685150 0.692915 0.682339
0.889799 0.688960 0.626149
1.073854 0.684959 0.570761
1.247426 0.680365 0.515467
-0.353745 0.852522 0.784529
-0.153440 0.857028 0.794756
0.052314 0.858479 0.793984
0.265155 0.854299 0.775494
0.479791 0.844900 0.739324
0.686991 0.834054 0.689642
0.880859 0.825801 0.630330
1.062030 0.821327 0.563396
1.236437 0.819012 0.492248
-0.215994 1.006162 0.765088
-0.035064 1.005652 0.769799
0.146391 1.002545 0.767808
0.328787 0.994985 0.754414
0.510915 0.983806 0.727854
0.690355 0.972531 0.687488
0.865588 0.964962 0.632698
1.036650 0.962377 0.563996
1.205149 0.962700 0.487036
-0.071934 1.156444 0.754945
0.087199 1.148131 0.750449
0.242903 1.138482 0.743308
0.394145 1.127497 0.731162
0.542950 1.116907 0.711168
0.693039 1.109461 0.679384
0.847124 1.106785 0.632051
1.004220 1.107325 0.568709
1.161673 1.108379 0.495089
-0.290776 -0.215053 0.804130
-0.086300 -0.169572 0.764760
0.111768 -0.120880 0.736317
0.297635 -0.073091 0.726141
0.469459 -0.031262 0.734899
0.630701 0.005872 0.754528
0.782962 0.042360 0.777615
0.927423 0.081368 0.799409
1.066477 0.123034 0.819102
-0.428872 -0.049821 0.913025
-0.195494 -0.012939 0.871308
0.036531 0.028162 0.829636
0.258361 0.071095 0.796189
0.459757 0.110298 0.780278
0.640257 0.143949 0.780049
0.802698 0.173562 0.788632
0.952625 0.201763 0.799135
1.095510 0.229848 0.809030
-0.561629 0.130882 1.011481
-0.309005 0.157439 0.976903
-0.049735 0.188135 0.929968
0.206546 0.222273 0.876327
0.440523 0.255219 0.833047
0.643997 0.283093 0.808324
0.818966 0.304881 0.798844
0.975374 0.322403 0.795754
1.122356 0.337771 0.794132
-0.665864 0.332293 1.083503
-0.409019 0.348213 1.066190
-0.136814 0.366073 1.025713
0.144265 0.386206 0.961158
0.408603 0.406684 0.892431
0.637507 0.424313 0.839813
0.827924 0.436586 0.807911
0.992596 0.443880 0.787765
1.144490 0.448179 0.771833
-0.706013 0.545167 1.113509
-0.457458 0.552575 1.114280
-0.190163 0.558430 1.087948
0.094834 0.562365 1.026348
0.373993 0.565293 0.944597
0.621486 0.567933 0.869731
0.826804 0.568956 0.815236
1.000948 0.567048 0.775874
1.158965 0.562775 0.743156
-0.658782 0.751088 1.098687
-0.425294 0.752344 1.108839
-0.176867 0.749469 1.095404
0.089432 0.740148 1.046580
0.358153 0.726200 0.969323
0.605492 0.712792 0.887842
0.817048 0.702174 0.818785
0.998418 0.692761 0.762453
1.162764 0.683179 0.712775
-0.534284 0.936962 1.055030
-0.320034 0.932839 1.064120
-0.097324 0.923663 1.056129
0.137244 0.905823 1.020171
0.375520 0.880964 0.958082
0.601848 0.856205 0.885771
0.805011 0.836605 0.815244
0.986302 0.821992 0.749712
1.154042 0.810005 0.687285
-0.371393 1.107328 1.008769
-0.177197 1.095065 1.007758
0.019739 1.078118 0.996072
0.220380 1.053881 0.966961
0.420644 1.024357 0.920648
0.614167 0.995577 0.864412
0.796625 0.972405 0.802840
0.968602 0.955364 0.738109
1.133591 0.942101 0.671305
-0.203766 1.275031 0.973723
-0.026386 1.249442 0.955405
0.147961 1.220927 0.933048
0.316286 1.189885 0.905404
0.477964 1.158967 0.872178
0.635506 1.131216 0.832508
0.792002 1.109066 0.784159
0.948922 1.091761 0.726922
1.105923 1.076960 0.663181
-0.338309 -0.237473 0.965536
-0.113787 -0.178597 0.928684
0.104038 -0.113768 0.897974
0.305806 -0.049583 0.882109
0.486917 0.004480 0.884767
0.650256 0.046658 0.900500
0.800677 0.081459 0.920757
0.942031 0.113693 0.940123
1.078297 0.145668 0.957639
-0.509247 -0.070684 1.112873
-0.247450 -0.020236 1.066367
0.009485 0.034632 1.016973
0.249278 0.089661 0.973308
0.461479 0.137498 0.945899
0.644999 0.174833 0.936666
0.805810 0.203696 0.939268
0.951941 0.228023 0.946192
1.090870 0.250728 0.953667
-0.679328 0.117877 1.253286
-0.391833 0.154812 1.208402
-0.102518 0.194976 1.148128
0.175444 0.236537 1.078031
0.423263 0.274540 1.016525
0.631872 0.304719 0.976874
0.806348 0.326578 0.957776
0.958847 0.342780 0.949975
1.101172 0.356456 0.946023
-0.823540 0.337404 1.366461
-0.529686 0.357185 1.336907
-0.223958 0.377922 1.278834
0.083711 0.399498 1.190675
0.367051 0.420521 1.095991
0.605313 0.438306 1.021683
0.798138 0.450791 0.976000
0.959948 0.458446 0.950109
1.107368 0.463518 0.932500
-0.897072 0.577299 1.424890
-0.616633 0.581770 1.416572
-0.317234 0.583293 1.372613
-0.001746 0.581325 1.282483
0.302670 0.578543 1.168011
0.566009 0.577427 1.064889
0.778882 0.577114 0.992440
0.953103 0.575590 0.946395
1.108170 0.572671 0.913145
-0.867129 0.812681 1.415662
-0.612881 0.807131 1.423544
-0.339882 0.794906 1.397658
-0.042814 0.772517 1.319508
0.255791 0.745608 1.206604
0.525769 0.722624 1.092868
0.752147 0.706645 1.002437
0.938026 0.695141 0.939134
1.102759 0.684768 0.890249
-0.739232 1.024053 1.354110
-0.516000 1.012925 1.366534
-0.276754 0.992070 1.350379
-0.015517 0.956506 1.289605
0.252350 0.912712 1.195103
0.504335 0.871967 1.091879
0.726920 0.840796 1.000437
0.918151 0.818586 0.928037
1.090887 0.800394 0.867480
-0.565304 1.218536 1.281703
-0.364582 1.198964 1.282095
-0.153152 1.168393 1.261972
0.070757 1.123783 1.212301
0.297055 1.071672 1.140359
0.514027 1.021521 1.059866
0.715383 0.979587 0.982077
0.899722 0.946899 0.912158
1.073310 0.919251 0.847896
-0.390528 1.414290 1.224537
-0.199094 1.378260 1.198591
-0.004817 1.332305 1.162117
0.186698 1.278482 1.115956
0.370766 1.222566 1.064196
0.547050 1.169080 1.009125
0.717803 1.120957 0.951694
0.885612 1.078704 0.892278
1.052262 1.039996 0.831528
-0.384671 -0.257118 1.132554
-0.140034 -0.184793 1.099352
0.098447 -0.103469 1.065129
0.316218 -0.022012 1.040295
0.505605 0.044570 1.033509
0.670183 0.091328 1.042304
0.818293 0.122763 1.058426
0.957360 0.145532 1.075740
1.092478 0.164666 1.092471
-0.585555 -0.090528 1.319241
-0.293997 -0.025136 1.265657
-0.011820 0.043499 1.206926
0.244743 0.110078 1.150720
0.465884 0.165928 1.109408
0.652057 0.206373 1.088303
0.811536 0.233396 1.083296
0.955315 0.252380 1.086440
1.092268 0.268043 1.092263
-0.790584 0.104785 1.502652
-0.465819 0.153164 1.443251
-0.146849 0.202227 1.367317
0.150530 0.250099 1.278696
0.410096 0.292311 1.196898
0.623790 0.324291 1.139542
0.798838 0.345771 1.108794
0.949403 0.360203 1.095645
1.089549 0.371825 1.089547
-0.972632 0.341285 1.657563
-0.639270 0.364915 1.610934
-0.300371 0.387762 1.532456
0.031984 0.409756 1.417584
0.331741 0.430549 1.294908
0.578854 0.448184 1.196742
0.775280 0.460988 1.135170
0.936726 0.469531 1.102493
1.082837 0.476149 1.082835
-1.080094 0.606440 1.745463
-0.766409 0.607771 1.724299
-0.434786 0.604262 1.659603
-0.088888 0.595350 1.536216
0.238830 0.586255 1.386486
0.516945 0.581370 1.253555
0.738373 0.580350 1.160981
0.915625 0.580634 1.106652
1.071751 0.580891 1.071750
-1.069866 0.869925 1.741963
-0.797762 0.858439 1.746963
-0.500002 0.836291 1.705644
-0.170884 0.799711 1.594471
0.157428 0.759150 1.442913
0.449731 0.726618 1.295023
0.691221 0.706184 1.181175
0.886573 0.694387 1.107383
1.056877 0.685794 1.056876
-0.948485 1.108211 1.665040
-0.722678 1.092975 1.684500
-0.467695 1.060414 1.659451
-0.177278 1.005788 1.570491
0.122343 0.941852 1.439862
0.402040 0.884474 1.302693
0.646526 0.842001 1.186738
0.854475 0.813028 1.102277
1.039264 0.790646 1.039263
-0.775299 1.330319 1.568969
-0.576680 1.309328 1.577438
-0.353294 1.267153 1.550897
-0.103884 1.201389 1.478764
0.152099 1.124993 1.377599
0.397297 1.051460 1.268710
0.623512 0.988903 1.169178
0.828768 0.938636 1.087800
1.020002 0.895369 1.020002
-0.604419 1.557928 1.491660
-0.409183 1.522000 1.467247
-0.198857 1.463758 1.420585
0.017489 1.387671 1.355288
0.228651 1.304959 1.281826
0.430831 1.222170 1.206396
0.624821 1.143228 1.133209
0.813467 1.069714 1.064716
1.000002 1.000000 1.000001
