Project4/OrangeAndBlue.cube
TITLE "OrangeAndBlue"
# Created by Photon 3D ColorGrading
DOMAIN_MIN 0 0 0
DOMAIN_MAX 1 1 1
LUT_3D_SIZE 5
-0.000000 0.000000 0.000000
0.318022 -0.113410 -0.117957
0.658592 -0.225510 -0.233424
1.032872 -0.304585 -0.312587
1.400823 -0.310995 -0.316717
-0.055719 0.188208 -0.052327
0.344553 0.154145 -0.213176
0.832542 0.103990 -0.428412
1.364737 0.051534 -0.603447
1.816612 0.040257 -0.620982
-0.090888 0.382293 -0.079457
0.307604 0.396389 -0.201262
0.840876 0.410050 -0.421325
1.470860 0.425402 -0.682240
2.012702 0.444880 -0.802878
-0.083989 0.592951 -0.059837
0.264071 0.627855 -0.083146
0.734253 0.680689 -0.199740
1.320377 0.770981 -0.464005
1.854874 0.843261 -0.694049
-0.037633 0.820326 0.000822
0.259688 0.873350 0.076163
0.628873 0.943435 0.084813
1.063623 1.075088 -0.092743
1.475704 1.178367 -0.352992
-0.092189 -0.080899 0.247518
0.207962 -0.111114 0.164547
0.511313 -0.141047 0.116176
0.839385 -0.142718 0.106734
1.182892 -0.103438 0.134728
-0.155090 0.175820 0.230856
0.215624 0.159793 0.134585
0.638106 0.150635 0.030194
1.076088 0.153066 -0.038218
1.478161 0.168799 -0.046464
-0.161342 0.422123 0.198964
0.221859 0.428970 0.150847
0.687237 0.440863 0.051401
1.188630 0.465756 -0.086113
1.653309 0.488202 -0.198156
-0.102303 0.677100 0.206372
0.248080 0.700402 0.225241
0.659074 0.723561 0.186499
1.119907 0.771688 0.031267
1.588657 0.835840 -0.191035
0.003784 0.947134 0.261716
0.294487 0.978660 0.320713
0.611189 1.017920 0.329533
0.974282 1.093716 0.208844
1.339721 1.159114 -0.007073
-0.191276 -0.156036 0.509403
0.141280 -0.120564 0.440065
0.454732 -0.086235 0.432199
0.766494 -0.034843 0.465135
1.074049 0.046397 0.512897
-0.326390 0.157525 0.579007
0.081681 0.175789 0.510839
0.505100 0.208217 0.449265
0.890003 0.243954 0.430800
1.234029 0.275449 0.431914
-0.353594 0.476359 0.576439
0.064787 0.493967 0.561015
0.532122 0.510909 0.494777
0.966391 0.526702 0.412368
1.346385 0.532098 0.331301
-0.219343 0.779416 0.554859
0.158170 0.799184 0.571779
0.557766 0.804082 0.543875
0.955088 0.808071 0.442733
1.339652 0.826591 0.279555
-0.004054 1.068427 0.569693
0.287784 1.078820 0.585079
0.578610 1.085770 0.572906
0.892235 1.106782 0.488993
1.219264 1.132419 0.327560
-0.290776 -0.215053 0.804130
0.111768 -0.120880 0.736317
0.469459 -0.031262 0.734899
0.782962 0.042360 0.777615
1.066477 0.123034 0.819102
-0.561629 0.130882 1.011481
-0.049735 0.188135 0.929968
0.440523 0.255219 0.833047
0.818966 0.304881 0.798844
1.122356 0.337771 0.794132
-0.706013 0.545167 1.113509
-0.190163 0.558430 1.087948
0.373993 0.565293 0.944597
0.826804 0.568956 0.815236
1.158965 0.562775 0.743156
-0.534284 0.936962 1.055030
-0.097324 0.923663 1.056129
0.375520 0.880964 0.958082
0.805011 0.836605 0.815244
1.154042 0.810005 0.687285
-0.203766 1.275031 0.973723
0.147961 1.220927 0.933048
0.477964 1.158967 0.872178
0.792002 1.109066 0.784159
1.105923 1.076960 0.663181
-0.384671 -0.257118 1.132554
0.098447 -0.103469 1.065129
0.505605 0.044570 1.033509
0.818293 0.122763 1.058426
1.092478 0.164666 1.092471
-0.790584 0.104785 1.502652
-0.146849 0.202227 1.367317
0.410096 0.292311 1.196898
0.798838 0.345771 1.108794
1.089549 0.371825 1.089547
-1.080094 0.606440 1.745463
-0.434786 0.604262 1.659603
0.238830 0.586255 1.386486
0.738373 0.580350 1.160981
1.071751 0.580891 1.071750
-0.948485 1.108211 1.665040
-0.467695 1.060414 1.659451
0.122343 0.941852 1.439862
0.646526 0.842001 1.186738
1.039264 0.790646 1.039263
-0.604419 1.557928 1.491660
-0.198857 1.463758 1.420585
0.228651 1.304959 1.281826
0.624821 1.143228 1.133209
1.000002 1.000000 1.000001
