Project4/OrangeAndBlue.cube
TITLE "OrangeAndBlue"
# Created by Photon 3D ColorGrading
DOMAIN_MIN 0 0 0
DOMAIN_MAX 1 1 1
LUT_3D_SIZE 33
-0.000000 0.000000 0.000000
0.039314 -0.014024 -0.014609
0.078667 -0.028068 -0.029237
0.118102 -0.042149 -0.043900
0.157660 -0.056283 -0.058609
0.197385 -0.070477 -0.073373
0.237322 -0.084734 -0.088192
0.277518 -0.099050 -0.103059
0.318022 -0.113410 -0.117957
0.358882 -0.127793 -0.132863
0.400132 -0.142172 -0.147747
0.441790 -0.156516 -0.162574
0.483972 -0.170772 -0.177283
0.526686 -0.184890 -0.191823
0.569976 -0.198792 -0.206106
0.613960 -0.212349 -0.219990
0.658592 -0.225510 -0.233424
0.703880 -0.238175 -0.246300
0.749766 -0.250262 -0.258540
0.796204 -0.261695 -0.270078
0.843080 -0.272382 -0.280814
0.890327 -0.282115 -0.290488
0.937812 -0.290715 -0.299003
0.985370 -0.298242 -0.306415
1.032872 -0.304585 -0.312587
1.080189 -0.309636 -0.317421
1.127209 -0.313350 -0.320880
1.173791 -0.315528 -0.322769
1.219917 -0.316379 -0.323314
1.265606 -0.316105 -0.322734
1.310914 -0.314926 -0.321250
1.355942 -0.313120 -0.319142
1.400823 -0.310995 -0.316717
-0.007336 0.023470 -0.007040
0.033319 0.010847 -0.022379
0.074044 -0.001800 -0.037763
0.114912 -0.014494 -0.053231
0.155990 -0.027255 -0.068819
0.197346 -0.040097 -0.084555
0.239043 -0.053032 -0.100457
0.281141 -0.066062 -0.116528
0.323695 -0.079183 -0.132763
0.366758 -0.092383 -0.149139
0.410352 -0.105642 -0.165618
0.454483 -0.118932 -0.182156
0.499277 -0.132218 -0.198693
0.544713 -0.145454 -0.215154
0.590811 -0.158565 -0.231420
0.637666 -0.171437 -0.247316
0.685201 -0.184009 -0.262753
0.733396 -0.196178 -0.277582
0.782161 -0.207857 -0.291686
0.831410 -0.218959 -0.304954
0.880989 -0.229387 -0.317274
0.930784 -0.238929 -0.328386
0.980632 -0.247397 -0.338082
1.030371 -0.254842 -0.346453
1.079857 -0.261153 -0.353357
1.128950 -0.266219 -0.358689
1.177539 -0.269994 -0.362412
1.225460 -0.272290 -0.364316
1.272735 -0.273312 -0.364677
1.319417 -0.273258 -0.363756
1.365597 -0.272338 -0.361815
1.411416 -0.270814 -0.359174
1.457048 -0.268983 -0.356177
-0.014639 0.046942 -0.014033
0.027322 0.035707 -0.030072
0.069384 0.024443 -0.046180
0.111648 0.013123 -0.062423
0.154211 0.001724 -0.078860
0.197161 -0.009778 -0.095536
0.240580 -0.021399 -0.112488
0.284543 -0.033151 -0.129734
0.329112 -0.045038 -0.147272
0.374341 -0.057057 -0.165086
0.420248 -0.069194 -0.183132
0.466824 -0.081426 -0.201348
0.514206 -0.093735 -0.219684
0.562349 -0.106074 -0.238035
0.611245 -0.118376 -0.256253
0.660961 -0.130543 -0.274136
0.711383 -0.142504 -0.291557
0.762466 -0.154155 -0.308325
0.814091 -0.165404 -0.324287
0.866110 -0.176168 -0.339328
0.918369 -0.186319 -0.353265
0.970707 -0.195653 -0.365798
1.022919 -0.203992 -0.376691
1.074852 -0.211367 -0.386052
1.126341 -0.217654 -0.393725
1.177234 -0.222754 -0.399596
1.227419 -0.226619 -0.403635
1.276699 -0.229051 -0.405605
1.325135 -0.230237 -0.405826
1.372816 -0.230367 -0.404600
1.419873 -0.229653 -0.402230
1.466492 -0.228357 -0.399081
1.512886 -0.226769 -0.395541
-0.021873 0.070422 -0.020932
0.021323 0.060546 -0.037611
0.064652 0.050638 -0.054385
0.108243 0.040668 -0.071343
0.152218 0.030605 -0.088565
0.196690 0.020423 -0.106120
0.241760 0.010097 -0.124060
0.287513 -0.000390 -0.142416
0.334023 -0.011053 -0.161196
0.381346 -0.021897 -0.180387
0.429492 -0.032912 -0.199939
0.478441 -0.044080 -0.219780
0.528341 -0.055402 -0.239865
0.579132 -0.066830 -0.260060
0.630784 -0.078301 -0.280187
0.683320 -0.089736 -0.300023
0.736565 -0.101057 -0.319410
0.790464 -0.112162 -0.338122
0.844891 -0.122950 -0.355963
0.899688 -0.133299 -0.372763
0.954628 -0.143100 -0.388313
1.009506 -0.152201 -0.402222
1.064083 -0.160389 -0.414351
1.118208 -0.167658 -0.424751
1.171697 -0.173883 -0.433226
1.224389 -0.178959 -0.439669
1.276171 -0.182839 -0.444059
1.326831 -0.185339 -0.446146
1.376467 -0.186652 -0.446301
1.425206 -0.186968 -0.444867
1.473213 -0.186489 -0.442184
1.520708 -0.185462 -0.438652
1.567943 -0.184159 -0.434694
-0.029004 0.093914 -0.027690
0.015328 0.085358 -0.044923
0.059822 0.076766 -0.062275
0.104638 0.068107 -0.079859
0.149923 0.059346 -0.097778
0.195813 0.050452 -0.116121
0.242426 0.041395 -0.134956
0.289864 0.032150 -0.154329
0.338207 0.022696 -0.174259
0.387514 0.013020 -0.194735
0.437791 0.003125 -0.215706
0.489003 -0.006973 -0.237087
0.541308 -0.017292 -0.258845
0.594612 -0.027788 -0.280823
0.648862 -0.038403 -0.302819
0.704097 -0.049069 -0.324570
0.760133 -0.059701 -0.345874
0.816862 -0.070202 -0.366478
0.874100 -0.080469 -0.386155
0.931649 -0.090391 -0.404696
0.989249 -0.099839 -0.421879
1.046653 -0.108608 -0.437306
1.103581 -0.116509 -0.450674
1.159894 -0.123560 -0.462116
1.215399 -0.129642 -0.471445
1.269917 -0.134642 -0.478533
1.323337 -0.138508 -0.483367
1.375431 -0.141073 -0.485686
1.426335 -0.142523 -0.485906
1.476206 -0.143033 -0.484403
1.525235 -0.142785 -0.481541
1.573673 -0.142013 -0.477754
1.621810 -0.140973 -0.473500
-0.035996 0.117427 -0.034258
0.009346 0.110138 -0.051935
0.054879 0.102812 -0.069754
0.100790 0.095416 -0.087852
0.147254 0.087911 -0.106353
0.194429 0.080264 -0.125366
0.242452 0.072440 -0.144977
0.291437 0.064409 -0.165246
0.341475 0.056143 -0.186203
0.392632 0.047623 -0.207845
0.444905 0.038847 -0.230115
0.498251 0.029825 -0.252921
0.552841 0.020527 -0.276240
0.608559 0.010995 -0.299894
0.665331 0.001278 -0.323656
0.723184 -0.008569 -0.347242
0.781898 -0.018457 -0.370412
0.841341 -0.028292 -0.392882
0.901298 -0.037970 -0.414392
0.961535 -0.047374 -0.434695
1.021758 -0.056368 -0.453541
1.081676 -0.064755 -0.470485
1.140971 -0.072351 -0.485175
1.199504 -0.079154 -0.497769
1.257064 -0.085042 -0.508074
1.313454 -0.089919 -0.515946
1.368559 -0.093741 -0.521366
1.422133 -0.096341 -0.524046
1.474349 -0.097880 -0.524445
1.525399 -0.098520 -0.522986
1.575503 -0.098442 -0.520072
1.624951 -0.097872 -0.516174
1.674064 -0.097052 -0.511782
-0.042807 0.140971 -0.040587
0.003396 0.134887 -0.058578
0.049818 0.128768 -0.076734
0.096675 0.122575 -0.095212
0.144165 0.116273 -0.114158
0.192468 0.109823 -0.133701
0.241741 0.103188 -0.153944
0.292112 0.096334 -0.174963
0.343683 0.089230 -0.196800
0.396524 0.081849 -0.219457
0.450632 0.074184 -0.242880
0.505952 0.066243 -0.266966
0.562673 0.057984 -0.291708
0.620658 0.049444 -0.316907
0.679814 0.040667 -0.342316
0.740156 0.031694 -0.367636
0.801431 0.022617 -0.392588
0.863484 0.013523 -0.416862
0.926070 0.004512 -0.440188
0.988921 -0.004289 -0.462289
1.051709 -0.012746 -0.482860
1.114104 -0.020671 -0.501320
1.175755 -0.027887 -0.517380
1.236511 -0.034379 -0.531218
1.296129 -0.040023 -0.542602
1.354413 -0.044720 -0.551377
1.411250 -0.048422 -0.557525
1.466370 -0.050973 -0.560740
1.519976 -0.052532 -0.561512
1.572287 -0.053257 -0.560291
1.623551 -0.053311 -0.557511
1.674090 -0.052905 -0.553677
1.724259 -0.052266 -0.549315
-0.049396 0.164559 -0.046627
-0.002496 0.159612 -0.064788
0.044651 0.154629 -0.083134
0.092286 0.149575 -0.101842
0.140631 0.144412 -0.121080
0.189889 0.139101 -0.140993
0.240233 0.133605 -0.161704
0.291808 0.127886 -0.183304
0.344725 0.121909 -0.205847
0.399063 0.115643 -0.229348
0.454815 0.109079 -0.253751
0.511919 0.102220 -0.278950
0.570583 0.095013 -0.304957
0.630652 0.087494 -0.331555
0.692017 0.079700 -0.358479
0.754690 0.071656 -0.385420
0.818385 0.063455 -0.412068
0.882924 0.055177 -0.438084
0.948033 0.046924 -0.463147
1.013413 0.038819 -0.486936
1.078695 0.030999 -0.509134
1.143512 0.023643 -0.529216
1.207479 0.016925 -0.546764
1.270436 0.010868 -0.561939
1.332126 0.005581 -0.574512
1.392341 0.001156 -0.584323
1.450966 -0.002366 -0.591352
1.507707 -0.004835 -0.595274
1.562782 -0.006385 -0.596612
1.616431 -0.007156 -0.595844
1.668928 -0.007301 -0.593431
1.720632 -0.007017 -0.589906
1.771934 -0.006516 -0.585824
-0.055719 0.188208 -0.052327
-0.008294 0.184321 -0.070503
0.039404 0.180401 -0.088881
0.087639 0.176412 -0.107659
0.136659 0.172320 -0.127020
0.186685 0.168085 -0.147129
0.237910 0.163670 -0.168126
0.290491 0.159036 -0.190119
0.344553 0.154145 -0.213176
0.400181 0.148966 -0.237324
0.457369 0.143484 -0.262510
0.516048 0.137701 -0.288625
0.576448 0.131556 -0.315705
0.638398 0.125082 -0.343516
0.701777 0.118308 -0.371785
0.766596 0.111247 -0.400197
0.832542 0.103990 -0.428412
0.899414 0.096609 -0.456070
0.966913 0.089202 -0.482819
1.034706 0.081889 -0.508307
1.102389 0.074802 -0.532179
1.169563 0.068107 -0.553875
1.235808 0.061965 -0.572948
1.300958 0.056404 -0.589553
1.364737 0.051534 -0.603447
1.426917 0.047448 -0.614454
1.487363 0.044197 -0.622546
1.545752 0.041920 -0.627374
1.602327 0.040485 -0.629486
1.657358 0.039759 -0.629385
1.711152 0.039600 -0.627555
1.764096 0.039831 -0.624560
1.816612 0.040257 -0.620982
-0.061730 0.211938 -0.057634
-0.013956 0.209031 -0.075664
0.034115 0.206094 -0.093912
0.082770 0.203094 -0.112591
0.132278 0.199998 -0.131899
0.182881 0.196770 -0.152021
0.234786 0.193373 -0.173111
0.288169 0.189768 -0.195293
0.343163 0.185917 -0.218654
0.399863 0.181789 -0.243233
0.458264 0.177365 -0.268984
0.518293 0.172644 -0.295797
0.580203 0.167565 -0.323735
0.643808 0.162152 -0.352555
0.708983 0.156429 -0.381975
0.775740 0.150401 -0.411687
0.843732 0.144151 -0.441320
0.912748 0.137746 -0.470486
0.982478 0.131281 -0.498783
1.052520 0.124873 -0.525795
1.122464 0.118636 -0.551238
1.191908 0.112702 -0.574659
1.260368 0.107240 -0.595439
1.327643 0.102299 -0.613631
1.393436 0.097977 -0.628977
1.457518 0.094356 -0.641309
1.519757 0.091478 -0.650600
1.579816 0.089465 -0.656500
1.637960 0.088201 -0.659588
1.694471 0.087570 -0.660387
1.749671 0.087445 -0.659400
1.803969 0.087670 -0.657205
1.857810 0.088072 -0.654408
-0.067379 0.235769 -0.062496
-0.019430 0.233761 -0.080219
0.028838 0.231726 -0.098172
0.077733 0.229636 -0.116579
0.127544 0.227459 -0.135656
0.178530 0.225165 -0.155599
0.230917 0.222717 -0.176581
0.284892 0.220080 -0.198741
0.340601 0.217218 -0.222184
0.398150 0.214096 -0.246962
0.457536 0.210698 -0.273042
0.518682 0.207019 -0.300314
0.581869 0.202997 -0.328874
0.646899 0.198653 -0.358471
0.713639 0.194004 -0.388822
0.782112 0.189047 -0.419636
0.851948 0.183859 -0.450520
0.922920 0.178496 -0.481103
0.994668 0.173039 -0.510997
1.066801 0.167603 -0.539682
1.138862 0.162311 -0.566629
1.210425 0.157266 -0.591552
1.280973 0.152616 -0.613872
1.350298 0.148410 -0.633602
1.418095 0.144738 -0.650481
1.484098 0.141669 -0.664299
1.548151 0.139244 -0.674998
1.609898 0.137574 -0.682214
1.669615 0.136565 -0.686529
1.727606 0.136118 -0.688480
1.784213 0.136122 -0.688585
1.839872 0.136434 -0.687444
1.895052 0.136902 -0.685681
-0.072617 0.259726 -0.066860
-0.024660 0.258534 -0.084117
0.023635 0.257320 -0.101612
0.072597 0.256058 -0.119580
0.122532 0.254724 -0.138246
0.173715 0.253288 -0.157819
0.226386 0.251720 -0.178488
0.280746 0.249986 -0.200409
0.336951 0.248054 -0.223702
0.395117 0.245891 -0.248440
0.455242 0.243480 -0.274599
0.517251 0.240815 -0.302076
0.581449 0.237837 -0.331003
0.647635 0.234561 -0.361127
0.715680 0.230998 -0.392174
0.785624 0.227140 -0.423876
0.857062 0.223058 -0.455815
0.929744 0.218801 -0.487609
1.003297 0.214441 -0.518851
1.077323 0.210075 -0.548999
1.151339 0.205809 -0.577500
1.224881 0.201739 -0.604036
1.297399 0.197993 -0.628012
1.368641 0.194619 -0.649381
1.438270 0.191700 -0.667828
1.506022 0.189300 -0.683152
1.571754 0.187452 -0.695316
1.635115 0.186249 -0.703961
1.696410 0.185603 -0.709690
1.755950 0.185425 -0.713046
1.814077 0.185625 -0.714539
1.871226 0.186086 -0.714763
1.927874 0.186680 -0.714351
-0.077392 0.283834 -0.070675
-0.029583 0.283378 -0.087313
0.018582 0.282903 -0.104194
0.067447 0.282392 -0.121558
0.117336 0.281821 -0.139639
0.168537 0.281169 -0.158655
0.221305 0.280408 -0.178808
0.275849 0.279510 -0.200272
0.332338 0.278446 -0.223183
0.390894 0.277187 -0.247634
0.451523 0.275717 -0.273616
0.514150 0.274030 -0.301037
0.579118 0.272070 -0.330069
0.646237 0.269848 -0.360466
0.715371 0.267371 -0.391965
0.786521 0.264634 -0.424317
0.859237 0.261700 -0.457076
0.933314 0.258604 -0.489874
1.008432 0.255401 -0.522297
1.084134 0.252175 -0.553785
1.159907 0.249018 -0.583760
1.235255 0.246011 -0.611869
1.309607 0.243262 -0.637500
1.382693 0.240812 -0.660580
1.454157 0.238731 -0.680771
1.523713 0.237074 -0.697844
1.591193 0.235875 -0.711734
1.656202 0.235211 -0.722044
1.719028 0.235015 -0.729366
1.779993 0.235213 -0.734249
1.839466 0.235727 -0.737224
1.897916 0.236458 -0.738910
1.955851 0.237299 -0.739951
-0.081655 0.308119 -0.073888
-0.034136 0.308321 -0.089765
0.013755 0.308510 -0.105886
0.062376 0.308671 -0.122492
0.112063 0.308789 -0.139820
0.163118 0.308845 -0.158098
0.215806 0.308818 -0.177540
0.270348 0.308686 -0.198332
0.326920 0.308425 -0.220632
0.385654 0.308012 -0.244553
0.446561 0.307431 -0.270101
0.509563 0.306675 -0.297198
0.575019 0.305702 -0.326055
0.642722 0.304519 -0.356431
0.712554 0.303130 -0.388086
0.784598 0.301523 -0.420824
0.858414 0.299748 -0.454191
0.933744 0.297837 -0.487806
1.010182 0.295836 -0.521239
1.087311 0.293814 -0.553908
1.164590 0.291841 -0.585225
1.241502 0.289984 -0.614819
1.317460 0.288326 -0.642036
1.392170 0.286902 -0.666770
1.465256 0.285767 -0.688673
1.536413 0.284965 -0.707509
1.605459 0.284520 -0.723194
1.671987 0.284495 -0.735311
1.736284 0.284837 -0.744428
1.798671 0.285488 -0.751083
1.859526 0.286387 -0.755813
1.919329 0.287457 -0.759242
1.978601 0.288613 -0.762019
-0.085355 0.332607 -0.076452
-0.038251 0.333395 -0.091438
0.009238 0.334175 -0.106663
0.057482 0.334937 -0.122367
0.106828 0.335670 -0.138788
0.157589 0.336362 -0.156159
0.210036 0.336999 -0.174701
0.264399 0.337563 -0.194618
0.320861 0.338039 -0.216083
0.379562 0.338408 -0.239232
0.440515 0.338658 -0.264090
0.503645 0.338785 -0.290597
0.569333 0.338757 -0.319003
0.637373 0.338578 -0.349083
0.707656 0.338251 -0.380620
0.780295 0.337769 -0.413471
0.854859 0.337166 -0.447177
0.931103 0.336465 -0.481378
1.008594 0.335702 -0.515629
1.086885 0.334928 -0.549337
1.165432 0.334197 -0.581891
1.243683 0.333556 -0.612866
1.321023 0.333066 -0.641605
1.397140 0.332749 -0.667978
1.471647 0.332645 -0.691610
1.544221 0.332784 -0.712233
1.614670 0.333183 -0.729744
1.682576 0.333886 -0.743725
1.748228 0.334853 -0.754743
1.811953 0.336042 -0.763330
1.874128 0.337408 -0.770006
1.935237 0.338897 -0.775387
1.995807 0.340448 -0.780117
-0.088447 0.357324 -0.078321
-0.041864 0.358632 -0.092299
0.005114 0.359937 -0.106507
0.052867 0.361232 -0.121180
0.101751 0.362513 -0.136552
0.152086 0.363773 -0.152858
0.204150 0.365003 -0.170328
0.258179 0.366195 -0.189178
0.314361 0.367339 -0.209598
0.372843 0.368425 -0.231748
0.433643 0.369445 -0.255672
0.496689 0.370397 -0.281330
0.562387 0.371262 -0.309018
0.630533 0.372044 -0.338533
0.701035 0.372745 -0.369691
0.774026 0.373365 -0.402409
0.849043 0.373926 -0.436212
0.925845 0.374445 -0.470748
1.004052 0.374944 -0.505573
1.083177 0.375456 -0.540105
1.162680 0.376012 -0.573729
1.241988 0.376640 -0.605977
1.320467 0.377376 -0.636178
1.397774 0.378230 -0.664151
1.473499 0.379225 -0.689497
1.547304 0.380377 -0.711927
1.618979 0.381695 -0.731318
1.688097 0.383202 -0.747247
1.754947 0.384872 -0.760261
1.819858 0.386678 -0.770877
1.883211 0.388592 -0.779606
1.945491 0.390581 -0.787050
2.007225 0.392607 -0.793848
-0.090888 0.382293 -0.079457
-0.044914 0.384064 -0.092323
0.001463 0.385834 -0.105408
0.048631 0.387602 -0.118934
0.096950 0.389369 -0.133132
0.146748 0.391132 -0.148233
0.198305 0.392891 -0.164474
0.251859 0.394644 -0.182080
0.307604 0.396389 -0.201262
0.365690 0.398125 -0.222200
0.426137 0.399850 -0.244961
0.488878 0.401565 -0.269528
0.554333 0.403267 -0.296241
0.622305 0.404960 -0.324917
0.692712 0.406649 -0.355411
0.765717 0.408342 -0.387701
0.840876 0.410050 -0.421325
0.917976 0.411782 -0.455961
0.996626 0.413548 -0.491162
1.076314 0.415361 -0.526332
1.156492 0.417233 -0.560849
1.236572 0.419168 -0.594213
1.315912 0.421175 -0.625745
1.394148 0.423252 -0.655224
1.470860 0.425402 -0.682240
1.545689 0.427625 -0.706475
1.618411 0.429920 -0.727780
1.688575 0.432294 -0.745709
1.756461 0.434731 -0.760780
1.822386 0.437221 -0.773490
1.886733 0.439751 -0.784339
1.949993 0.442309 -0.793925
2.012702 0.444880 -0.802878
-0.092638 0.407537 -0.079825
-0.047343 0.409720 -0.091492
-0.001639 0.411905 -0.103361
0.044866 0.414094 -0.115643
0.092539 0.416291 -0.128556
0.141707 0.418499 -0.142330
0.192652 0.420725 -0.157203
0.245614 0.422974 -0.173410
0.300785 0.425255 -0.191180
0.358319 0.427574 -0.210712
0.418238 0.429937 -0.232100
0.480479 0.432349 -0.255351
0.545475 0.434826 -0.280848
0.613036 0.437373 -0.308439
0.683098 0.439998 -0.338018
0.755860 0.442725 -0.369632
0.830901 0.445548 -0.402829
0.908004 0.448475 -0.437314
0.986723 0.451500 -0.472646
1.066631 0.454618 -0.508231
1.147164 0.457820 -0.543445
1.227701 0.461083 -0.577749
1.307595 0.464391 -0.610458
1.386463 0.467725 -0.641315
1.463870 0.471070 -0.669891
1.539448 0.474410 -0.695851
1.612956 0.477731 -0.719022
1.683942 0.481022 -0.738957
1.752659 0.484279 -0.756122
1.819415 0.487504 -0.770979
1.884584 0.490701 -0.784010
1.948658 0.493879 -0.795793
2.012177 0.497046 -0.806949
-0.093666 0.433073 -0.079397
-0.049102 0.435629 -0.089793
-0.004125 0.438187 -0.100373
0.041661 0.440753 -0.111328
0.088622 0.443332 -0.122864
0.137086 0.445933 -0.135207
0.187334 0.448569 -0.148593
0.239602 0.451255 -0.163266
0.294083 0.454006 -0.179470
0.350926 0.456842 -0.197427
0.410157 0.459775 -0.217257
0.471716 0.462817 -0.238991
0.536045 0.466004 -0.263057
0.602968 0.469342 -0.289333
0.672442 0.472848 -0.317764
0.744694 0.476557 -0.348467
0.819296 0.480457 -0.381000
0.896062 0.484547 -0.415097
0.974613 0.488810 -0.450324
1.054444 0.493222 -0.486096
1.135007 0.497749 -0.521793
1.215676 0.502345 -0.556842
1.295801 0.506965 -0.590554
1.374975 0.511573 -0.622624
1.452759 0.516133 -0.652613
1.528773 0.520614 -0.680168
1.602771 0.524990 -0.705094
1.674304 0.529231 -0.726951
1.743612 0.533343 -0.746168
1.810989 0.537342 -0.763175
1.876800 0.541248 -0.778423
1.941520 0.545087 -0.792461
2.005687 0.548892 -0.805889
-0.093949 0.458918 -0.078157
-0.050150 0.461815 -0.087225
-0.005937 0.464714 -0.096454
0.039088 0.467620 -0.106016
0.085290 0.470541 -0.116103
0.132995 0.473491 -0.126929
0.182480 0.476487 -0.138730
0.233977 0.479552 -0.151758
0.287674 0.482714 -0.166268
0.343721 0.486003 -0.182508
0.402142 0.489440 -0.200621
0.462885 0.493045 -0.220668
0.526402 0.496876 -0.243124
0.592547 0.500946 -0.267918
0.661322 0.505284 -0.295066
0.732938 0.509939 -0.324727
0.806883 0.514873 -0.356397
0.882963 0.520078 -0.389822
0.960967 0.525543 -0.424701
1.040274 0.531206 -0.460360
1.120458 0.537030 -0.496271
1.200888 0.542940 -0.531830
1.280885 0.548861 -0.566327
1.360020 0.554737 -0.599414
1.437841 0.560513 -0.630642
1.513962 0.566138 -0.659635
1.588136 0.571577 -0.686182
1.659929 0.576781 -0.709857
1.729576 0.581769 -0.731055
1.797352 0.586567 -0.750175
1.863594 0.591208 -0.767626
1.928759 0.595738 -0.783922
1.993366 0.600211 -0.799623
-0.093470 0.485082 -0.076095
-0.050457 0.488298 -0.083793
-0.007030 0.491514 -0.091626
0.037208 0.494734 -0.099747
0.082620 0.497966 -0.108327
0.129525 0.501226 -0.117571
0.178197 0.504538 -0.127712
0.228859 0.507933 -0.139005
0.281692 0.511449 -0.151722
0.336839 0.515127 -0.166127
0.394324 0.519001 -0.182392
0.454093 0.523098 -0.200600
0.516591 0.527497 -0.221259
0.581654 0.532212 -0.244304
0.649249 0.537273 -0.269751
0.719665 0.542759 -0.297882
0.792616 0.548654 -0.328399
0.867975 0.554957 -0.361135
0.945378 0.561621 -0.395661
1.024081 0.568535 -0.431169
1.103692 0.575643 -0.467165
1.183620 0.582849 -0.503056
1.263211 0.590055 -0.538160
1.342036 0.597185 -0.572097
1.419647 0.604167 -0.604417
1.495648 0.610933 -0.634733
1.569772 0.617434 -0.662809
1.641566 0.623602 -0.688210
1.711242 0.629465 -0.711275
1.779074 0.635061 -0.732369
1.845411 0.640440 -0.751888
1.910696 0.645667 -0.770308
1.975443 0.650814 -0.788170
-0.092223 0.511570 -0.073213
-0.050004 0.515094 -0.079511
-0.007373 0.518613 -0.085920
0.036066 0.522128 -0.092564
0.080669 0.525647 -0.099599
0.126751 0.529187 -0.107215
0.174577 0.532777 -0.115641
0.224361 0.536457 -0.125138
0.276277 0.540276 -0.135990
0.330466 0.544290 -0.148488
0.386957 0.548545 -0.162832
0.445709 0.553080 -0.179151
0.507200 0.558008 -0.198026
0.571326 0.563358 -0.219476
0.638037 0.569165 -0.243528
0.707377 0.575474 -0.270264
0.778985 0.582245 -0.299320
0.852943 0.589513 -0.330763
0.929044 0.597249 -0.364326
1.006605 0.605317 -0.399229
1.085239 0.613645 -0.434995
1.164297 0.622097 -0.470952
1.243125 0.630542 -0.506411
1.321303 0.638890 -0.540981
1.398326 0.647038 -0.574137
1.473855 0.654912 -0.605565
1.547600 0.662451 -0.634992
1.619109 0.669567 -0.661989
1.688570 0.676297 -0.686827
1.756237 0.682688 -0.709812
1.822433 0.688802 -0.731299
1.887595 0.694720 -0.751739
1.952227 0.700538 -0.771645
-0.090215 0.538383 -0.069524
-0.048786 0.542211 -0.074407
-0.006949 0.546028 -0.079373
0.035688 0.549829 -0.084521
0.079476 0.553619 -0.089987
0.124720 0.557415 -0.095945
0.171673 0.561252 -0.102619
0.220536 0.565176 -0.110267
0.271470 0.569247 -0.119181
0.324597 0.573532 -0.129661
0.379928 0.578090 -0.141922
0.437403 0.582965 -0.156095
0.497442 0.588284 -0.172754
0.560081 0.594117 -0.192099
0.625530 0.600567 -0.214466
0.693426 0.607594 -0.239513
0.763829 0.615242 -0.267320
0.836633 0.623509 -0.297768
0.911527 0.632329 -0.330489
0.987867 0.641537 -0.364739
1.065321 0.651047 -0.400121
1.143277 0.660705 -0.435979
1.221080 0.670344 -0.471619
1.298267 0.679849 -0.506567
1.374462 0.689124 -0.540435
1.449350 0.698093 -0.572923
1.522332 0.706614 -0.603443
1.593243 0.714649 -0.631847
1.662204 0.722224 -0.658284
1.729390 0.729382 -0.682956
1.795137 0.736202 -0.706210
1.859875 0.742785 -0.728482
1.924096 0.749247 -0.750251
-0.087460 0.565514 -0.065053
-0.046812 0.569651 -0.068516
-0.005759 0.573768 -0.072033
0.036082 0.577854 -0.075680
0.079057 0.581907 -0.079568
0.123461 0.585945 -0.083859
0.169534 0.590005 -0.088769
0.217465 0.594142 -0.094557
0.267401 0.598427 -0.101523
0.319453 0.602944 -0.109984
0.373628 0.607762 -0.120176
0.429863 0.612941 -0.132253
0.488561 0.618630 -0.146817
0.549766 0.624919 -0.164110
0.613698 0.631932 -0.184527
0.680027 0.639623 -0.207759
0.748839 0.648046 -0.233946
0.820070 0.657203 -0.263031
0.893449 0.667020 -0.294688
0.968317 0.677296 -0.328127
1.044331 0.687924 -0.362952
1.120891 0.698717 -0.398489
1.197375 0.709487 -0.434081
1.273321 0.720098 -0.469233
1.348347 0.730438 -0.503554
1.422145 0.740420 -0.536729
1.494127 0.749878 -0.568184
1.564177 0.758784 -0.597808
1.632346 0.767156 -0.625649
1.698805 0.775046 -0.651877
1.763860 0.782542 -0.676783
1.827931 0.789763 -0.700767
1.891487 0.796841 -0.724270
-0.083989 0.592951 -0.059837
-0.044104 0.597410 -0.061884
-0.003821 0.601838 -0.063958
0.037239 0.606212 -0.066106
0.079409 0.610527 -0.068421
0.122975 0.614798 -0.071051
0.168164 0.619064 -0.074199
0.215151 0.623388 -0.078129
0.264071 0.627855 -0.083146
0.315023 0.632562 -0.089582
0.368009 0.637596 -0.097694
0.422968 0.643028 -0.107664
0.480290 0.649035 -0.120119
0.540027 0.655723 -0.135352
0.602408 0.663243 -0.153814
0.667124 0.671545 -0.175222
0.734253 0.680689 -0.199740
0.803725 0.690671 -0.227315
0.875294 0.701407 -0.257652
0.948360 0.712668 -0.289992
1.022623 0.724332 -0.323993
1.097501 0.736186 -0.358980
1.172378 0.748011 -0.394303
1.246795 0.759651 -0.429441
1.320377 0.770981 -0.464005
1.392820 0.781907 -0.497664
1.463550 0.792242 -0.529874
1.532440 0.801955 -0.560483
1.599523 0.811065 -0.589501
1.664961 0.819635 -0.617061
1.729057 0.827766 -0.643428
1.792208 0.835591 -0.668954
1.854874 0.843261 -0.694049
-0.079841 0.620677 -0.053924
-0.040700 0.625476 -0.054567
-0.001167 0.630229 -0.055209
0.039127 0.634904 -0.055873
0.080505 0.639485 -0.056630
0.123240 0.643986 -0.057612
0.167547 0.648447 -0.059016
0.213586 0.652940 -0.061103
0.261478 0.657562 -0.064185
0.311310 0.662426 -0.068608
0.363078 0.667637 -0.074646
0.416720 0.673280 -0.082506
0.472605 0.679556 -0.092835
0.530786 0.686593 -0.105960
0.591488 0.694559 -0.122368
0.654424 0.703401 -0.141805
0.719696 0.713192 -0.164497
0.787270 0.723935 -0.190457
0.856919 0.735533 -0.219409
0.928061 0.747721 -0.250571
