Project4/SoftBlackAndWhite.cube
TITLE "SoftBlackAndWhite"
# Created by Photon 3D ColorGrading
DOMAIN_MIN 0 0 0
DOMAIN_MAX 1 1 1
LUT_3D_SIZE 5
0.000001 0.000001 0.007838
0.012958 0.021771 0.025264
0.049734 0.070594 0.059038
0.225249 0.247802 0.230345
0.475643 0.500661 0.471278
0.065692 0.074060 0.084979
0.083073 0.093649 0.101362
0.170306 0.181287 0.184868
0.333374 0.345790 0.344265
0.543730 0.551172 0.541157
0.378398 0.374894 0.398435
0.383691 0.389662 0.411361
0.446859 0.454118 0.471242
0.560693 0.564044 0.576753
0.713015 0.704351 0.712387
0.772795 0.761954 0.792888
0.752782 0.751358 0.781549
0.766961 0.767020 0.796974
0.803527 0.795323 0.827517
0.886485 0.860849 0.895735
0.960706 0.957738 0.985360
0.960900 0.955604 0.985002
0.964931 0.954536 0.987190
0.972793 0.956440 0.991825
0.983183 0.969581 0.997697
0.008128 0.012023 0.019555
0.013798 0.028907 0.029237
0.062061 0.090273 0.075822
0.223482 0.253379 0.229684
0.463505 0.497613 0.456168
0.066944 0.080970 0.087245
0.090499 0.108061 0.110919
0.171418 0.188883 0.186848
0.315464 0.333910 0.323166
0.522885 0.536233 0.511924
0.370508 0.374741 0.389691
0.380419 0.393332 0.405558
0.437916 0.450996 0.459811
0.547358 0.552616 0.555384
0.692518 0.679523 0.666770
0.763403 0.755859 0.778492
0.720981 0.722560 0.744742
0.733024 0.732859 0.756722
0.789117 0.776625 0.800487
0.881025 0.837275 0.856741
0.961528 0.956547 0.985542
0.963473 0.950446 0.985744
0.971019 0.942495 0.989348
0.981658 0.944207 0.994919
0.990484 0.966538 0.999657
0.020371 0.040924 0.038137
0.030080 0.059752 0.048947
0.085080 0.119462 0.099748
0.248427 0.289056 0.258328
0.472997 0.523818 0.471309
0.088078 0.106636 0.105512
0.101125 0.124963 0.121644
0.187662 0.212840 0.204998
0.328868 0.359491 0.338021
0.521775 0.550166 0.505199
0.387382 0.399663 0.408394
0.387038 0.407227 0.414440
0.438395 0.460040 0.463919
0.535992 0.552836 0.544694
0.669729 0.672180 0.634009
0.742749 0.741929 0.759741
0.709743 0.716404 0.736893
0.720547 0.725933 0.749615
0.766891 0.762872 0.780218
0.855665 0.822413 0.822138
0.965907 0.955714 0.987686
0.968549 0.942478 0.988795
0.970682 0.930454 0.994547
0.986395 0.938025 0.999313
0.997241 0.970362 1.001225
0.041091 0.069064 0.050323
0.051625 0.088229 0.065485
0.128611 0.170396 0.140719
0.291432 0.350724 0.300838
0.496084 0.559160 0.489744
0.124940 0.143827 0.134416
0.145402 0.173334 0.161535
0.227479 0.264146 0.243864
0.361721 0.411406 0.370304
0.535247 0.594580 0.511329
0.422907 0.438438 0.441201
0.409922 0.437204 0.437950
0.451160 0.487994 0.480356
0.543287 0.583082 0.556542
0.660321 0.700526 0.630358
0.740207 0.740947 0.756044
0.708083 0.722609 0.739957
0.711546 0.735301 0.751768
0.752387 0.774944 0.779055
0.826982 0.835642 0.811337
0.975479 0.957464 0.991601
0.963743 0.939071 0.988199
0.949870 0.932384 0.993449
0.963922 0.947524 0.999745
0.999491 0.984770 1.001147
0.086719 0.114765 0.079579
0.106778 0.147537 0.109535
0.201408 0.260637 0.207272
0.353825 0.441555 0.358776
0.525232 0.633766 0.511841
0.199214 0.217294 0.196587
0.214591 0.249740 0.221782
0.288122 0.346575 0.297414
0.405137 0.490871 0.404914
0.556461 0.658256 0.531524
0.470420 0.485172 0.477243
0.458767 0.493973 0.479431
0.483139 0.545118 0.509272
0.555264 0.636538 0.567967
0.663640 0.745873 0.646408
0.762368 0.761456 0.770314
0.714497 0.738740 0.746565
0.706325 0.758594 0.757165
0.740761 0.804197 0.781258
0.811818 0.866482 0.817033
0.985339 0.965076 0.995909
0.957907 0.948297 0.988302
0.932143 0.949601 0.990002
0.940649 0.970122 0.997861
0.980393 1.000000 1.000000
