Project4/SoftBlackAndWhite.cube
TITLE "SoftBlackAndWhite"
# Created by Photon 3D ColorGrading
DOMAIN_MIN 0 0 0
DOMAIN_MAX 1 1 1
LUT_3D_SIZE 9
0.000001 0.000001 0.007838
0.005332 0.008284 0.012155
0.012958 0.021771 0.025264
0.021615 0.036967 0.033631
0.049734 0.070594 0.059038
0.124348 0.145156 0.131660
0.225249 0.247802 0.230345
0.342049 0.367029 0.343774
0.475643 0.500661 0.471278
0.013051 0.020635 0.029628
0.016042 0.023391 0.028929
0.025441 0.035809 0.039303
0.044240 0.057882 0.057053
0.089611 0.104732 0.100615
0.166940 0.181865 0.176017
0.261301 0.277803 0.268486
0.369143 0.386666 0.372507
0.491702 0.508751 0.489139
0.065692 0.074060 0.084979
0.068692 0.078414 0.087922
0.083073 0.093649 0.101362
0.114466 0.125307 0.130998
0.170306 0.181287 0.184868
0.246434 0.258172 0.259369
0.333374 0.345790 0.344265
0.430135 0.441142 0.435685
0.543730 0.551172 0.541157
0.187014 0.188271 0.205569
0.189395 0.195098 0.211397
0.205441 0.213689 0.228314
0.238234 0.247315 0.260094
0.290198 0.299642 0.310276
0.358266 0.367736 0.375983
0.436881 0.445108 0.450818
0.525433 0.529925 0.532345
0.625517 0.624822 0.622155
0.378398 0.374894 0.398435
0.373666 0.375959 0.399318
0.383691 0.389662 0.411361
0.408210 0.415519 0.435030
0.446859 0.454118 0.471242
0.497356 0.503646 0.518178
0.560693 0.564044 0.576753
0.635016 0.632971 0.643822
0.713015 0.704351 0.712387
0.592159 0.585524 0.611981
0.579304 0.578217 0.604866
0.581755 0.584120 0.610075
0.594603 0.598683 0.623013
0.615789 0.620143 0.642630
0.644576 0.647616 0.668575
0.685050 0.683777 0.704622
0.739288 0.730910 0.752079
0.801040 0.784368 0.804833
0.772795 0.761954 0.792888
0.755360 0.750237 0.780513
0.752782 0.751358 0.781549
0.757511 0.757862 0.787851
0.766961 0.767020 0.796974
0.781385 0.778692 0.809343
0.803527 0.795323 0.827517
0.839044 0.822766 0.856609
0.886485 0.860849 0.895735
0.902516 0.891309 0.925173
0.888528 0.880922 0.914422
0.885271 0.880128 0.914152
0.886076 0.881631 0.916682
0.890020 0.884004 0.920839
0.897785 0.887695 0.927180
0.909770 0.893644 0.935817
0.927724 0.904974 0.948520
0.953098 0.924339 0.967880
0.960706 0.957738 0.985360
0.960282 0.956268 0.984781
0.960900 0.955604 0.985002
0.962260 0.954835 0.985656
0.964931 0.954536 0.987190
0.968287 0.954247 0.989083
0.972793 0.956440 0.991825
0.978122 0.962241 0.995030
0.983183 0.969581 0.997697
0.004004 0.004948 0.012388
0.005925 0.008235 0.012526
0.011073 0.020074 0.022963
0.022161 0.041240 0.036319
0.054174 0.078634 0.065818
0.123969 0.147960 0.132163
0.220291 0.245974 0.224864
0.333791 0.362224 0.334088
0.466971 0.495082 0.459341
0.013354 0.023116 0.031503
0.019416 0.027657 0.033006
0.029153 0.041080 0.043793
0.048842 0.065829 0.063655
0.091522 0.109874 0.103986
0.161585 0.179456 0.170612
0.251894 0.271284 0.257612
0.358384 0.378872 0.358750
0.483967 0.502880 0.476588
0.064547 0.075840 0.084626
0.072700 0.085333 0.092672
0.088742 0.102455 0.107766
0.119455 0.133497 0.136434
0.170304 0.184237 0.184708
0.238382 0.252695 0.250156
0.320359 0.335030 0.328535
0.416705 0.429835 0.417625
0.530771 0.540445 0.523222
0.185227 0.190266 0.203316
0.192441 0.201653 0.213577
0.209249 0.220692 0.231052
0.241281 0.253414 0.261865
0.290945 0.303382 0.309639
0.353599 0.365611 0.369380
0.426360 0.436175 0.436514
0.513151 0.518404 0.513438
0.611570 0.610986 0.599236
0.372242 0.372019 0.390845
0.370374 0.375969 0.393645
0.380190 0.389232 0.405370
0.403529 0.413754 0.428001
0.440778 0.450667 0.462787
0.491199 0.499018 0.508971
0.554874 0.558140 0.565616
0.628359 0.624718 0.628091
0.703392 0.691031 0.688998
0.585991 0.580603 0.603196
0.569239 0.570544 0.591693
0.567813 0.572837 0.593051
0.579252 0.585655 0.604730
0.600303 0.606215 0.623938
0.633485 0.636306 0.653190
0.681298 0.677882 0.694129
0.738071 0.725560 0.740109
0.796370 0.771781 0.783270
0.770743 0.760494 0.787060
0.744514 0.740587 0.766049
0.733890 0.733693 0.758897
0.736708 0.737729 0.763149
0.746495 0.746149 0.772045
0.764587 0.760153 0.786905
0.796332 0.784928 0.812536
0.839776 0.817952 0.845864
0.887528 0.850846 0.878544
0.902393 0.891075 0.921483
0.881791 0.873763 0.904156
0.870221 0.864216 0.895297
0.869072 0.862851 0.895698
0.873724 0.864497 0.900033
0.883248 0.868784 0.907107
0.901206 0.880091 0.920221
0.928164 0.898991 0.939749
0.959387 0.919365 0.960430
0.960747 0.956958 0.985190
0.960857 0.955313 0.984928
0.961751 0.953469 0.985150
0.963720 0.951111 0.985976
0.967192 0.949034 0.987743
0.971644 0.948106 0.990170
0.976622 0.950368 0.993057
0.981698 0.956983 0.995958
0.986872 0.968353 0.998697
0.008128 0.012023 0.019555
0.009040 0.015548 0.020211
0.013798 0.028907 0.029237
0.026974 0.051894 0.043602
0.062061 0.090273 0.075822
0.130204 0.157901 0.140026
0.223482 0.253379 0.229684
0.333814 0.367245 0.335490
0.463505 0.497613 0.456168
0.015726 0.026441 0.033317
0.021328 0.032941 0.037551
0.031521 0.048351 0.049054
0.053668 0.075174 0.070730
0.096219 0.118129 0.110385
0.163837 0.185449 0.174096
0.251494 0.275104 0.258054
0.355802 0.381138 0.355979
0.479780 0.503516 0.470298
0.066944 0.080970 0.087245
0.073874 0.089971 0.094979
0.090499 0.108061 0.110919
0.122609 0.140348 0.140869
0.171418 0.188883 0.186848
0.236101 0.253980 0.248413
0.315464 0.333910 0.323166
0.410686 0.427864 0.409565
0.522885 0.536233 0.511924
0.188892 0.198071 0.207707
0.196473 0.209713 0.218289
0.213278 0.228590 0.235768
0.244753 0.260706 0.266076
0.291970 0.307985 0.311156
0.350084 0.365321 0.365685
0.419050 0.431849 0.427450
0.504179 0.512273 0.500472
0.599869 0.601619 0.580990
0.370508 0.374741 0.389691
0.370547 0.380375 0.393914
0.380419 0.393332 0.405558
0.402511 0.416340 0.427063
0.437916 0.450996 0.459811
0.485987 0.496374 0.502955
0.547358 0.552616 0.555384
0.619147 0.616516 0.612664
0.692518 0.679523 0.666770
0.578504 0.576730 0.595532
0.561611 0.566339 0.583571
0.559267 0.567337 0.583953
0.569967 0.578965 0.595027
0.590433 0.598349 0.613282
0.624451 0.628576 0.642392
0.673918 0.671023 0.682941
0.730577 0.716629 0.724560
0.786957 0.758174 0.759629
0.763403 0.755859 0.778492
0.734466 0.732803 0.754779
0.720981 0.722560 0.744742
0.723057 0.725105 0.748122
0.733024 0.732859 0.756722
0.753165 0.748271 0.772578
0.789117 0.776625 0.800487
0.834778 0.809505 0.831859
0.881025 0.837275 0.856741
0.899328 0.888649 0.916134
0.875416 0.867539 0.895671
0.859601 0.853086 0.882605
0.856795 0.848822 0.881177
0.861958 0.849449 0.885516
0.873313 0.854492 0.893317
0.895907 0.869976 0.909429
0.927370 0.892141 0.930518
0.958749 0.910251 0.946761
0.961528 0.956547 0.985542
0.962032 0.953923 0.985397
0.963473 0.950446 0.985744
0.966446 0.946256 0.987035
0.971019 0.942495 0.989348
0.976395 0.940980 0.992100
0.981658 0.944207 0.994919
0.986274 0.952891 0.997422
0.990484 0.966538 0.999657
0.013040 0.024613 0.028560
0.014795 0.030630 0.031847
0.020733 0.044063 0.039388
0.035021 0.065005 0.052659
0.072028 0.103602 0.086768
0.141603 0.173198 0.152804
0.233275 0.268008 0.241569
0.341124 0.380819 0.344779
0.465924 0.508853 0.460942
0.020875 0.035332 0.038332
0.025163 0.042907 0.043924
0.035285 0.057892 0.054730
0.059509 0.084968 0.077475
0.104509 0.129792 0.119644
0.172795 0.198628 0.184505
0.258904 0.287773 0.267130
0.360584 0.392527 0.361607
0.480346 0.512157 0.470859
0.074366 0.091046 0.093838
0.076267 0.095832 0.097576
0.091470 0.112616 0.112523
0.125819 0.147029 0.144980
0.177007 0.198206 0.193628
0.241752 0.264027 0.255437
0.319088 0.342836 0.327641
0.411750 0.435144 0.409983
0.519499 0.538975 0.506438
0.198988 0.211740 0.218328
0.201916 0.218774 0.224514
0.215861 0.234783 0.239378
0.247211 0.266890 0.269821
0.294748 0.314649 0.315322
0.351516 0.370932 0.368087
0.417500 0.435158 0.425781
0.499222 0.512769 0.493590
0.590030 0.597414 0.566935
0.375533 0.384290 0.395992
0.375061 0.389043 0.399547
0.383255 0.399992 0.409532
0.403953 0.421497 0.429852
0.437917 0.454761 0.461276
0.482914 0.497380 0.500893
0.540091 0.549831 0.547735
0.608924 0.610774 0.599255
0.681115 0.672550 0.647897
0.573266 0.576141 0.591728
0.557709 0.566326 0.580854
0.556488 0.567942 0.582538
0.566605 0.578802 0.593328
0.585941 0.597026 0.610532
0.616807 0.624562 0.635920
0.663176 0.663986 0.671640
0.718874 0.707823 0.708695
0.775257 0.748715 0.739080
0.752859 0.749027 0.768756
0.724789 0.726170 0.745873
0.713559 0.717528 0.738340
0.715954 0.719824 0.742348
0.725728 0.727052 0.750756
0.744414 0.741270 0.764449
0.778140 0.767719 0.788595
0.823351 0.799438 0.816290
0.869486 0.826131 0.836630
0.893327 0.883523 0.909172
0.867637 0.860168 0.887278
0.851997 0.845036 0.874848
0.849480 0.839949 0.874104
0.854700 0.839969 0.878635
0.866229 0.845161 0.885869
0.888438 0.860783 0.899997
0.920420 0.883667 0.919008
0.952733 0.902039 0.932271
0.963102 0.956071 0.986356
0.964136 0.951880 0.986339
0.966384 0.946634 0.987199
0.969689 0.940615 0.989304
0.974113 0.935762 0.992166
0.980240 0.934563 0.994918
0.986630 0.939343 0.997212
0.991098 0.950583 0.999039
0.994137 0.966784 1.000567
0.020371 0.040924 0.038137
0.023428 0.048085 0.042415
0.030080 0.059752 0.048947
0.044876 0.078473 0.061953
0.085080 0.119462 0.099748
0.157009 0.192600 0.168994
0.248427 0.289056 0.258328
0.353741 0.401068 0.358860
0.472997 0.523818 0.471309
0.029899 0.049989 0.047275
0.033836 0.057740 0.052935
0.043953 0.071034 0.063064
0.069046 0.097502 0.086636
0.116893 0.145418 0.132154
0.186543 0.217112 0.199075
0.271810 0.307222 0.281094
0.370664 0.411017 0.372033
0.484982 0.526159 0.476239
0.088078 0.106636 0.105512
0.087879 0.109935 0.107980
0.101125 0.124963 0.121644
0.134884 0.159190 0.154130
0.187662 0.212840 0.204998
0.253241 0.280750 0.268011
0.328868 0.359491 0.338021
0.418464 0.450452 0.415775
0.521775 0.550166 0.505199
0.216457 0.231795 0.235397
0.213341 0.232839 0.235688
0.222664 0.244681 0.246507
0.252330 0.275754 0.275922
0.300306 0.324625 0.322221
0.357974 0.382677 0.375734
0.421782 0.446316 0.430420
0.499263 0.521400 0.492359
0.585408 0.602916 0.558156
0.387382 0.399663 0.408394
0.383266 0.400446 0.408345
0.387038 0.407227 0.414440
0.405084 0.426751 0.432821
0.438395 0.460040 0.463919
0.482727 0.502911 0.502652
0.535992 0.552836 0.544694
0.600025 0.610730 0.589971
0.669729 0.672180 0.634009
0.571804 0.578583 0.591471
0.558338 0.570222 0.582914
0.556536 0.571565 0.584694
0.564919 0.581441 0.594570
0.583378 0.599460 0.611316
0.611856 0.625596 0.634162
0.653323 0.661300 0.663922
0.705858 0.703586 0.696207
0.762335 0.746629 0.724398
0.742749 0.741929 0.759741
0.718291 0.722221 0.740844
0.709743 0.716404 0.736893
0.711659 0.718768 0.741436
0.720547 0.725933 0.749615
0.737487 0.739496 0.761450
0.766891 0.762872 0.780218
0.809378 0.793478 0.803676
0.855665 0.822413 0.822138
0.884748 0.875431 0.900195
0.859333 0.852069 0.879280
0.846025 0.839123 0.870377
0.844030 0.835029 0.871815
0.848111 0.835248 0.876461
0.858651 0.841004 0.882838
0.878596 0.855585 0.893222
0.909105 0.878009 0.908618
0.942800 0.898954 0.920876
0.965907 0.955714 0.987686
0.967412 0.949685 0.987794
0.968549 0.942478 0.988795
0.969009 0.935417 0.991499
0.970682 0.930454 0.994547
0.976621 0.930593 0.997402
0.986395 0.938025 0.999313
0.994097 0.951523 1.000383
0.997241 0.970362 1.001225
0.029954 0.055737 0.044838
0.033505 0.063805 0.050853
0.040085 0.074060 0.057372
0.057659 0.094110 0.073320
0.103357 0.140713 0.117170
0.176922 0.217702 0.188903
0.267499 0.315943 0.277830
0.369934 0.426310 0.375086
0.485047 0.537866 0.483654
0.039700 0.062755 0.053580
0.044512 0.071787 0.061295
0.055630 0.085476 0.072887
0.083905 0.114902 0.100142
0.134753 0.167145 0.149255
0.205202 0.241952 0.217720
0.289211 0.333094 0.298554
0.384905 0.435290 0.385788
0.494466 0.542263 0.484956
0.102760 0.121930 0.116698
0.105794 0.129091 0.123328
0.118758 0.144593 0.137593
0.152110 0.179664 0.170561
0.204326 0.234390 0.221635
0.269611 0.303672 0.284727
0.343353 0.382539 0.352568
0.429466 0.472455 0.425807
0.527795 0.568949 0.506978
0.236128 0.252948 0.253333
0.232227 0.253660 0.253443
0.238403 0.263345 0.261854
0.265317 0.292964 0.289317
0.311256 0.341105 0.334017
0.368625 0.399969 0.387207
0.431041 0.464259 0.440392
0.504887 0.538963 0.497423
0.586449 0.619876 0.556011
0.403823 0.418523 0.424367
0.395312 0.414931 0.420246
0.394687 0.418298 0.422877
0.410141 0.436731 0.439625
0.441991 0.470109 0.469741
0.486288 0.514317 0.508458
0.537910 0.564719 0.548777
0.597614 0.621598 0.589223
0.662508 0.682041 0.628232
0.576531 0.585841 0.596391
0.562267 0.576843 0.587704
0.558565 0.577530 0.588771
0.564759 0.586931 0.597614
0.582037 0.605499 0.614027
0.610505 0.633102 0.636928
0.648660 0.667673 0.663553
0.696128 0.708145 0.690910
0.749392 0.751853 0.716688
0.738290 0.739021 0.755483
0.715904 0.721959 0.739667
0.708129 0.718353 0.737966
0.708350 0.721033 0.742353
0.715799 0.728971 0.750390
0.732214 0.743709 0.762156
0.758335 0.765648 0.777726
0.796095 0.794571 0.796525
0.840438 0.825805 0.814005
0.880231 0.870115 0.894617
0.854339 0.847383 0.874744
0.842075 0.837207 0.869097
0.838580 0.834325 0.871553
0.840444 0.835509 0.876090
0.849996 0.842776 0.882296
0.868056 0.856999 0.890558
0.896077 0.878228 0.902094
0.929788 0.901620 0.913769
0.970487 0.956411 0.989617
0.971184 0.948549 0.989082
0.967343 0.939305 0.988699
0.962746 0.932379 0.991219
0.961118 0.928682 0.994394
0.965899 0.931102 0.997727
0.977465 0.940641 1.000242
0.991492 0.956232 1.001080
0.999285 0.976231 1.001414
0.041091 0.069064 0.050323
0.043794 0.076693 0.056659
0.051625 0.088229 0.065485
0.076248 0.115234 0.089513
0.128611 0.170396 0.140719
0.202951 0.251672 0.214122
0.291432 0.350724 0.300838
0.389336 0.458132 0.392782
0.496084 0.559160 0.489744
0.055162 0.078710 0.063518
0.059655 0.087962 0.071868
0.073951 0.105530 0.087811
0.106137 0.140167 0.119968
0.159277 0.197335 0.172126
0.229417 0.274702 0.241057
0.311123 0.365775 0.319551
0.402831 0.465612 0.402506
0.504451 0.565326 0.490348
0.124940 0.143827 0.134416
0.129958 0.153898 0.143744
0.145402 0.173334 0.161535
0.177614 0.209333 0.194414
0.227479 0.264146 0.243864
0.290567 0.333357 0.304989
0.361721 0.411406 0.370304
0.443771 0.499640 0.439691
0.535247 0.594580 0.511329
0.258748 0.276184 0.273011
0.257473 0.280452 0.276428
0.264146 0.292104 0.286236
0.287497 0.320152 0.310936
0.328923 0.366077 0.351442
0.383138 0.423614 0.401477
0.443792 0.487757 0.453448
0.513680 0.561855 0.507238
0.589827 0.642897 0.559735
0.422907 0.438438 0.441201
0.412410 0.433941 0.436110
0.409922 0.437204 0.437950
0.422501 0.455027 0.452722
0.451160 0.487994 0.480356
0.493098 0.532103 0.516969
0.543287 0.583082 0.556542
0.599901 0.640208 0.595121
0.660321 0.700526 0.630358
0.587124 0.597197 0.605434
0.570034 0.586880 0.595281
0.563796 0.587109 0.595230
0.567730 0.596789 0.603193
0.583177 0.616490 0.618990
0.610671 0.645560 0.641563
0.647962 0.681432 0.667859
0.691901 0.721798 0.693223
0.740529 0.765248 0.716174
0.740207 0.740947 0.756044
0.716922 0.724914 0.740965
0.708083 0.722609 0.739957
0.705994 0.726028 0.743903
0.711546 0.735301 0.751768
0.727014 0.751654 0.763657
0.752387 0.774944 0.779055
0.786535 0.803693 0.795620
0.826982 0.835642 0.811337
0.878280 0.866867 0.890942
0.851805 0.845987 0.872563
0.839345 0.838690 0.869259
0.833404 0.837440 0.871794
0.832927 0.840381 0.876122
0.840841 0.849050 0.882251
0.858032 0.864180 0.890338
0.884124 0.885101 0.900078
0.916504 0.909476 0.910498
0.975479 0.957464 0.991601
0.973157 0.948592 0.989615
0.963743 0.939071 0.988199
0.954745 0.933664 0.990424
0.949870 0.932384 0.993449
0.952348 0.936537 0.996757
0.963922 0.947524 0.999745
0.982364 0.964053 1.001025
0.999491 0.984770 1.001147
0.056416 0.085103 0.058298
0.058698 0.093072 0.065295
0.071916 0.110626 0.080912
0.105905 0.148499 0.115433
0.161822 0.210975 0.171245
0.234620 0.294449 0.244138
0.319836 0.392622 0.327277
0.412683 0.495472 0.413688
0.509722 0.593640 0.498875
0.080222 0.102999 0.081790
0.084603 0.113246 0.090980
0.101993 0.135480 0.111204
0.137572 0.176262 0.147708
0.190896 0.237382 0.200979
0.258692 0.315810 0.268148
0.336901 0.405663 0.342785
0.424168 0.501481 0.421501
0.516536 0.598206 0.498299
0.156182 0.174582 0.160079
0.160857 0.185675 0.169784
0.177731 0.208582 0.190059
0.209513 0.247091 0.223403
0.256258 0.302220 0.270126
0.315035 0.370515 0.326706
0.382605 0.447341 0.388251
0.460897 0.532412 0.455106
0.545093 0.625295 0.520054
0.286226 0.303854 0.295966
0.286817 0.311332 0.301950
0.295553 0.326962 0.314672
0.316523 0.355516 0.337556
0.352512 0.399512 0.372772
0.400812 0.454812 0.416921
0.457846 0.518011 0.465574
0.524231 0.589889 0.517864
0.595134 0.668557 0.567929
0.444848 0.460122 0.458677
0.434994 0.457938 0.455271
0.432441 0.463487 0.458013
0.441798 0.481679 0.470664
0.465633 0.514042 0.494501
0.502211 0.556799 0.526372
0.549202 0.607119 0.563184
0.603470 0.662989 0.601741
0.660695 0.722009 0.637031
0.604057 0.613683 0.618477
0.583355 0.601925 0.606220
0.574200 0.602098 0.604865
0.575125 0.612799 0.611854
0.587443 0.633840 0.626371
0.611993 0.663485 0.646791
0.647261 0.699471 0.671374
0.689763 0.739882 0.697116
0.735853 0.783235 0.720407
0.749225 0.749224 0.761820
0.722682 0.732386 0.745421
0.710207 0.729495 0.742954
0.704996 0.733792 0.746331
0.708080 0.744959 0.753984
0.722023 0.763357 0.765656
0.746505 0.788158 0.780671
0.779536 0.817888 0.797319
0.817494 0.850431 0.813129
0.881935 0.869312 0.891701
0.853104 0.849116 0.873434
0.837959 0.842831 0.870058
0.828989 0.842914 0.872130
0.826032 0.847670 0.876107
0.832249 0.858267 0.882204
0.848301 0.874749 0.890427
0.873475 0.896497 0.900202
0.904390 0.921448 0.910236
0.980754 0.960292 0.993672
0.973740 0.950577 0.989748
0.959983 0.942389 0.987988
0.947683 0.939054 0.989666
0.940111 0.940003 0.992254
0.940876 0.946165 0.995402
0.951039 0.957858 0.998681
0.970013 0.974412 1.000524
0.993120 0.994536 1.000625
0.086719 0.114765 0.079579
0.088171 0.122998 0.087302
0.106778 0.147537 0.109535
0.145187 0.193608 0.149770
0.201408 0.260637 0.207272
0.272488 0.345829 0.279450
0.353825 0.441555 0.358776
0.440420 0.537947 0.438867
0.525232 0.633766 0.511841
0.122756 0.143889 0.116636
0.123067 0.151739 0.122746
0.140136 0.176252 0.143432
0.176054 0.221545 0.181212
0.227730 0.285521 0.233748
0.291919 0.364868 0.297361
0.365391 0.452902 0.366661
0.448055 0.543837 0.440925
0.531908 0.636397 0.510735
0.199214 0.217294 0.196587
0.199012 0.225373 0.202020
0.214591 0.249740 0.221782
0.244987 0.290542 0.254223
0.288122 0.346575 0.297414
0.341574 0.414476 0.348044
0.405137 0.490871 0.404914
0.479842 0.572270 0.469179
0.556461 0.658256 0.531524
0.319901 0.337436 0.323187
0.318884 0.345318 0.328453
0.328528 0.364156 0.342582
0.348324 0.394940 0.364421
0.378976 0.438264 0.394670
0.420451 0.492378 0.432192
0.472514 0.555213 0.475737
0.535346 0.624107 0.526082
0.601769 0.695881 0.578698
0.470420 0.485172 0.477243
0.460487 0.484913 0.475115
0.458767 0.493973 0.479431
0.465390 0.513531 0.490147
0.483139 0.545118 0.509272
0.513315 0.587239 0.535745
0.555264 0.636538 0.567967
0.606874 0.689862 0.605447
0.663640 0.745873 0.646408
0.624144 0.633253 0.632982
0.601169 0.621254 0.619489
0.589240 0.622204 0.616835
0.586513 0.634269 0.622308
0.594479 0.656182 0.634451
0.614453 0.685670 0.651520
0.646409 0.720964 0.672832
0.687493 0.760578 0.698430
0.734886 0.803190 0.727586
0.762368 0.761456 0.770314
0.731714 0.742602 0.751186
0.714497 0.738740 0.746565
0.706004 0.744912 0.749783
0.706325 0.758594 0.757165
0.717860 0.778725 0.767801
0.740761 0.804197 0.781258
0.773025 0.834172 0.798106
0.811818 0.866482 0.817033
0.889722 0.876076 0.895653
0.856965 0.853970 0.875254
0.837647 0.847665 0.870665
0.824930 0.849283 0.872271
0.819185 0.856160 0.875943
0.823696 0.868990 0.881988
0.838864 0.886970 0.890145
0.863451 0.909895 0.900351
0.893816 0.934989 0.911362
0.985339 0.965076 0.995909
0.974968 0.954614 0.990770
0.957907 0.948297 0.988302
0.941823 0.946950 0.988064
0.932143 0.949601 0.990002
0.932153 0.956990 0.993494
0.940649 0.970122 0.997861
0.958248 0.986766 1.000003
0.980393 1.000000 1.000000
