Project4/SoftBlackAndWhite.cube
TITLE "SoftBlackAndWhite"
# Created by Photon 3D ColorGrading
DOMAIN_MIN 0 0 0
DOMAIN_MAX 1 1 1
LUT_3D_SIZE 33
0.000001 0.000001 0.007838
0.001151 0.001566 0.007698
0.002384 0.003364 0.008165
0.003753 0.005564 0.009621
0.005332 0.008284 0.012155
0.007110 0.011459 0.015467
0.009030 0.014898 0.019049
0.011008 0.018384 0.022415
0.012958 0.021771 0.025264
0.014848 0.025081 0.027552
0.016769 0.028522 0.029481
0.018915 0.032380 0.031370
0.021615 0.036967 0.033631
0.025368 0.042620 0.036801
0.030843 0.049767 0.041582
0.038765 0.058921 0.048764
0.049734 0.070594 0.059038
0.064048 0.085139 0.072766
0.081608 0.102629 0.089847
0.101948 0.122815 0.109744
0.124348 0.145156 0.131660
0.148098 0.169039 0.154867
0.172961 0.194295 0.179155
0.198644 0.220534 0.204278
0.225249 0.247802 0.230345
0.252880 0.276141 0.257405
0.281555 0.305501 0.285380
0.311266 0.335805 0.314171
0.342049 0.367029 0.343774
0.373941 0.399177 0.374264
0.406898 0.432209 0.405687
0.440959 0.466170 0.438168
0.475643 0.500661 0.471278
0.001807 0.003633 0.012014
0.002712 0.004648 0.011379
0.003727 0.005942 0.011349
0.004934 0.007729 0.012326
0.006395 0.010117 0.014399
0.008120 0.013061 0.017321
0.010040 0.016359 0.020611
0.012086 0.019803 0.023819
0.014177 0.023239 0.026652
0.016318 0.026705 0.029094
0.018601 0.030383 0.031333
0.021262 0.034578 0.033719
0.024655 0.039619 0.036686
0.029315 0.045895 0.040806
0.035879 0.053838 0.046752
0.044975 0.063901 0.055201
0.057033 0.076459 0.066650
0.072168 0.091698 0.081255
0.090186 0.109588 0.098807
0.110619 0.129861 0.118781
0.132848 0.152051 0.140507
0.156291 0.175648 0.163401
0.180796 0.200548 0.187348
0.206104 0.226393 0.212121
0.232308 0.253221 0.237807
0.259496 0.281057 0.264428
0.287682 0.309851 0.291899
0.316863 0.339542 0.320131
0.347075 0.370119 0.349133
0.378354 0.401601 0.378987
0.410650 0.433952 0.409740
0.443992 0.467216 0.441511
0.477921 0.501001 0.473886
0.004160 0.007895 0.016677
0.004841 0.008429 0.015663
0.005658 0.009277 0.015235
0.006719 0.010686 0.015798
0.008088 0.012769 0.017454
0.009762 0.015469 0.019980
0.011715 0.018631 0.022984
0.013859 0.022030 0.026035
0.016141 0.025536 0.028879
0.018589 0.029188 0.031519
0.021325 0.033170 0.034153
0.024591 0.037771 0.037126
0.028781 0.043352 0.040902
0.034424 0.050316 0.046050
0.042120 0.059092 0.053197
0.052386 0.070067 0.062901
0.065487 0.083476 0.075468
0.081382 0.099362 0.090875
0.099787 0.117601 0.108821
0.120257 0.137919 0.128818
0.142276 0.159928 0.150320
0.165382 0.183214 0.172879
0.189504 0.207735 0.196465
0.214415 0.233164 0.220870
0.240195 0.259524 0.246150
0.266917 0.286828 0.272304
0.294588 0.315026 0.299240
0.323216 0.344075 0.326887
0.352840 0.373982 0.355268
0.383492 0.404776 0.384477
0.415120 0.436430 0.414563
0.447742 0.468985 0.445637
0.480916 0.502050 0.477294
0.007674 0.013387 0.022356
0.008166 0.013560 0.021156
0.008817 0.014068 0.020497
0.009756 0.015165 0.020760
0.011059 0.016977 0.022065
0.012735 0.019464 0.024246
0.014758 0.022488 0.026973
0.017066 0.025860 0.029895
0.019629 0.029477 0.032810
0.022497 0.033382 0.035740
0.025818 0.037761 0.038895
0.029848 0.042893 0.042612
0.034986 0.049139 0.047349
0.041728 0.056893 0.053634
0.050604 0.066551 0.062020
0.062010 0.078422 0.072928
0.076064 0.092621 0.086499
0.092597 0.109068 0.102569
0.111276 0.127570 0.120785
0.131695 0.147869 0.140718
0.153441 0.169650 0.161945
0.176168 0.192591 0.184141
0.199872 0.216697 0.207343
0.224348 0.241666 0.231342
0.249660 0.267508 0.256169
0.275869 0.294224 0.281799
0.302981 0.321771 0.308144
0.331013 0.350123 0.335153
0.360014 0.379311 0.362876
0.390019 0.409381 0.391421
0.420971 0.440308 0.420839
0.452876 0.472128 0.451234
0.485308 0.504452 0.482202
0.013051 0.020635 0.029628
0.013388 0.020597 0.028449
0.013906 0.020891 0.027743
0.014764 0.021782 0.027863
0.016042 0.023391 0.028929
0.017774 0.025715 0.030846
0.019935 0.028638 0.033365
0.022489 0.032022 0.036225
0.025441 0.035809 0.039303
0.028862 0.040054 0.042645
0.032937 0.044955 0.046484
0.037943 0.050790 0.051153
0.044240 0.057882 0.057053
0.052257 0.066583 0.064637
0.062373 0.077195 0.074299
0.074823 0.089903 0.086286
0.089611 0.104732 0.100615
0.106534 0.121552 0.117078
0.125284 0.140168 0.135358
0.145529 0.160359 0.155112
0.166940 0.181865 0.176017
0.189253 0.204430 0.197832
0.212507 0.228083 0.220623
0.236507 0.252544 0.244176
0.261301 0.277803 0.268486
0.286937 0.303859 0.293516
0.313427 0.330676 0.319191
0.340805 0.358258 0.345492
0.369143 0.386666 0.372507
0.398482 0.415964 0.400361
0.428760 0.446128 0.429105
0.459975 0.477190 0.458836
0.491702 0.508751 0.489139
0.020992 0.030027 0.039045
0.021215 0.029938 0.038069
0.021649 0.030170 0.037497
0.022467 0.030978 0.037635
0.023771 0.032490 0.038610
0.025605 0.034725 0.040386
0.027961 0.037608 0.042802
0.030834 0.041066 0.045706
0.034255 0.045083 0.049044
0.038316 0.049733 0.052894
0.043200 0.055199 0.057470
0.049152 0.061718 0.063055
0.056492 0.069579 0.069993
0.065576 0.079085 0.078649
0.076732 0.090515 0.089360
0.090118 0.104007 0.102288
0.105633 0.119488 0.117338
0.122988 0.136742 0.134221
0.141852 0.155525 0.152604
0.161954 0.175646 0.172223
0.183058 0.196905 0.192851
0.204976 0.219104 0.214316
0.227777 0.242288 0.236694
0.251268 0.266190 0.259756
0.275495 0.290801 0.283483
0.300493 0.316114 0.307828
0.326295 0.342118 0.332746
0.352966 0.368856 0.358268
0.380607 0.396426 0.384524
0.409276 0.424914 0.411661
0.438907 0.454294 0.439724
0.469491 0.484586 0.468796
0.500587 0.515382 0.498445
0.032105 0.041836 0.051093
0.032262 0.041846 0.050452
0.032651 0.042155 0.050147
0.033473 0.043012 0.050449
0.034841 0.044542 0.051486
0.036817 0.046790 0.053270
0.039421 0.049737 0.055735
0.042667 0.053357 0.058813
0.046612 0.057679 0.062516
0.051365 0.062800 0.066953
0.057099 0.068884 0.072317
0.064032 0.076142 0.078847
0.072422 0.084809 0.086812
0.082544 0.095135 0.096489
0.094627 0.107330 0.108110
0.108733 0.121460 0.121743
0.124710 0.137403 0.137241
0.142263 0.154914 0.154314
0.161103 0.173760 0.172680
0.181016 0.193774 0.192135
0.201827 0.214795 0.212515
0.223383 0.236649 0.233666
0.245746 0.259364 0.255632
0.268726 0.282688 0.278175
0.292349 0.306600 0.301255
0.316665 0.331107 0.324842
0.341735 0.356236 0.348937
0.367668 0.382078 0.373628
0.394605 0.408780 0.399094
0.422627 0.436446 0.425499
0.451664 0.465046 0.452874
0.481696 0.494588 0.481282
0.512261 0.524643 0.510272
0.046874 0.056361 0.066237
0.047005 0.056578 0.065991
0.047391 0.057079 0.066037
0.048243 0.058090 0.066604
0.049704 0.059754 0.067834
0.051851 0.062134 0.069775
0.054721 0.065245 0.072424
0.058359 0.069120 0.075793
0.062826 0.073807 0.079931
0.068235 0.079417 0.084962
0.074742 0.086100 0.091055
0.082524 0.094027 0.098400
0.091784 0.103395 0.107204
0.102724 0.114401 0.117670
0.115487 0.127195 0.129948
0.130085 0.141801 0.144054
0.146338 0.158065 0.159819
0.163975 0.175742 0.176980
0.182747 0.194611 0.195299
0.202486 0.214524 0.214618
0.223053 0.235337 0.234797
0.244300 0.256876 0.255674
0.266253 0.279128 0.277233
0.288727 0.301859 0.299236
0.311741 0.325046 0.321634
0.335361 0.348718 0.344426
0.359691 0.372949 0.367672
0.384894 0.397891 0.391522
0.411156 0.423733 0.416199
0.438575 0.450599 0.441874
0.467077 0.478450 0.468556
0.496630 0.507277 0.496281
0.526740 0.536628 0.524582
0.065692 0.074060 0.084979
0.065820 0.074539 0.085125
0.066220 0.075288 0.085532
0.067125 0.076532 0.086417
0.068692 0.078414 0.087922
0.071015 0.081016 0.090121
0.074149 0.084385 0.093057
0.078146 0.088573 0.096779
0.083073 0.093649 0.101362
0.089035 0.099725 0.106929
0.096155 0.106925 0.113620
0.104582 0.115400 0.121592
0.114466 0.125307 0.130998
0.125947 0.136799 0.141985
0.139122 0.149991 0.154660
0.153966 0.164873 0.169008
0.170306 0.181287 0.184868
0.187901 0.199000 0.202007
0.206544 0.217813 0.220228
0.226099 0.237585 0.239396
0.246434 0.258172 0.259369
0.267395 0.279392 0.279965
0.288961 0.301180 0.301103
0.310948 0.323320 0.322552
0.333374 0.345790 0.344265
0.356328 0.368647 0.366278
0.379963 0.392018 0.388708
0.404492 0.416107 0.411761
0.430135 0.441142 0.435685
0.457000 0.467253 0.460643
0.484997 0.494387 0.486618
0.514079 0.522516 0.513612
0.543730 0.551172 0.541157
0.088897 0.095557 0.107861
0.089023 0.096295 0.108342
0.089437 0.097299 0.109071
0.090389 0.098793 0.110262
0.092050 0.100929 0.112060
0.094529 0.103800 0.114556
0.097889 0.107466 0.117811
0.102182 0.111988 0.121890
0.107466 0.117433 0.126873
0.113824 0.123897 0.132866
0.121361 0.131496 0.139992
0.130194 0.140356 0.148377
0.140434 0.150607 0.158142
0.152180 0.162369 0.169398
0.165494 0.175726 0.182220
0.180344 0.190658 0.196590
0.196571 0.207014 0.212361
0.213969 0.224582 0.229333
0.232370 0.243186 0.247337
0.251643 0.262679 0.266232
0.271640 0.282899 0.285857
0.292330 0.303781 0.306136
0.313515 0.325090 0.326816
0.335029 0.346638 0.347693
0.356910 0.368426 0.368747
0.379271 0.390537 0.390046
0.402300 0.413137 0.411747
0.426242 0.436466 0.434088
0.451329 0.460765 0.457316
0.477657 0.486159 0.481569
0.505128 0.512585 0.506808
0.533686 0.540009 0.533016
0.562689 0.567845 0.559628
0.116768 0.121503 0.135395
0.116867 0.122447 0.136117
0.117268 0.123660 0.137089
0.118234 0.125371 0.138524
0.119951 0.127739 0.140572
0.122537 0.130865 0.143335
0.126057 0.134813 0.146879
0.130547 0.139626 0.151258
0.136054 0.145366 0.156546
0.142639 0.152108 0.162830
0.150392 0.159961 0.170217
0.159409 0.169038 0.178813
0.169775 0.179446 0.188714
0.181561 0.191282 0.200011
0.194797 0.204595 0.212765
0.209445 0.219356 0.226962
0.225386 0.235447 0.242488
0.242458 0.252692 0.259163
0.260509 0.270928 0.276821
0.279391 0.289987 0.295298
0.298935 0.309686 0.314412
0.319111 0.329961 0.334091
0.339764 0.350624 0.354132
0.360747 0.371515 0.374361
0.382102 0.392639 0.394771
0.403943 0.414083 0.415435
0.426460 0.436014 0.436511
0.449885 0.458666 0.458220
0.474422 0.482258 0.480773
0.500139 0.506896 0.504273
0.526932 0.532516 0.528666
0.554748 0.559090 0.553930
0.582981 0.586058 0.579554
0.149476 0.152364 0.167936
0.149493 0.153425 0.168789
0.149824 0.154760 0.169895
0.150741 0.156607 0.171475
0.152444 0.159132 0.173686
0.155056 0.162440 0.176631
0.158634 0.166586 0.180370
0.163202 0.171597 0.184945
0.168778 0.177506 0.190403
0.175411 0.184378 0.196820
0.183169 0.192301 0.204285
0.192131 0.201374 0.212893
0.202361 0.211688 0.222725
0.213910 0.223319 0.233847
0.226809 0.236313 0.246304
0.241025 0.250647 0.260076
0.256457 0.266213 0.275061
0.272964 0.282856 0.291116
0.290420 0.300436 0.308106
0.308702 0.318814 0.325895
0.327660 0.337826 0.344317
0.347276 0.357423 0.363314
0.367397 0.377428 0.382697
0.387879 0.397686 0.402303
0.408766 0.418207 0.422131
0.430175 0.439076 0.442256
0.452276 0.460447 0.462816
0.475263 0.482518 0.483987
0.499257 0.505436 0.505900
0.524236 0.529226 0.528570
0.550265 0.553993 0.552077
0.577020 0.579465 0.576179
0.604050 0.605210 0.600510
0.187014 0.188271 0.205569
0.186861 0.189328 0.206427
0.187031 0.190667 0.207544
0.187807 0.192532 0.209146
0.189395 0.195098 0.211397
0.191921 0.198467 0.214400
0.195436 0.202684 0.218205
0.199941 0.207754 0.222833
0.205441 0.213689 0.228314
0.211959 0.220531 0.234700
0.219558 0.228360 0.242073
0.228298 0.237262 0.250515
0.238234 0.247315 0.260094
0.249399 0.258577 0.270858
0.261812 0.271081 0.282838
0.275443 0.284801 0.296008
0.290198 0.299642 0.310276
0.305961 0.315472 0.325519
0.322629 0.332175 0.341625
0.340105 0.349640 0.358490
0.358266 0.367736 0.375983
0.377134 0.386457 0.394096
0.396590 0.405667 0.412683
0.416489 0.425212 0.431589
0.436881 0.445108 0.450818
0.457859 0.465416 0.470420
0.479544 0.486243 0.490481
0.502054 0.507720 0.511105
0.525433 0.529925 0.532345
0.549598 0.552829 0.554162
0.574529 0.576453 0.576549
0.599940 0.600552 0.599291
0.625517 0.624822 0.622155
0.229188 0.229033 0.248076
0.228748 0.229940 0.248807
0.228639 0.231137 0.249801
0.229151 0.232873 0.251287
0.230500 0.235331 0.253435
0.232810 0.238610 0.256347
0.236124 0.242744 0.260064
0.240429 0.247718 0.264590
0.245706 0.253521 0.269930
0.251967 0.260178 0.276123
0.259254 0.267751 0.283236
0.267622 0.276317 0.291340
0.277112 0.285940 0.300492
0.287746 0.296667 0.310728
0.299534 0.308519 0.322062
0.312443 0.321472 0.334465
0.326389 0.335439 0.347852
0.341269 0.350305 0.362115
0.356999 0.365977 0.377171
0.373511 0.382372 0.392947
0.390717 0.399397 0.409355
0.408692 0.417103 0.426448
0.427362 0.435402 0.444135
0.446578 0.454141 0.462258
0.466389 0.473333 0.480819
0.486853 0.493006 0.499832
0.508022 0.513205 0.519316
0.529928 0.533977 0.539292
0.552537 0.555328 0.559738
0.575715 0.577178 0.580569
0.599367 0.599473 0.601707
0.623250 0.622005 0.622974
0.647192 0.644605 0.644265
0.275608 0.274203 0.294950
0.274745 0.274795 0.295417
0.274223 0.275686 0.296148
0.274340 0.277133 0.297378
0.275317 0.279321 0.299279
0.277280 0.282352 0.301951
0.280262 0.286245 0.305427
0.284237 0.290971 0.309695
0.289166 0.296497 0.314742
0.295042 0.302827 0.320587
0.301893 0.310006 0.327285
0.309761 0.318095 0.334896
0.318676 0.327150 0.343468
0.328655 0.337206 0.353025
0.339700 0.348282 0.363574
0.351778 0.360355 0.375081
0.364808 0.373347 0.387469
0.378694 0.387152 0.400644
0.393372 0.401695 0.414544
0.408799 0.416920 0.429130
0.424925 0.432773 0.444357
0.441881 0.449357 0.460339
0.459637 0.466631 0.477029
0.478037 0.484438 0.494260
0.497118 0.502784 0.512027
0.516897 0.521661 0.530303
0.537359 0.541049 0.549043
0.558461 0.560923 0.568198
0.580105 0.581228 0.587689
0.602133 0.601852 0.607403
0.624402 0.622688 0.627216
0.646717 0.643573 0.646989
0.669017 0.664447 0.666718
0.325647 0.323124 0.345412
0.324237 0.323239 0.345486
0.323181 0.323665 0.345829
0.322787 0.324670 0.346677
0.323282 0.326444 0.348206
0.324789 0.329084 0.350512
0.327333 0.332600 0.353618
0.330873 0.336947 0.357499
0.335352 0.342074 0.362124
0.340742 0.347961 0.367493
0.347051 0.354631 0.373646
0.354309 0.362131 0.380635
0.362538 0.370504 0.388500
0.371752 0.379783 0.397260
0.381950 0.389989 0.406917
0.393099 0.401101 0.417437
0.405118 0.413045 0.428747
0.417917 0.425725 0.440764
0.431444 0.439073 0.453446
0.445684 0.453059 0.466782
0.460621 0.467659 0.480764
0.476438 0.483024 0.495555
0.493138 0.499146 0.511143
0.510557 0.515866 0.527348
0.528715 0.533178 0.544153
0.547591 0.551041 0.561497
0.567118 0.569389 0.579290
0.587201 0.588147 0.597435
0.607711 0.607222 0.615822
0.628482 0.626493 0.634327
0.649359 0.645835 0.652811
0.670191 0.665121 0.671169
0.690969 0.684355 0.689446
0.378398 0.374894 0.398435
0.376358 0.374408 0.398011
0.374691 0.374251 0.397867
0.373717 0.374704 0.398245
0.373666 0.375959 0.399318
0.374655 0.378108 0.401178
0.376697 0.381150 0.403834
0.379734 0.385025 0.407244
0.383691 0.389662 0.411361
0.388518 0.395017 0.416167
0.394203 0.401093 0.421687
0.400761 0.407915 0.427963
0.408210 0.415519 0.435030
0.416562 0.423940 0.442909
0.425818 0.433200 0.451598
0.435943 0.443283 0.461067
0.446859 0.454118 0.471242
0.458479 0.465611 0.482052
0.470762 0.477703 0.493467
0.483715 0.490380 0.505503
0.497356 0.503646 0.518178
0.511905 0.517681 0.531691
0.527397 0.532509 0.546056
0.543657 0.547967 0.561086
0.560693 0.564044 0.576753
0.578455 0.580679 0.592977
0.596845 0.597779 0.609643
0.615745 0.615244 0.626632
0.635016 0.632971 0.643822
0.654503 0.650842 0.661092
0.674063 0.668744 0.678311
0.693566 0.686575 0.695390
0.713015 0.704351 0.712387
0.432677 0.428339 0.452800
0.429988 0.427200 0.451813
0.427696 0.426412 0.451125
0.426137 0.426269 0.450990
0.425538 0.426965 0.451579
0.426005 0.428583 0.452969
0.427532 0.431108 0.455152
0.430042 0.434462 0.458065
0.433442 0.438556 0.461642
0.437659 0.443325 0.465849
0.442664 0.448746 0.470694
0.448457 0.454830 0.476211
0.455052 0.461605 0.482435
0.462464 0.469106 0.489385
0.470695 0.477359 0.497062
0.479713 0.486352 0.505435
0.489439 0.496014 0.514435
0.499795 0.506256 0.523998
0.510750 0.517026 0.534107
0.522329 0.528320 0.544793
0.534574 0.540163 0.556096
0.547735 0.552755 0.568238
0.561873 0.566145 0.581257
0.576813 0.580181 0.594972
0.592560 0.594855 0.609355
0.609051 0.610100 0.624321
0.626176 0.625817 0.639746
0.643811 0.641901 0.655507
0.661823 0.658249 0.671481
0.680067 0.674757 0.687552
0.698423 0.691334 0.703607
0.716767 0.707890 0.719564
0.735081 0.724417 0.735458
0.487167 0.482100 0.507232
0.483869 0.480333 0.505657
0.480998 0.478942 0.504413
0.478903 0.478234 0.503769
0.477809 0.478400 0.503893
0.477799 0.479508 0.504844
0.478843 0.481525 0.506585
0.480844 0.484356 0.509031
0.483687 0.487894 0.512095
0.487281 0.492056 0.515724
0.491582 0.496798 0.519910
0.496579 0.502118 0.524677
0.502283 0.508035 0.530054
0.508708 0.514581 0.536060
0.515862 0.521786 0.542702
0.523713 0.529640 0.549953
0.532193 0.538077 0.557752
0.541231 0.547015 0.566045
0.550809 0.556409 0.574826
0.560962 0.566264 0.584134
0.571750 0.576617 0.594021
0.583436 0.587676 0.604723
0.596111 0.599518 0.616301
0.609616 0.612018 0.628598
0.623965 0.625183 0.641602
0.639101 0.638958 0.655238
0.654916 0.653249 0.669385
0.671287 0.667953 0.683919
0.688084 0.682972 0.698718
0.705168 0.698204 0.713665
0.722440 0.713588 0.728667
0.739772 0.729032 0.743639
0.757109 0.744488 0.758583
0.540639 0.534842 0.560580
0.536808 0.532533 0.558432
0.533436 0.530624 0.556654
0.530887 0.529432 0.555539
0.529374 0.529143 0.555250
0.528958 0.529807 0.555820
0.529579 0.531367 0.557182
0.531113 0.533711 0.559221
0.533428 0.536715 0.561827
0.536420 0.540282 0.564929
0.540030 0.544354 0.568505
0.544242 0.548917 0.572565
0.549060 0.553981 0.577134
0.554501 0.559578 0.582233
0.560572 0.565733 0.587869
0.567252 0.572439 0.594023
0.574483 0.579640 0.600647
0.582208 0.587263 0.607697
0.590420 0.595273 0.615174
0.599159 0.603680 0.623120
0.608490 0.612528 0.631593
0.618682 0.622026 0.640830
0.629850 0.632278 0.650927
0.641868 0.643197 0.661759
0.654776 0.654820 0.673345
0.668537 0.667118 0.685634
0.683054 0.680008 0.698516
0.698208 0.693391 0.711866
0.713864 0.707164 0.725555
0.729882 0.721225 0.739464
0.746178 0.735532 0.753514
0.762614 0.749986 0.767611
0.779089 0.764491 0.781712
0.592159 0.585524 0.611981
0.587879 0.582777 0.609305
0.584087 0.580450 0.607043
0.581161 0.578871 0.605510
0.579304 0.578217 0.604866
0.578549 0.578516 0.605117
0.578805 0.579689 0.606163
0.579923 0.581603 0.607861
0.581755 0.584120 0.610075
0.584184 0.587132 0.612718
0.587146 0.590575 0.615752
0.590618 0.594423 0.619178
0.594603 0.598683 0.623013
0.599115 0.603377 0.627277
0.604165 0.608529 0.631980
0.609737 0.614132 0.637108
0.615789 0.620143 0.642630
0.622280 0.626504 0.648515
0.629211 0.633190 0.654772
0.636624 0.640213 0.661440
0.644576 0.647616 0.668575
0.653331 0.655603 0.676405
0.663025 0.664301 0.685053
0.673572 0.673667 0.694439
0.685050 0.683777 0.704622
0.697455 0.694634 0.715581
0.710709 0.706174 0.727227
0.724699 0.718302 0.739437
0.739288 0.730910 0.752079
0.754319 0.743885 0.765020
0.769724 0.757199 0.778195
0.785344 0.770740 0.791493
0.801040 0.784368 0.804833
0.641197 0.633573 0.660954
0.636537 0.630470 0.657811
0.632389 0.627807 0.655121
0.629142 0.625918 0.653221
0.626989 0.624972 0.652268
0.625941 0.624976 0.652246
0.625876 0.625825 0.653024
0.626623 0.627368 0.654429
0.628017 0.629454 0.656309
0.629939 0.631970 0.658557
0.632319 0.634846 0.661125
0.635130 0.638051 0.664002
0.638371 0.641584 0.667197
0.642053 0.645460 0.670727
0.646188 0.649698 0.674603
0.650771 0.654296 0.678823
0.655774 0.659222 0.683369
0.661172 0.664437 0.688226
0.666970 0.669920 0.693405
0.673204 0.675687 0.698938
0.679923 0.681776 0.704875
0.687368 0.688372 0.711424
0.695690 0.695622 0.718724
0.704845 0.703524 0.726743
0.714947 0.712190 0.735574
0.726033 0.721659 0.745238
0.738057 0.731895 0.755672
0.750918 0.742812 0.766769
0.764477 0.754299 0.778394
0.778568 0.766236 0.790407
0.793128 0.778605 0.802751
0.807978 0.791273 0.815299
0.822934 0.804061 0.827921
0.687608 0.678882 0.707374
0.682616 0.675473 0.703826
0.678152 0.672519 0.700761
0.674614 0.670362 0.698533
0.672190 0.669164 0.697299
0.670869 0.668914 0.697026
0.670508 0.669486 0.697559
0.670916 0.670706 0.698701
0.671917 0.672415 0.700282
0.673392 0.674497 0.702187
0.675271 0.676883 0.704360
0.677528 0.679542 0.706782
0.680158 0.682466 0.709456
0.683159 0.685654 0.712386
0.686528 0.689107 0.715575
0.690261 0.692820 0.719024
0.694354 0.696782 0.722734
0.698805 0.700977 0.726710
0.703631 0.705403 0.730972
0.708857 0.710070 0.735544
0.714520 0.715008 0.740461
0.720827 0.720381 0.745903
0.727929 0.726337 0.752011
0.735815 0.732902 0.758786
0.744627 0.740216 0.766352
0.754443 0.748355 0.774767
0.765253 0.757312 0.784005
0.776986 0.767027 0.793985
0.789508 0.777397 0.804586
0.802652 0.788299 0.815666
0.816361 0.799726 0.827183
0.830433 0.811528 0.838987
0.844640 0.823478 0.850898
0.731463 0.721625 0.751332
0.726181 0.717933 0.747437
0.721435 0.714708 0.744041
0.717627 0.712298 0.741515
0.714943 0.710863 0.740016
0.713361 0.710381 0.739502
0.712719 0.710700 0.739798
0.712813 0.711632 0.740691
0.713456 0.713002 0.741993
0.714527 0.714693 0.743582
0.715958 0.716635 0.745397
0.717721 0.718798 0.747414
0.719808 0.721168 0.749632
0.722216 0.723742 0.752052
0.724946 0.726521 0.754682
0.728000 0.729502 0.757526
0.731380 0.732681 0.760594
0.735092 0.736049 0.763892
0.739147 0.739605 0.767434
0.743563 0.743357 0.771237
0.748362 0.747330 0.775323
0.753721 0.751663 0.779846
0.759779 0.756494 0.784937
0.766545 0.761871 0.790619
0.774177 0.767945 0.797032
0.782780 0.774815 0.804258
0.792386 0.782512 0.812312
0.802960 0.791011 0.821153
0.814392 0.800231 0.830685
0.826523 0.810060 0.840783
0.839311 0.820506 0.851425
0.852532 0.831396 0.862436
0.865919 0.842466 0.873592
0.772795 0.761954 0.792888
0.767288 0.758010 0.788711
0.762315 0.754540 0.785042
0.758276 0.751895 0.782255
0.755360 0.750237 0.780513
0.753539 0.749534 0.779772
0.752645 0.749622 0.779846
0.752456 0.750291 0.780504
0.752782 0.751358 0.781549
0.753498 0.752698 0.782852
0.754540 0.754246 0.784348
0.755880 0.755971 0.786016
0.757511 0.757862 0.787851
0.759431 0.759913 0.789858
0.761642 0.762123 0.792041
0.764150 0.764492 0.794409
0.766961 0.767020 0.796974
0.770082 0.769700 0.799740
0.773520 0.772532 0.802717
0.777283 0.775523 0.805912
0.781385 0.778692 0.809343
0.785970 0.782154 0.813128
0.791155 0.786030 0.817381
0.796957 0.790371 0.822133
0.803527 0.795323 0.827517
0.810988 0.801002 0.833632
0.819404 0.807469 0.840527
0.828779 0.814738 0.848203
0.839044 0.822766 0.856609
0.850058 0.831461 0.865643
0.861804 0.840850 0.875313
0.874049 0.850747 0.885435
0.886485 0.860849 0.895735
0.811324 0.799710 0.831801
0.805724 0.795604 0.827458
0.800642 0.791965 0.823614
0.796470 0.789145 0.820643
0.793396 0.787305 0.818714
0.791398 0.786414 0.817786
0.790304 0.786300 0.817671
0.789888 0.786739 0.818130
0.789954 0.787539 0.818953
0.790373 0.788568 0.820006
0.791083 0.789762 0.821222
0.792062 0.791095 0.822584
0.793307 0.792562 0.824093
0.794818 0.794155 0.825754
0.796602 0.795878 0.827575
0.798665 0.797728 0.829564
0.801015 0.799706 0.831730
0.803656 0.801807 0.834075
0.806593 0.804032 0.836604
0.809827 0.806386 0.839319
0.813363 0.808885 0.842228
0.817317 0.811622 0.845424
0.821779 0.814694 0.848994
0.826760 0.818145 0.852962
0.832391 0.822105 0.857444
0.838794 0.826691 0.862539
0.846051 0.831985 0.868318
0.854206 0.838042 0.874825
0.863227 0.844855 0.882052
0.873013 0.852361 0.889936
0.883574 0.860611 0.898519
0.894685 0.869415 0.907619
0.906012 0.878445 0.916928
0.846367 0.834345 0.867422
0.840900 0.830252 0.863104
0.835918 0.826603 0.859259
0.831791 0.823733 0.856247
0.828709 0.821812 0.854245
0.826658 0.820810 0.853222
0.825477 0.820563 0.853001
0.824940 0.820840 0.853337
0.824841 0.821434 0.854008
0.825042 0.822203 0.854865
0.825477 0.823075 0.855834
0.826135 0.824037 0.856908
0.827028 0.825095 0.858104
0.828174 0.826260 0.859444
0.829586 0.827539 0.860943
0.831273 0.828931 0.862608
0.833238 0.830432 0.864441
0.835480 0.832038 0.866438
0.837997 0.833744 0.868596
0.840789 0.835560 0.870915
0.843853 0.837496 0.873398
0.847282 0.839627 0.876111
0.851138 0.842025 0.879113
0.855417 0.844723 0.882418
0.860224 0.847826 0.886113
0.865662 0.851441 0.890287
