Project4/Waves.cube
TITLE "Waves"
# Created by Photon 3D ColorGrading
DOMAIN_MIN 0 0 0
DOMAIN_MAX 1 1 1
LUT_3D_SIZE 33
0.000001 0.000001 0.000001
0.026028 -0.006899 -0.007143
0.061114 -0.016615 -0.017190
0.107195 -0.030130 -0.031143
0.164155 -0.048026 -0.049587
0.230876 -0.070622 -0.072832
0.306080 -0.098101 -0.101052
0.371214 -0.122746 -0.126339
0.426525 -0.143993 -0.148128
0.479696 -0.164894 -0.169547
0.532497 -0.186068 -0.191234
0.585477 -0.207640 -0.213317
0.638818 -0.229587 -0.235776
0.692597 -0.251846 -0.258546
0.746850 -0.274338 -0.281546
0.801588 -0.296972 -0.304686
0.856805 -0.319651 -0.327867
0.912475 -0.342271 -0.350984
0.968553 -0.364725 -0.373928
1.024978 -0.386898 -0.396582
1.081666 -0.408667 -0.418821
1.138496 -0.429874 -0.440482
1.195262 -0.450250 -0.461297
1.251588 -0.469397 -0.480865
1.306924 -0.486833 -0.498703
1.360543 -0.501882 -0.514130
1.411797 -0.514008 -0.526599
1.460235 -0.522954 -0.535836
1.504995 -0.528102 -0.541185
1.549100 -0.532603 -0.545825
1.580125 -0.524112 -0.537271
1.602556 -0.507418 -0.520401
1.620116 -0.486119 -0.498873
-0.006184 0.025925 -0.007041
0.001228 0.001190 -0.000883
0.006501 -0.000987 -0.001963
0.028543 -0.006981 -0.007901
0.049302 -0.011753 -0.013709
0.081676 -0.017867 -0.023008
0.145357 -0.028957 -0.042397
0.244155 -0.047483 -0.076006
0.355841 -0.073127 -0.119461
0.446219 -0.097992 -0.157602
0.513432 -0.119722 -0.186590
0.571460 -0.141309 -0.211780
0.626010 -0.163154 -0.235514
0.679810 -0.185333 -0.258985
0.733832 -0.207788 -0.282566
0.788373 -0.230431 -0.306298
0.843497 -0.253160 -0.330104
0.899193 -0.275871 -0.353873
0.955418 -0.298450 -0.377480
1.012105 -0.320781 -0.400798
1.069158 -0.342741 -0.423695
1.126454 -0.364170 -0.445996
1.183807 -0.384805 -0.467424
1.240883 -0.404313 -0.487630
1.297187 -0.422281 -0.506200
1.352041 -0.438091 -0.522488
1.404754 -0.451163 -0.535884
1.454799 -0.461158 -0.546016
1.501474 -0.467618 -0.552385
1.543208 -0.469249 -0.553621
1.578690 -0.464947 -0.548552
1.605399 -0.452579 -0.534801
1.627082 -0.435683 -0.516125
-0.015042 0.061228 -0.017051
-0.000766 0.006244 -0.001878
0.001057 0.001022 -0.000752
0.004573 -0.000653 -0.001378
0.011013 -0.002101 -0.003018
0.020931 -0.002778 -0.005590
0.051964 -0.003416 -0.013745
0.131854 -0.004603 -0.036613
0.252866 -0.012046 -0.077716
0.382541 -0.030486 -0.130763
0.489153 -0.054918 -0.179756
0.555920 -0.076124 -0.210134
0.612548 -0.097660 -0.235659
0.666467 -0.119638 -0.259895
0.720174 -0.141966 -0.284023
0.774367 -0.164526 -0.308286
0.829205 -0.187208 -0.332644
0.884695 -0.209899 -0.356979
0.940794 -0.232482 -0.381154
0.997432 -0.254837 -0.405026
1.054514 -0.276836 -0.428451
1.111922 -0.298323 -0.451250
1.169488 -0.319055 -0.473144
1.226925 -0.338746 -0.493833
1.283796 -0.357053 -0.512960
1.339488 -0.373425 -0.529931
1.393302 -0.387273 -0.544106
1.444632 -0.398182 -0.555015
1.492900 -0.405807 -0.562264
1.537023 -0.409363 -0.564978
1.575230 -0.407456 -0.561557
1.606123 -0.399056 -0.550734
1.632067 -0.386364 -0.534945
-0.027555 0.107779 -0.031049
-0.006129 0.028129 -0.007716
-0.000500 0.004419 -0.001327
0.000633 0.000606 -0.000451
0.001711 -0.000060 -0.000516
0.005194 -0.000172 -0.001374
0.013314 0.000692 -0.003430
0.063105 0.007988 -0.016113
0.172506 0.019653 -0.048697
0.310810 0.021388 -0.100619
0.446200 0.007464 -0.162912
0.538423 -0.013140 -0.208311
0.598727 -0.033850 -0.236572
0.653095 -0.055415 -0.261686
0.706577 -0.077484 -0.286320
0.760460 -0.099856 -0.311055
0.815035 -0.122391 -0.335907
0.870335 -0.144969 -0.360758
0.926317 -0.167466 -0.385450
0.982906 -0.189752 -0.409825
1.040004 -0.211697 -0.433725
1.097491 -0.233148 -0.456962
1.155211 -0.253888 -0.479255
1.212913 -0.273656 -0.500335
1.270217 -0.292173 -0.519907
1.326577 -0.308958 -0.537430
1.381315 -0.323454 -0.552269
1.433770 -0.335189 -0.563878
1.483397 -0.343853 -0.571880
1.529471 -0.349005 -0.575751
1.570689 -0.349724 -0.574373
1.605659 -0.345025 -0.566487
1.636126 -0.336529 -0.553972
-0.044500 0.165907 -0.049794
-0.010329 0.049029 -0.013496
-0.001730 0.010556 -0.002869
-0.000051 0.002358 -0.000669
0.000538 0.000508 -0.000238
0.001760 0.000399 -0.000521
0.005376 0.001265 -0.001392
0.034741 0.010471 -0.008583
0.123975 0.034259 -0.033220
0.258435 0.056138 -0.080410
0.399961 0.060068 -0.144137
0.520348 0.046675 -0.207341
0.584813 0.027753 -0.238769
0.639752 0.006901 -0.264745
0.693077 -0.014747 -0.289803
0.746700 -0.036796 -0.314921
0.801048 -0.059061 -0.340186
0.856183 -0.081405 -0.365474
0.912066 -0.103698 -0.390613
0.968620 -0.125806 -0.415423
1.025740 -0.147594 -0.439732
1.083302 -0.168908 -0.463334
1.141161 -0.189539 -0.485945
1.199092 -0.209255 -0.507314
1.256766 -0.227831 -0.527200
1.313707 -0.244863 -0.545127
1.369284 -0.259843 -0.560495
1.422816 -0.272288 -0.572715
1.473732 -0.281863 -0.581368
1.521528 -0.288319 -0.586147
1.565415 -0.291181 -0.586456
1.604377 -0.289791 -0.581429
1.639646 -0.285328 -0.572496
-0.066389 0.234634 -0.073736
-0.015691 0.082617 -0.023052
-0.002069 0.019420 -0.005148
-0.000078 0.004609 -0.001232
0.000372 0.001418 -0.000402
0.001136 0.001081 -0.000412
0.003240 0.001748 -0.000947
0.027631 0.014090 -0.006948
0.106150 0.047113 -0.028412
0.230453 0.083982 -0.071391
0.368288 0.104166 -0.133581
0.500127 0.103219 -0.206105
0.571303 0.087048 -0.242866
0.626520 0.067151 -0.269413
0.679694 0.046076 -0.294745
0.733106 0.024488 -0.320131
0.787272 0.002628 -0.345705
0.842279 -0.019353 -0.371337
0.898090 -0.041317 -0.396833
0.954626 -0.063125 -0.421991
1.011778 -0.084639 -0.446619
1.069418 -0.105700 -0.470494
1.127404 -0.126095 -0.493320
1.185535 -0.145624 -0.514860
1.243510 -0.164099 -0.534907
1.300929 -0.181186 -0.553055
1.357228 -0.196447 -0.568760
1.411739 -0.209417 -0.581433
1.463871 -0.219740 -0.590621
1.513245 -0.227258 -0.596130
1.559521 -0.231840 -0.597827
1.602249 -0.233261 -0.595435
1.642340 -0.232436 -0.590117
-0.090521 0.304874 -0.099839
-0.025396 0.150087 -0.043529
-0.001765 0.050284 -0.013181
0.000590 0.010269 -0.002707
0.001091 0.004498 -0.001213
0.001788 0.003076 -0.000941
0.004029 0.003892 -0.001398
0.036715 0.027339 -0.009943
0.114734 0.070830 -0.032664
0.226847 0.115938 -0.073580
0.354611 0.146734 -0.133873
0.482766 0.156730 -0.207928
0.558497 0.144329 -0.249361
0.613456 0.125422 -0.275969
0.666430 0.105023 -0.301358
0.719673 0.084014 -0.326872
0.773708 0.062684 -0.352637
0.828627 0.041194 -0.378501
0.884398 0.019685 -0.404246
0.940940 -0.001699 -0.429647
0.998137 -0.022812 -0.454486
1.055861 -0.043494 -0.478524
1.113967 -0.063541 -0.501446
1.172263 -0.082754 -0.523015
1.230479 -0.100977 -0.543059
1.288271 -0.117932 -0.561221
1.345148 -0.133251 -0.577025
1.400504 -0.146525 -0.589937
1.453760 -0.157407 -0.599504
1.504599 -0.165770 -0.605589
1.553016 -0.171706 -0.608396
1.599111 -0.175364 -0.608223
1.643671 -0.177554 -0.606163
-0.109810 0.359633 -0.120433
-0.041658 0.252555 -0.078629
-0.000379 0.134810 -0.037276
0.009258 0.059757 -0.015189
0.010032 0.030760 -0.007635
0.013384 0.024702 -0.006284
0.027403 0.034705 -0.009571
0.070041 0.068063 -0.022029
0.143864 0.114044 -0.046642
0.242795 0.159853 -0.087226
0.358064 0.194800 -0.146829
0.477028 0.211007 -0.220651
0.546329 0.200044 -0.258494
0.600527 0.181949 -0.284579
0.653251 0.162266 -0.309787
0.706373 0.141932 -0.335276
0.760333 0.121240 -0.361102
0.815213 0.100353 -0.387074
0.870981 0.079413 -0.412946
0.927553 0.058568 -0.438463
0.984815 0.037966 -0.463384
1.042628 0.017774 -0.487447
1.100846 -0.001806 -0.510335
1.159281 -0.020581 -0.531785
1.217681 -0.038412 -0.551643
1.275744 -0.055065 -0.569598
1.333056 -0.070235 -0.585246
1.389085 -0.083582 -0.598128
1.443314 -0.094799 -0.607842
1.495476 -0.103780 -0.614296
1.545747 -0.110717 -0.617881
1.594622 -0.115997 -0.619304
1.642840 -0.120385 -0.619666
-0.128369 0.410430 -0.140015
-0.065124 0.366059 -0.123466
-0.004532 0.263740 -0.081596
0.025486 0.175976 -0.049786
0.037445 0.121684 -0.032607
0.048951 0.102325 -0.027487
0.073020 0.110965 -0.031942
0.117678 0.139820 -0.046268
0.184257 0.178802 -0.072300
0.271096 0.219268 -0.113788
0.373475 0.252581 -0.173571
0.475324 0.267531 -0.240635
0.534378 0.254571 -0.270186
0.587590 0.237020 -0.295270
0.640095 0.218060 -0.320101
0.693164 0.198469 -0.345421
0.747115 0.178501 -0.371173
0.802008 0.158310 -0.397120
0.857811 0.138038 -0.422983
0.914442 0.117833 -0.448477
0.971785 0.097855 -0.473320
1.029701 0.078266 -0.497238
1.088023 0.059244 -0.519954
1.146571 0.041006 -0.541129
1.205104 0.023682 -0.560613
1.263349 0.007476 -0.578132
1.320951 -0.007365 -0.593350
1.377471 -0.020568 -0.605898
1.432473 -0.031887 -0.615457
1.485734 -0.041230 -0.621974
1.537489 -0.048811 -0.625901
1.588356 -0.055076 -0.628078
1.639038 -0.060748 -0.629609
-0.147145 0.460127 -0.159618
-0.082737 0.437862 -0.152795
-0.020431 0.397958 -0.137910
0.031877 0.322303 -0.105809
0.065377 0.261797 -0.082210
0.091479 0.228735 -0.071415
0.122703 0.222793 -0.073074
0.167033 0.237349 -0.086772
0.227572 0.263922 -0.113577
0.304349 0.294580 -0.155996
0.394082 0.320955 -0.214708
0.467449 0.322530 -0.258859
0.522105 0.308109 -0.284103
0.574488 0.290929 -0.307975
0.626894 0.272699 -0.332308
0.679998 0.253897 -0.357335
0.734010 0.234716 -0.382880
0.788972 0.215291 -0.408661
0.844852 0.195764 -0.434372
0.901567 0.176279 -0.459703
0.959002 0.156998 -0.484334
1.017031 0.138095 -0.507946
1.075459 0.119731 -0.530285
1.134099 0.102127 -0.550981
1.192720 0.085411 -0.569877
1.251065 0.069766 -0.586722
1.308829 0.055400 -0.601232
1.365653 0.042527 -0.613122
1.421196 0.031333 -0.622170
1.475272 0.021888 -0.628361
1.528065 0.014021 -0.632097
1.580118 0.007341 -0.634147
1.632069 0.001190 -0.635574
-0.166359 0.509589 -0.179484
-0.100941 0.496076 -0.177056
-0.037724 0.479213 -0.173999
0.021471 0.455373 -0.168557
0.074122 0.405399 -0.148370
0.117236 0.368013 -0.135321
0.158829 0.350556 -0.134279
0.206593 0.351481 -0.146753
0.264739 0.364540 -0.173371
0.334000 0.382533 -0.214528
0.401731 0.387887 -0.253820
0.456574 0.375982 -0.277394
0.509063 0.360691 -0.299734
0.561118 0.343972 -0.322584
0.613589 0.326494 -0.346365
0.666827 0.308507 -0.370990
0.720973 0.290149 -0.396198
0.776063 0.271543 -0.421668
0.832066 0.252817 -0.447068
0.888901 0.234115 -0.472064
0.946453 0.215600 -0.496307
1.004595 0.197446 -0.519443
1.063118 0.179811 -0.541212
1.121828 0.162916 -0.561215
1.180491 0.146885 -0.579299
1.238862 0.131889 -0.595222
1.296674 0.118106 -0.608745
1.353639 0.105703 -0.619661
1.409495 0.094822 -0.627835
1.464100 0.085511 -0.633298
1.517555 0.077663 -0.636347
1.570244 0.070965 -0.637622
1.622703 0.064835 -0.638104
-0.186026 0.559101 -0.199627
-0.119904 0.548297 -0.198954
-0.055597 0.536600 -0.199079
0.005924 0.523036 -0.199916
0.064348 0.507273 -0.201107
0.119898 0.492056 -0.204213
0.173013 0.475693 -0.207885
0.226809 0.467592 -0.220062
0.282202 0.462001 -0.237925
0.337214 0.453426 -0.256908
0.390905 0.441842 -0.276330
0.443337 0.427893 -0.296136
0.495310 0.412593 -0.316944
0.547448 0.396467 -0.338982
0.600139 0.379757 -0.362180
0.653606 0.362592 -0.386304
0.707960 0.345075 -0.411045
0.763237 0.327311 -0.436057
0.819410 0.309423 -0.460983
0.876398 0.291549 -0.485464
0.934088 0.273846 -0.509130
0.992343 0.256489 -0.531593
1.050952 0.239635 -0.552577
1.109706 0.223501 -0.571660
1.168368 0.208209 -0.588692
1.226701 0.193922 -0.603442
1.284466 0.180796 -0.615704
1.341438 0.168962 -0.625350
1.397426 0.158519 -0.632333
1.452337 0.149508 -0.636725
1.506178 0.141914 -0.638673
1.559262 0.135421 -0.638821
1.612020 0.129513 -0.638072
-0.206102 0.608787 -0.219997
-0.139456 0.598462 -0.220064
-0.074571 0.587961 -0.221389
-0.012176 0.577029 -0.224321
0.047804 0.565506 -0.228688
0.105672 0.553740 -0.234665
0.161839 0.542080 -0.242668
0.216745 0.530540 -0.253022
0.270751 0.518831 -0.265793
0.324050 0.506536 -0.280764
0.376662 0.493264 -0.297472
0.428859 0.479092 -0.315795
0.481019 0.464203 -0.335686
0.533484 0.448736 -0.357026
0.586517 0.432789 -0.379604
0.640297 0.416433 -0.403136
0.694929 0.399750 -0.427287
0.750449 0.382835 -0.451691
0.806837 0.365799 -0.475972
0.864011 0.348774 -0.499751
0.921856 0.331911 -0.522633
0.980230 0.315381 -0.544207
1.038913 0.299339 -0.564176
1.097685 0.283996 -0.582101
1.156304 0.269475 -0.597833
1.214542 0.255930 -0.611150
1.272185 0.243505 -0.621887
1.329055 0.232308 -0.629977
1.385035 0.222402 -0.635472
1.440070 0.213823 -0.638473
1.494147 0.206608 -0.639064
1.547546 0.200431 -0.637919
1.600623 0.194814 -0.635883
-0.226526 0.658721 -0.240529
-0.159421 0.648155 -0.241007
-0.094157 0.637699 -0.242958
-0.031374 0.627225 -0.246764
0.029160 0.616511 -0.252139
0.087797 0.605448 -0.258923
0.144783 0.594031 -0.267251
0.200339 0.582250 -0.277348
0.254722 0.570043 -0.289350
0.308211 0.557327 -0.303276
0.361096 0.544047 -0.319063
0.413692 0.530213 -0.336623
0.466313 0.515872 -0.355834
0.519240 0.501070 -0.376519
0.572704 0.485857 -0.398437
0.626871 0.470282 -0.421287
0.681843 0.454413 -0.444722
0.737662 0.438333 -0.468368
0.794307 0.422144 -0.491830
0.851697 0.405969 -0.514711
0.909713 0.389954 -0.536594
0.968206 0.374259 -0.557045
1.026949 0.359036 -0.575757
1.085708 0.344493 -0.592268
1.144251 0.330750 -0.606446
1.202353 0.317955 -0.618084
1.259824 0.306246 -0.627053
1.316529 0.295716 -0.633346
1.372403 0.286413 -0.637084
1.427438 0.278358 -0.638431
1.481654 0.271584 -0.637502
1.535298 0.265772 -0.634964
1.588671 0.260480 -0.631607
-0.247225 0.708949 -0.261142
-0.179675 0.697965 -0.261957
-0.114096 0.687275 -0.264407
-0.051083 0.676796 -0.268853
0.009737 0.666231 -0.274862
0.068790 0.655363 -0.282134
0.126299 0.644116 -0.290722
0.182423 0.632472 -0.300829
0.237375 0.620418 -0.312623
0.291428 0.607931 -0.326182
0.344887 0.595005 -0.341508
0.398067 0.581644 -0.358542
0.451261 0.567869 -0.377169
0.504731 0.553706 -0.397207
0.558693 0.539188 -0.418417
0.613309 0.524356 -0.440496
0.668679 0.509265 -0.463096
0.724846 0.493992 -0.485830
0.781786 0.478627 -0.508292
0.839419 0.463285 -0.530071
0.897619 0.448100 -0.550728
0.956227 0.433226 -0.569814
1.015014 0.418810 -0.587014
1.073739 0.405053 -0.601859
1.132176 0.392070 -0.614233
1.190116 0.380011 -0.623964
1.247396 0.369004 -0.630961
1.303918 0.359136 -0.635282
1.359654 0.350442 -0.637108
1.414638 0.342926 -0.636667
1.468906 0.336605 -0.634120
1.522701 0.331166 -0.630133
1.576256 0.326200 -0.625401
-0.268120 0.759503 -0.281756
-0.200120 0.748080 -0.282895
-0.134249 0.737128 -0.285838
-0.071062 0.726589 -0.290915
-0.010045 0.716094 -0.297548
0.049326 0.705364 -0.305318
0.107278 0.694298 -0.314236
0.163941 0.682881 -0.324496
0.219489 0.671111 -0.336278
0.274170 0.658978 -0.349675
0.328274 0.646475 -0.364703
0.382097 0.633605 -0.381312
0.435917 0.620381 -0.399397
0.489982 0.606821 -0.418781
0.544495 0.592956 -0.439235
0.599612 0.578821 -0.460454
0.655430 0.564465 -0.482094
0.711986 0.549956 -0.503761
0.769255 0.535376 -0.525038
0.827151 0.520828 -0.545502
0.885542 0.506438 -0.564703
0.944261 0.492351 -0.582173
1.003077 0.478705 -0.597608
1.061747 0.465696 -0.610536
1.120064 0.453439 -0.620880
1.177838 0.442077 -0.628508
1.234934 0.431737 -0.633384
1.291288 0.422495 -0.635629
1.346895 0.414372 -0.635481
1.401802 0.407354 -0.633225
1.456054 0.401430 -0.629071
1.509857 0.396295 -0.623638
1.563452 0.391571 -0.617586
-0.289126 0.810396 -0.302280
-0.220664 0.798550 -0.303737
-0.154507 0.787365 -0.307181
-0.091179 0.776806 -0.312918
-0.030007 0.766417 -0.320213
0.029634 0.755854 -0.328535
0.087992 0.745002 -0.337850
0.145166 0.733851 -0.348354
0.201300 0.722405 -0.360225
0.256615 0.710656 -0.373560
0.311378 0.698593 -0.388373
0.365866 0.686211 -0.404615
0.420340 0.673517 -0.422176
0.475034 0.660530 -0.440893
0.530138 0.647276 -0.460534
0.585798 0.633790 -0.480805
0.642102 0.620119 -0.501358
0.699083 0.606321 -0.521796
0.756705 0.592472 -0.541696
0.814879 0.578664 -0.560629
0.873465 0.565013 -0.578137
0.932288 0.551655 -0.593744
0.991123 0.538723 -0.607171
1.049732 0.526408 -0.617959
1.107931 0.514822 -0.626081
1.165556 0.504104 -0.631463
1.222496 0.494374 -0.634131
1.278710 0.485695 -0.634274
1.334197 0.478067 -0.632178
1.388998 0.471446 -0.628175
1.443134 0.465790 -0.622512
1.496779 0.460809 -0.615742
1.550195 0.456166 -0.608467
-0.310152 0.861628 -0.322624
-0.241210 0.849375 -0.324377
-0.174773 0.837998 -0.328322
-0.111325 0.827475 -0.334736
-0.050030 0.817251 -0.342726
0.009850 0.806905 -0.351635
0.068584 0.796305 -0.361395
0.126245 0.785450 -0.372194
0.182947 0.774356 -0.384215
0.238884 0.763010 -0.397546
0.294304 0.751395 -0.412191
0.349462 0.739499 -0.428094
0.404606 0.727323 -0.445140
0.459951 0.714883 -0.463161
0.515675 0.702203 -0.481930
0.571907 0.689319 -0.501155
0.628728 0.676275 -0.520487
0.686156 0.663126 -0.539530
0.744149 0.649939 -0.557859
0.802610 0.636799 -0.575045
0.861392 0.623813 -0.590629
0.920314 0.611111 -0.604143
0.979167 0.598821 -0.615338
1.037722 0.587130 -0.623797
1.095821 0.576148 -0.629560
1.153327 0.566007 -0.632616
1.210147 0.556812 -0.633069
1.266237 0.548603 -0.631155
1.321591 0.541350 -0.627219
1.376208 0.534974 -0.621613
1.430063 0.529398 -0.614586
1.483347 0.524356 -0.606655
1.536385 0.519572 -0.598365
-0.331100 0.913188 -0.342694
-0.261661 0.900540 -0.344709
-0.194941 0.889005 -0.349136
-0.131390 0.878575 -0.356226
-0.069997 0.868576 -0.364919
-0.009906 0.858498 -0.374433
0.049177 0.848188 -0.384655
0.107304 0.837660 -0.395771
0.164554 0.826939 -0.407965
0.221099 0.816013 -0.421315
0.277165 0.804858 -0.435813
0.332993 0.793452 -0.451383
0.388811 0.781786 -0.467899
0.444819 0.769872 -0.485186
0.501178 0.757732 -0.503011
0.558003 0.745401 -0.521084
0.615358 0.732924 -0.539058
0.673248 0.720350 -0.556535
0.731623 0.707746 -0.573098
0.790374 0.695189 -0.588321
0.849352 0.682781 -0.601763
0.908379 0.670648 -0.612977
0.967258 0.658918 -0.621763
1.025780 0.647772 -0.627768
1.083811 0.637315 -0.631100
1.141231 0.627671 -0.631835
1.197946 0.618912 -0.630132
1.253902 0.611045 -0.626297
1.309041 0.604002 -0.620678
1.363338 0.597670 -0.613658
1.416726 0.591943 -0.605479
1.469445 0.586600 -0.596619
1.521706 0.581424 -0.587347
-0.351870 0.965051 -0.362392
-0.281912 0.952012 -0.364622
-0.214903 0.940348 -0.369496
-0.151262 0.930062 -0.377244
-0.089793 0.920343 -0.386628
-0.029513 0.910579 -0.396736
0.029901 0.900594 -0.407409
0.088473 0.890419 -0.418834
0.146254 0.880089 -0.431192
0.203390 0.869599 -0.444555
0.260090 0.858913 -0.458893
0.316579 0.848000 -0.474111
0.373069 0.836839 -0.490063
0.429743 0.825432 -0.506558
0.486743 0.813798 -0.523356
0.544169 0.801971 -0.540162
0.602066 0.789993 -0.556631
0.660425 0.777917 -0.572371
0.719184 0.765806 -0.586975
0.778228 0.753736 -0.600038
0.837407 0.741810 -0.611149
0.896550 0.730154 -0.619901
0.955478 0.718895 -0.626161
1.013998 0.708212 -0.629657
1.071993 0.698197 -0.630576
1.129342 0.688945 -0.629066
1.185935 0.680491 -0.625354
1.241675 0.672799 -0.619774
1.296473 0.665759 -0.612690
1.350272 0.659239 -0.604479
1.402976 0.653122 -0.595363
1.454790 0.647226 -0.585654
1.506157 0.641428 -0.575723
-0.372356 1.017183 -0.381621
-0.301855 1.003750 -0.384004
-0.234550 0.991977 -0.389277
-0.170825 0.981881 -0.397645
-0.109295 0.972490 -0.407688
-0.048841 0.963079 -0.418356
0.010886 0.953448 -0.429445
0.069888 0.943643 -0.441141
0.128183 0.933719 -0.453627
0.185896 0.923670 -0.466962
0.243217 0.913458 -0.481099
0.300356 0.903036 -0.495917
0.357509 0.892370 -0.511245
0.414844 0.881449 -0.526872
0.472484 0.870286 -0.542544
0.530509 0.858908 -0.557961
0.588948 0.847360 -0.572775
0.647776 0.835696 -0.586612
0.706919 0.823982 -0.599079
0.766261 0.812301 -0.609814
0.825654 0.800760 -0.618449
0.884932 0.789490 -0.624639
0.943938 0.778618 -0.628336
1.002483 0.768310 -0.629351
1.060456 0.758637 -0.627960
1.117712 0.749646 -0.624364
1.174110 0.741332 -0.618853
1.229506 0.733605 -0.611757
1.283805 0.726343 -0.603472
1.336752 0.719362 -0.594096
1.388638 0.712647 -0.584341
1.439447 0.706004 -0.574084
1.489637 0.699370 -0.563569
-0.392440 1.069536 -0.400274
-0.321373 1.055696 -0.402741
-0.253761 1.043829 -0.408352
-0.189955 1.033958 -0.417287
-0.128374 1.024938 -0.427938
-0.067758 1.015912 -0.439111
-0.007729 1.006656 -0.450558
0.051691 0.997232 -0.462462
0.110488 0.987716 -0.475011
0.168764 0.978108 -0.488251
0.226692 0.968363 -0.502115
0.284468 0.958420 -0.516456
0.342274 0.948231 -0.531077
0.400258 0.937768 -0.545739
0.458529 0.927032 -0.560174
0.517147 0.916045 -0.574067
0.576121 0.904852 -0.587084
0.635413 0.893513 -0.598863
0.694943 0.882103 -0.609050
0.754590 0.870717 -0.617330
0.814212 0.859472 -0.623407
0.873652 0.848505 -0.627014
0.932758 0.837936 -0.628191
0.991337 0.827907 -0.626850
1.049257 0.818447 -0.623319
1.106344 0.809554 -0.617866
1.162417 0.801174 -0.610802
1.217292 0.793182 -0.602440
1.270802 0.785432 -0.593052
1.323013 0.777853 -0.583129
1.373687 0.770292 -0.572631
1.423253 0.762720 -0.561879
1.472197 0.755116 -0.550996
-0.411979 1.122029 -0.418225
-0.340325 1.107767 -0.420699
-0.272398 1.095816 -0.426578
-0.208516 1.086203 -0.436019
-0.146892 1.077590 -0.447214
-0.086123 1.068979 -0.458824
-0.025802 1.060111 -0.470553
0.034025 1.051073 -0.482585
0.093315 1.041959 -0.495106
0.152142 1.032778 -0.508157
0.210666 1.023480 -0.521650
0.269068 1.013990 -0.535410
0.327512 1.004244 -0.549214
0.386133 0.994198 -0.562796
0.445021 0.983838 -0.575868
0.504217 0.973180 -0.588112
0.563717 0.962267 -0.599198
0.623470 0.951171 -0.608800
0.683388 0.939983 -0.616609
0.743354 0.928811 -0.622376
0.803225 0.917786 -0.625886
0.862840 0.907046 -0.626969
0.922046 0.896690 -0.625759
0.980623 0.886821 -0.622257
1.038414 0.877416 -0.616841
1.095199 0.868422 -0.609797
1.150772 0.859745 -0.601442
1.204884 0.851232 -0.591981
1.257580 0.842838 -0.581940
1.308683 0.834413 -0.571364
1.358135 0.825892 -0.560411
1.406410 0.817292 -0.549329
1.454026 0.808627 -0.538171
-0.430749 1.174502 -0.435272
-0.358516 1.159817 -0.437691
-0.290279 1.147796 -0.443776
-0.226333 1.138478 -0.453656
-0.164683 1.130312 -0.465329
-0.103779 1.122147 -0.477306
-0.043179 1.113685 -0.489236
0.017045 1.105032 -0.501301
0.076816 1.096308 -0.513691
0.136184 1.087531 -0.526442
0.195292 1.078646 -0.539443
0.254305 1.069568 -0.552498
0.313375 1.060216 -0.565354
0.372618 1.050531 -0.577725
0.432107 1.040483 -0.589304
0.491870 1.030084 -0.599773
0.551887 1.019387 -0.608828
0.612098 1.008466 -0.616171
0.672409 0.997434 -0.621563
0.732701 0.986415 -0.624830
0.792825 0.975546 -0.625854
0.852608 0.964958 -0.624569
0.911874 0.954712 -0.621189
0.970357 0.944846 -0.615782
1.027872 0.935297 -0.608748
1.084172 0.925970 -0.600378
1.138977 0.916719 -0.590862
1.192323 0.907568 -0.580812
1.243902 0.898285 -0.570080
1.293827 0.888896 -0.559067
1.342040 0.879343 -0.547836
1.389003 0.869666 -0.536527
1.435290 0.859909 -0.525181
-0.448383 1.226647 -0.451077
-0.375629 1.211572 -0.453420
-0.307136 1.199531 -0.459677
-0.243163 1.190559 -0.469948
-0.181524 1.182896 -0.482045
-0.120520 1.175223 -0.494325
-0.059677 1.167199 -0.506385
0.000916 1.158944 -0.518399
0.061147 1.150601 -0.530558
0.121042 1.142198 -0.542887
0.180721 1.133681 -0.555262
0.240333 1.124959 -0.567471
0.300013 1.115938 -0.579238
0.359864 1.106544 -0.590260
0.419943 1.096743 -0.600224
0.480261 1.086543 -0.608823
0.540787 1.076000 -0.615777
0.601451 1.065209 -0.620848
0.662152 1.054293 -0.623859
0.722766 1.043384 -0.624729
0.783122 1.032613 -0.623437
0.843016 1.022077 -0.620001
0.902243 1.011801 -0.614711
0.960490 1.001755 -0.607699
1.017543 0.991835 -0.599325
1.073058 0.981853 -0.589687
1.127187 0.972018 -0.579728
1.179448 0.961952 -0.568995
1.229856 0.951670 -0.557804
1.278540 0.941225 -0.546462
1.325489 0.930600 -0.535029
1.371178 0.919845 -0.523581
1.416205 0.909023 -0.512146
-0.464303 1.277930 -0.465102
-0.391206 1.262598 -0.467446
-0.322579 1.250636 -0.473895
-0.258661 1.242092 -0.484533
-0.197100 1.235010 -0.497017
-0.136074 1.227911 -0.509571
-0.075058 1.220392 -0.521724
-0.014157 1.212578 -0.533632
0.046488 1.204628 -0.545478
0.106876 1.196584 -0.557280
0.167103 1.188394 -0.568905
0.227297 1.179966 -0.580127
0.287576 1.171202 -0.590663
0.348023 1.162026 -0.600206
0.408678 1.152408 -0.608454
0.469540 1.142355 -0.615121
0.530564 1.131934 -0.619966
0.591668 1.121250 -0.622815
