Project4/Waves.cube
TITLE "Waves"
# Created by Photon 3D ColorGrading
DOMAIN_MIN 0 0 0
DOMAIN_MAX 1 1 1
LUT_3D_SIZE 5
0.000001 0.000001 0.000001
0.426525 -0.143993 -0.148128
0.856805 -0.319651 -0.327867
1.306924 -0.486833 -0.498703
1.620116 -0.486119 -0.498873
-0.128369 0.410430 -0.140015
0.184257 0.178802 -0.072300
0.747115 0.178501 -0.371173
1.205104 0.023682 -0.560613
1.639038 -0.060748 -0.629609
-0.289126 0.810396 -0.302280
0.201300 0.722405 -0.360225
0.642102 0.620119 -0.501358
1.107931 0.514822 -0.626081
1.550195 0.456166 -0.608467
-0.448383 1.226647 -0.451077
0.061147 1.150601 -0.530558
0.540787 1.076000 -0.615777
1.017543 0.991835 -0.599325
1.416205 0.909023 -0.512146
-0.473915 1.551542 -0.460956
-0.022165 1.567636 -0.594819
0.486595 1.501690 -0.588828
0.933906 1.382891 -0.505617
1.270478 1.242816 -0.417024
-0.080363 -0.093340 0.332262
0.012509 0.008049 0.013226
0.689673 -0.355583 0.146859
1.037275 -0.493263 -0.003756
1.375446 -0.519424 -0.065057
-0.102565 0.277353 0.257235
0.176181 0.133318 0.120434
0.623146 0.029505 0.019486
1.107501 -0.072746 -0.084253
1.592542 -0.091368 -0.100945
-0.337626 0.682954 0.219574
0.067962 0.558794 0.058397
0.541325 0.513706 -0.047152
1.035904 0.460621 -0.087820
1.468229 0.440277 -0.068821
-0.487190 1.069851 0.116282
-0.022087 1.008325 -0.022638
0.489540 0.997422 -0.075562
0.963879 0.935485 -0.066873
1.335388 0.865160 -0.038187
-0.554660 1.469818 0.049958
-0.070244 1.528357 -0.051987
0.463527 1.438316 -0.060409
0.893076 1.328534 -0.047431
1.264253 1.241050 -0.036520
-0.178091 -0.204606 0.666381
0.186978 -0.361802 0.727165
0.096972 0.089253 0.107507
0.764546 -0.392544 0.359444
1.059198 -0.333052 0.334089
0.013241 0.178061 0.419962
0.100266 0.051375 0.413552
0.530479 -0.044196 0.502641
1.028837 -0.077523 0.447756
1.233044 -0.003029 0.388462
-0.204697 0.466506 0.546412
0.131245 0.391343 0.412748
0.498908 0.448392 0.431027
0.949719 0.439436 0.431779
1.276975 0.426102 0.420597
-0.508732 0.903696 0.607927
0.119420 0.792753 0.502059
0.485405 0.893399 0.455699
0.884197 0.861601 0.407736
1.174810 0.788520 0.408183
-0.515800 1.329453 0.578321
-0.067243 1.403215 0.510157
0.437696 1.252850 0.440623
0.804971 1.168319 0.408488
1.146529 1.131817 0.384166
-0.267464 -0.302252 1.006997
0.019108 -0.555003 1.199705
0.499968 -0.594811 1.053273
0.754122 -0.354253 0.747298
0.924831 -0.176502 0.617748
0.022688 0.177776 0.672466
0.092137 0.046716 0.857171
0.450978 -0.063397 1.011728
0.933411 -0.043162 0.908045
1.089953 0.029197 0.705213
0.158624 0.426069 0.643826
0.445600 0.502674 0.624072
0.533381 0.502242 0.812425
0.869309 0.415652 0.848247
1.093592 0.414284 0.743017
-0.041275 0.715540 0.832656
0.539968 0.668436 0.680202
0.726485 0.770895 0.759119
0.838629 0.799209 0.787689
1.082855 0.737320 0.734736
-0.289834 1.139072 0.954793
0.051951 1.206432 0.919140
0.437353 1.136546 0.814377
0.746472 1.077681 0.741159
1.062446 1.055282 0.709757
-0.339982 -0.366323 1.357430
-0.083148 -0.605354 1.633808
0.422787 -0.579470 1.523035
0.826921 -0.412632 1.247085
0.936999 -0.169740 0.914126
0.018820 0.198527 0.966360
0.090313 0.082953 1.300241
0.407414 -0.032798 1.455735
0.841176 -0.021312 1.290356
1.115348 -0.006262 1.078611
0.365072 0.536135 0.782544
0.450980 0.595723 0.961121
0.511082 0.514433 1.157511
0.781577 0.418620 1.161325
1.087075 0.374970 1.067940
0.402732 0.708320 0.869885
0.595322 0.803882 0.944313
0.743288 0.856949 0.999650
0.807739 0.784574 1.050123
1.048412 0.703304 1.039297
0.230217 0.907823 1.002121
0.463154 0.952277 1.004013
0.671316 0.983322 1.003316
0.849914 0.998370 1.001567
1.000000 0.999999 0.999999
