Project4/Waves.cube
TITLE "Waves"
# Created by Photon 3D ColorGrading
DOMAIN_MIN 0 0 0
DOMAIN_MAX 1 1 1
LUT_3D_SIZE 9
0.000001 0.000001 0.000001
0.164155 -0.048026 -0.049587
0.426525 -0.143993 -0.148128
0.638818 -0.229587 -0.235776
0.856805 -0.319651 -0.327867
1.081666 -0.408667 -0.418821
1.306924 -0.486833 -0.498703
1.504995 -0.528102 -0.541185
1.620116 -0.486119 -0.498873
-0.044500 0.165907 -0.049794
0.000538 0.000508 -0.000238
0.123975 0.034259 -0.033220
0.584813 0.027753 -0.238769
0.801048 -0.059061 -0.340186
1.025740 -0.147594 -0.439732
1.256766 -0.227831 -0.527200
1.473732 -0.281863 -0.581368
1.639646 -0.285328 -0.572496
-0.128369 0.410430 -0.140015
0.037445 0.121684 -0.032607
0.184257 0.178802 -0.072300
0.534378 0.254571 -0.270186
0.747115 0.178501 -0.371173
0.971785 0.097855 -0.473320
1.205104 0.023682 -0.560613
1.432473 -0.031887 -0.615457
1.639038 -0.060748 -0.629609
-0.206102 0.608787 -0.219997
0.047804 0.565506 -0.228688
0.270751 0.518831 -0.265793
0.481019 0.464203 -0.335686
0.694929 0.399750 -0.427287
0.921856 0.331911 -0.522633
1.156304 0.269475 -0.597833
1.385035 0.222402 -0.635472
1.600623 0.194814 -0.635883
-0.289126 0.810396 -0.302280
-0.030007 0.766417 -0.320213
0.201300 0.722405 -0.360225
0.420340 0.673517 -0.422176
0.642102 0.620119 -0.501358
0.873465 0.565013 -0.578137
1.107931 0.514822 -0.626081
1.334197 0.478067 -0.632178
1.550195 0.456166 -0.608467
-0.372356 1.017183 -0.381621
-0.109295 0.972490 -0.407688
0.128183 0.933719 -0.453627
0.357509 0.892370 -0.511245
0.588948 0.847360 -0.572775
0.825654 0.800760 -0.618449
1.060456 0.758637 -0.627960
1.283805 0.726343 -0.603472
1.489637 0.699370 -0.563569
-0.448383 1.226647 -0.451077
-0.181524 1.182896 -0.482045
0.061147 1.150601 -0.530558
0.300013 1.115938 -0.579238
0.540787 1.076000 -0.615777
0.783122 1.032613 -0.623437
1.017543 0.991835 -0.599325
1.229856 0.951670 -0.557804
1.416205 0.909023 -0.512146
-0.495104 1.419577 -0.490271
-0.233192 1.384843 -0.528168
0.010718 1.362188 -0.576016
0.257101 1.332497 -0.609255
0.506205 1.294703 -0.616942
0.751335 1.251021 -0.595101
0.976482 1.200669 -0.554075
1.170972 1.144023 -0.507239
1.340438 1.086295 -0.461935
-0.473915 1.551542 -0.460956
-0.262774 1.576601 -0.547670
-0.022165 1.567636 -0.594819
0.232444 1.536529 -0.603947
0.486595 1.501690 -0.588828
0.725667 1.450999 -0.552214
0.933906 1.382891 -0.505617
1.111896 1.310559 -0.458988
1.270478 1.242816 -0.417024
-0.038008 -0.044348 0.167246
0.001183 0.000576 0.001489
0.090162 -0.025397 0.022156
0.564778 -0.234747 0.014404
0.774666 -0.335602 -0.074898
0.983217 -0.427486 -0.162778
1.194262 -0.504751 -0.239478
1.390350 -0.547832 -0.287611
1.596258 -0.584006 -0.324824
-0.022105 0.071565 0.070415
0.104575 0.078508 0.066741
0.305909 0.019252 0.013066
0.517439 -0.053173 -0.060822
0.734928 -0.135690 -0.144746
0.963359 -0.217374 -0.227835
1.195174 -0.284799 -0.296479
1.425504 -0.329668 -0.341959
1.638908 -0.339054 -0.350523
-0.089129 0.276974 0.083604
0.042016 0.275748 0.017269
0.248707 0.223375 -0.040265
0.461229 0.165359 -0.106794
0.679814 0.095451 -0.187220
0.909961 0.025314 -0.267288
1.146186 -0.031688 -0.328702
1.388939 -0.069547 -0.366289
1.633689 -0.087746 -0.379972
-0.219967 0.554896 0.039606
-0.025276 0.476473 -0.040063
0.193566 0.431430 -0.093789
0.411518 0.387435 -0.153031
0.633870 0.331059 -0.227767
0.866840 0.272525 -0.301518
1.106011 0.225184 -0.350867
1.352264 0.196341 -0.374218
1.597494 0.184277 -0.376970
-0.307053 0.747472 -0.032383
-0.097769 0.676041 -0.108680
0.131372 0.636418 -0.161806
0.357764 0.605218 -0.217994
0.588111 0.563427 -0.280774
0.824892 0.518079 -0.333024
1.064242 0.481728 -0.356420
1.308127 0.461038 -0.361131
1.540653 0.449816 -0.352240
-0.391281 0.945635 -0.101384
-0.169549 0.882349 -0.175268
0.069109 0.847682 -0.228699
0.304111 0.826912 -0.282155
0.543486 0.795914 -0.325428
0.783804 0.758473 -0.343910
1.020576 0.727082 -0.339234
1.257659 0.707282 -0.334730
1.473838 0.689017 -0.323354
-0.464027 1.147064 -0.160573
-0.231062 1.094829 -0.230056
0.016318 1.066582 -0.279842
0.260848 1.052585 -0.323076
0.509274 1.027115 -0.342622
0.752008 0.990898 -0.333790
0.980362 0.953402 -0.312546
1.204870 0.927189 -0.305898
1.408857 0.901573 -0.297618
-0.515037 1.345337 -0.202901
-0.284315 1.324964 -0.275620
-0.031724 1.313055 -0.324656
0.230427 1.297541 -0.349881
0.490195 1.269442 -0.349623
0.734506 1.228170 -0.331399
0.955789 1.178731 -0.306735
1.165124 1.137052 -0.293000
1.354075 1.096151 -0.278084
-0.536495 1.530110 -0.221243
-0.318448 1.566314 -0.299923
-0.061091 1.571593 -0.348466
0.212612 1.553379 -0.362019
0.477148 1.513896 -0.351419
0.717690 1.458805 -0.332144
0.934419 1.398513 -0.310759
1.134869 1.344801 -0.293203
1.311145 1.283762 -0.266529
-0.080363 -0.093340 0.332262
0.038613 -0.034639 0.128643
0.012509 0.008049 0.013226
0.239284 -0.066770 0.127597
0.689673 -0.355583 0.146859
0.868605 -0.438827 0.064341
1.037275 -0.493263 -0.003756
1.203137 -0.515941 -0.045411
1.375446 -0.519424 -0.065057
-0.026501 0.086617 0.221012
0.060314 0.014937 0.216891
0.245359 -0.041147 0.208711
0.459068 -0.104329 0.153442
0.680288 -0.184065 0.081935
0.903920 -0.262345 0.008750
1.114131 -0.314558 -0.047936
1.355469 -0.367184 -0.098103
1.561094 -0.376300 -0.115814
-0.102565 0.277353 0.257235
0.000344 0.184167 0.165342
0.176181 0.133318 0.120434
0.395307 0.089878 0.080801
0.623146 0.029505 0.019486
0.860240 -0.029651 -0.040472
1.107501 -0.072746 -0.084253
1.355843 -0.093031 -0.103958
1.592542 -0.091368 -0.100945
-0.234617 0.490908 0.265028
-0.079251 0.400528 0.175686
0.119735 0.342831 0.092175
0.346921 0.312665 0.039415
0.578829 0.269436 -0.017041
0.820749 0.224809 -0.066329
1.073286 0.194623 -0.095474
1.320226 0.184527 -0.100558
1.542472 0.186441 -0.087636
-0.337626 0.682954 0.219574
-0.148029 0.604533 0.138801
0.067962 0.558794 0.058397
0.304101 0.539179 0.001630
0.541325 0.513706 -0.047152
0.786264 0.481524 -0.076287
1.035904 0.460621 -0.087820
1.267749 0.449909 -0.083908
1.468229 0.440277 -0.068821
-0.419573 0.872821 0.165263
-0.207912 0.805970 0.089015
0.021719 0.772926 0.015552
0.265426 0.764622 -0.034121
0.508895 0.752459 -0.064789
0.753009 0.726348 -0.069700
0.994710 0.705327 -0.071438
1.210468 0.686373 -0.065761
1.394558 0.664021 -0.050774
-0.487190 1.069851 0.116282
-0.258234 1.017975 0.046421
-0.022087 1.008325 -0.022638
0.232037 1.010779 -0.063294
0.489540 0.997422 -0.075562
0.733764 0.967429 -0.070374
0.963879 0.935485 -0.066873
1.162820 0.899537 -0.055830
1.335388 0.865160 -0.038187
-0.532997 1.270766 0.077285
-0.306038 1.261601 0.009047
-0.060632 1.274187 -0.050046
0.212272 1.266808 -0.075634
0.476633 1.236788 -0.078238
0.715683 1.193863 -0.072297
0.935551 1.150604 -0.067410
1.130473 1.104734 -0.056411
1.293687 1.054834 -0.033929
-0.554660 1.469818 0.049958
-0.350977 1.537153 -0.022549
-0.070244 1.528357 -0.051987
0.210960 1.491103 -0.060871
0.463527 1.438316 -0.060409
0.687704 1.379899 -0.053993
0.893076 1.328534 -0.047431
1.090231 1.290285 -0.046637
1.264253 1.241050 -0.036520
-0.127765 -0.147559 0.497732
0.046763 -0.222996 0.558425
0.258951 -0.253855 0.505551
0.044219 0.030763 0.047560
0.062495 0.046629 0.057862
0.773489 -0.454796 0.258701
0.919452 -0.485128 0.193851
1.044407 -0.462353 0.159472
1.175753 -0.421551 0.152131
-0.028945 0.057594 0.341366
0.033124 -0.027908 0.382393
0.190450 -0.095370 0.411796
0.403623 -0.151268 0.376667
0.627528 -0.223425 0.317355
0.832928 -0.287726 0.247506
1.000807 -0.304981 0.193276
1.176239 -0.294721 0.172412
1.398352 -0.360320 0.118510
-0.027917 0.198435 0.329749
0.018134 0.121024 0.256040
0.103727 0.065860 0.245607
0.340484 0.036352 0.290553
0.577306 -0.013771 0.255857
0.823557 -0.062148 0.210681
1.075628 -0.088264 0.181786
1.269467 -0.096764 0.158708
1.434240 -0.060162 0.173771
-0.164448 0.378167 0.399795
-0.054792 0.303958 0.326164
0.074023 0.241868 0.227403
0.293335 0.241409 0.226069
0.537551 0.223496 0.214131
0.792436 0.196612 0.186497
1.043798 0.184619 0.174830
1.265548 0.186315 0.177808
1.451750 0.193880 0.186406
-0.344891 0.592148 0.430930
-0.170694 0.529150 0.377760
0.031306 0.482658 0.290468
0.265464 0.475572 0.229152
0.509601 0.474476 0.201203
0.762140 0.459918 0.184859
1.000193 0.449035 0.181208
1.203815 0.440500 0.184741
1.371410 0.431519 0.195054
-0.464539 0.797332 0.410656
-0.223806 0.726096 0.354612
0.011566 0.697935 0.284093
0.246737 0.715269 0.226496
0.491235 0.723004 0.198521
0.737018 0.708755 0.184951
0.956215 0.684375 0.185059
1.144667 0.662504 0.188544
1.298108 0.637895 0.202961
-0.524205 0.996449 0.376058
-0.246991 0.926482 0.322873
-0.008059 0.929064 0.262269
0.226344 0.964558 0.215775
0.476560 0.964426 0.192271
0.716916 0.940432 0.178901
0.928938 0.903292 0.177181
1.103660 0.863566 0.186181
1.248260 0.823711 0.204622
-0.548020 1.198313 0.345295
-0.292140 1.182824 0.296211
-0.045264 1.201835 0.250563
0.213420 1.200682 0.218702
0.463027 1.168987 0.198913
0.687621 1.130180 0.186706
0.896326 1.096238 0.178103
1.074882 1.053409 0.182727
1.218962 1.002960 0.198826
-0.547985 1.401207 0.322702
-0.357124 1.492692 0.271346
-0.069168 1.469283 0.242026
0.209925 1.406838 0.221537
0.449845 1.339746 0.209836
0.656622 1.282634 0.205198
0.845432 1.241553 0.201011
1.030809 1.215901 0.192656
1.202240 1.183432 0.187735
-0.178091 -0.204606 0.666381
-0.030645 -0.313207 0.759607
0.186978 -0.361802 0.727165
0.397594 -0.408228 0.653128
0.096972 0.089253 0.107507
0.136448 0.142563 0.149507
0.764546 -0.392544 0.359444
0.940168 -0.405697 0.336599
1.059198 -0.333052 0.334089
-0.058467 0.029273 0.489235
-0.006954 -0.070899 0.564033
0.127980 -0.160622 0.618759
0.342403 -0.216978 0.602409
0.572604 -0.273447 0.548830
0.771850 -0.307401 0.474778
0.918347 -0.278985 0.411403
1.071128 -0.234722 0.390871
1.207098 -0.252681 0.344284
0.013241 0.178061 0.419962
0.057101 0.117968 0.400141
0.100266 0.051375 0.413552
0.295419 -0.000889 0.506477
0.530479 -0.044196 0.502641
0.779608 -0.069663 0.468165
1.028837 -0.077523 0.447756
1.153310 -0.064446 0.398382
1.233044 -0.003029 0.388462
-0.035513 0.299934 0.461137
0.061507 0.252259 0.401011
0.071802 0.191830 0.267689
0.224285 0.194612 0.347995
0.503021 0.200562 0.453403
0.759006 0.192838 0.449018
0.997292 0.190788 0.439981
1.154357 0.199234 0.425195
1.270471 0.219593 0.418397
-0.204697 0.466506 0.546412
-0.040176 0.426585 0.499229
0.131245 0.391343 0.412748
0.281474 0.404618 0.379285
0.498908 0.448392 0.431027
0.732263 0.449202 0.439707
0.949719 0.439436 0.431779
1.129150 0.431566 0.425083
1.276975 0.426102 0.420597
-0.398834 0.679921 0.601992
-0.136303 0.619166 0.543435
0.124359 0.593951 0.486716
0.316854 0.639388 0.464417
0.500594 0.685985 0.451141
0.711185 0.682509 0.430985
0.907902 0.659441 0.419886
1.075002 0.637421 0.416155
1.215171 0.616344 0.415833
-0.508732 0.903696 0.607927
-0.160301 0.810424 0.542236
0.119420 0.792753 0.502059
0.307460 0.848263 0.484437
0.485405 0.893399 0.455699
0.690839 0.890722 0.423437
0.884197 0.861601 0.407736
1.042900 0.825229 0.405472
1.174810 0.788520 0.408183
-0.530977 1.119140 0.592421
-0.217206 1.074020 0.546414
0.040429 1.076288 0.514294
0.258575 1.087263 0.484265
0.462276 1.079895 0.450327
0.659741 1.057113 0.422583
0.852325 1.035440 0.404246
1.019971 1.002109 0.397339
1.154678 0.957937 0.397287
-0.515800 1.329453 0.578321
-0.344411 1.432596 0.551964
-0.067243 1.403215 0.510157
0.206712 1.326147 0.469291
0.437696 1.252850 0.440623
0.630541 1.200278 0.422146
0.804971 1.168319 0.408488
0.979030 1.151940 0.395592
1.146529 1.131817 0.384166
-0.227783 -0.259874 0.838328
-0.108769 -0.397028 0.963216
0.102089 -0.465790 0.957669
0.333809 -0.507758 0.891943
0.534700 -0.535587 0.790595
0.182599 0.177587 0.209098
0.235122 0.241856 0.262068
0.862624 -0.312155 0.503074
0.975783 -0.247952 0.485706
-0.097889 -0.005491 0.649285
-0.054855 -0.115545 0.754265
0.063635 -0.225053 0.838755
0.275271 -0.286515 0.841691
0.516907 -0.316838 0.787263
0.725503 -0.309041 0.702923
0.893477 -0.257187 0.633772
1.044678 -0.208119 0.596654
1.075718 -0.162886 0.513424
0.023203 0.176041 0.539744
0.061868 0.124846 0.571991
0.108992 0.056852 0.617856
0.256847 -0.024735 0.730651
0.486108 -0.057991 0.751006
0.734770 -0.056127 0.712156
0.973915 -0.054468 0.684771
1.105801 -0.040093 0.618929
1.131453 0.027791 0.555829
0.062327 0.292566 0.530452
0.161787 0.285348 0.511500
0.210631 0.272874 0.454748
0.266257 0.239989 0.548887
0.481695 0.209390 0.693717
0.720221 0.199761 0.693584
0.945702 0.193863 0.669942
1.097070 0.204180 0.634892
1.135027 0.242910 0.585247
-0.003844 0.406971 0.592894
0.178571 0.408290 0.549493
0.320986 0.413693 0.489387
0.308099 0.411762 0.432070
0.484163 0.461944 0.595233
0.703984 0.439868 0.665355
0.901770 0.427725 0.648991
1.070700 0.422412 0.629847
1.156959 0.423473 0.598605
-0.157685 0.567842 0.683851
0.124226 0.539495 0.612188
0.364864 0.542139 0.562608
0.495810 0.595883 0.585446
0.569477 0.649559 0.622981
0.701448 0.657141 0.641331
0.867799 0.635360 0.627429
1.023453 0.616508 0.610929
1.153929 0.598348 0.594440
-0.319080 0.785030 0.757880
0.056246 0.702217 0.664136
0.342074 0.678116 0.616811
0.494340 0.727056 0.636631
0.587302 0.799643 0.657571
0.694760 0.836917 0.639175
0.849125 0.824262 0.612615
0.995664 0.793637 0.594971
1.120047 0.760111 0.580025
-0.409703 1.018811 0.790978
-0.060104 0.952186 0.721641
0.210237 0.924633 0.681273
0.396013 0.936876 0.671103
0.532099 0.968218 0.657236
0.659615 0.989085 0.626548
0.819348 0.985507 0.599927
0.975734 0.960535 0.582366
1.103973 0.921330 0.566979
-0.434767 1.237586 0.793707
-0.294972 1.341755 0.791336
-0.041537 1.318525 0.742393
0.210982 1.255234 0.685514
0.426378 1.191597 0.638658
0.608271 1.142864 0.605442
0.771998 1.113981 0.583234
0.936318 1.101501 0.568005
1.100634 1.089778 0.555339
-0.267464 -0.302252 1.006997
-0.175885 -0.462130 1.165116
0.019108 -0.555003 1.199705
0.260919 -0.583747 1.134336
0.499968 -0.594811 1.053273
0.673855 -0.522995 0.901536
0.754122 -0.354253 0.747298
0.839955 -0.242631 0.667768
0.924831 -0.176502 0.617748
-0.132868 -0.036124 0.812803
-0.095268 -0.149447 0.944855
0.008322 -0.270845 1.065562
0.215039 -0.334484 1.092713
0.470889 -0.334063 1.036839
0.701095 -0.298670 0.946692
0.883639 -0.243084 0.860143
1.060834 -0.215767 0.812944
1.004367 -0.103030 0.657234
0.022688 0.177776 0.672466
0.055573 0.129417 0.748400
0.092137 0.046716 0.857171
0.217785 -0.043681 0.993784
0.450978 -0.063397 1.011728
0.702769 -0.048131 0.955870
0.933411 -0.043162 0.908045
1.103507 -0.043367 0.844951
1.089953 0.029197 0.705213
0.129127 0.319054 0.621337
0.221623 0.333793 0.641742
0.274724 0.326684 0.681120
0.320712 0.274477 0.823043
0.459491 0.217835 0.945073
0.688778 0.195841 0.933144
0.910243 0.187191 0.886855
1.077280 0.195646 0.837929
1.088010 0.233348 0.728091
0.158624 0.426069 0.643826
0.327018 0.463334 0.623391
0.445600 0.502674 0.624072
0.490707 0.528223 0.691602
0.533381 0.502242 0.812425
0.677801 0.440140 0.875305
0.869309 0.415652 0.848247
1.031027 0.410447 0.811243
1.093592 0.414284 0.743017
0.096187 0.544934 0.723151
0.345481 0.557795 0.660731
0.532436 0.599771 0.648607
0.619709 0.660217 0.695811
0.610867 0.691825 0.726876
0.688258 0.670542 0.797909
0.842473 0.619614 0.812811
0.990883 0.599265 0.785443
1.092345 0.579448 0.744512
-0.041275 0.715540 0.832656
0.299994 0.665576 0.720471
0.539968 0.668436 0.680202
0.662702 0.719208 0.715376
0.726485 0.770895 0.759119
0.753160 0.804263 0.784595
0.838629 0.799209 0.787689
0.964899 0.770260 0.765032
1.082855 0.737320 0.734736
-0.187779 0.927872 0.919357
0.164294 0.854947 0.811987
0.411118 0.822631 0.757069
0.565398 0.839941 0.762409
0.673178 0.871731 0.779122
0.737901 0.914041 0.785385
0.817718 0.941304 0.770056
0.944258 0.928134 0.747384
1.065330 0.891599 0.719369
-0.289834 1.139072 0.954793
-0.162229 1.220579 0.966453
0.051951 1.206432 0.919140
0.258506 1.171446 0.864257
0.437353 1.136546 0.814377
0.595736 1.104703 0.772627
0.746472 1.077681 0.741159
0.901201 1.063090 0.721815
1.062446 1.055282 0.709757
-0.302452 -0.335544 1.175318
-0.218538 -0.491405 1.349306
-0.043757 -0.601471 1.427670
0.200680 -0.623704 1.378261
0.455926 -0.600959 1.293347
0.680485 -0.537364 1.177909
0.802635 -0.385060 0.986314
0.858265 -0.235291 0.834128
0.921448 -0.155056 0.757559
-0.153405 -0.051244 0.972461
-0.149965 -0.193032 1.163025
-0.042586 -0.306490 1.312116
0.171780 -0.356343 1.352548
0.436436 -0.334320 1.287371
0.684419 -0.296406 1.202438
0.881565 -0.250687 1.100502
1.059579 -0.226027 1.033221
1.002675 -0.093666 0.816758
0.025607 0.187845 0.809233
0.028642 0.122894 0.951808
0.066957 0.039025 1.117648
0.196032 -0.038451 1.255855
0.423827 -0.058507 1.260154
0.671211 -0.047538 1.188893
0.895760 -0.052112 1.123195
1.089985 -0.049118 1.064943
1.093309 0.021213 0.871569
0.173877 0.356348 0.729655
0.247150 0.374343 0.789200
0.285761 0.363338 0.894936
0.318852 0.303632 1.058948
0.438710 0.233500 1.160689
0.647686 0.208751 1.130016
0.866933 0.193604 1.080849
1.051759 0.190331 1.031227
1.084439 0.213570 0.886631
0.263626 0.478556 0.725214
0.401097 0.526128 0.727340
0.474804 0.563233 0.788537
0.501540 0.565747 0.898319
0.528093 0.510987 1.008743
0.641178 0.445378 1.050459
0.829967 0.415007 1.026647
1.003561 0.401703 0.986261
1.076827 0.391708 0.890562
0.273571 0.585213 0.780694
0.464346 0.619751 0.747177
0.590059 0.675242 0.781694
0.669343 0.725764 0.844604
0.694091 0.731674 0.905609
0.705465 0.674144 0.959905
0.811621 0.611940 0.978607
0.965082 0.584832 0.949874
1.066364 0.558802 0.888456
0.201931 0.709414 0.874323
0.461373 0.693447 0.784121
0.623315 0.730106 0.786049
0.732873 0.783561 0.823737
0.796921 0.822246 0.860084
0.801185 0.833521 0.892292
0.831851 0.799757 0.927062
0.940827 0.751205 0.920826
1.053506 0.716506 0.880827
0.071481 0.867553 0.973049
0.372967 0.804869 0.853060
0.550221 0.810041 0.829197
0.676750 0.837323 0.840211
0.770060 0.862029 0.854814
0.826614 0.887689 0.874374
0.859705 0.911138 0.894289
0.930093 0.903876 0.895629
1.039271 0.869465 0.868050
-0.075650 1.051792 1.050276
0.078794 1.077834 1.037653
0.243335 1.075473 1.005665
0.390729 1.069797 0.975142
0.520927 1.061756 0.945390
0.638340 1.054520 0.918325
0.753198 1.045938 0.892412
0.881238 1.034853 0.869982
1.029612 1.026046 0.855740
-0.339982 -0.366323 1.357430
-0.247048 -0.496574 1.526317
-0.083148 -0.605354 1.633808
0.157721 -0.630372 1.616826
0.422787 -0.579470 1.523035
0.664440 -0.516975 1.424097
0.826921 -0.412632 1.247085
0.892505 -0.273080 1.047845
0.936999 -0.169740 0.914126
-0.179676 -0.065759 1.147519
-0.153181 -0.179344 1.349167
-0.046470 -0.283022 1.516116
0.155586 -0.339738 1.586919
0.412487 -0.325542 1.530029
0.657813 -0.295898 1.437842
0.864082 -0.283696 1.338162
0.974925 -0.205261 1.145254
1.029318 -0.115425 0.993808
0.018820 0.198527 0.966360
0.042799 0.153786 1.119335
0.090313 0.082953 1.300241
0.204839 0.001208 1.448544
0.407414 -0.032798 1.455735
0.634215 -0.023552 1.368616
0.841176 -0.021312 1.290356
0.999804 -0.025669 1.188950
1.115348 -0.006262 1.078611
0.228354 0.404663 0.830831
0.268507 0.416394 0.926515
0.285933 0.394015 1.073736
0.319817 0.327280 1.234481
0.431160 0.253768 1.318811
0.615726 0.225946 1.283551
0.809998 0.218020 1.223516
0.975504 0.199501 1.157696
1.102845 0.191184 1.077300
0.365072 0.536135 0.782544
0.418038 0.576034 0.861909
0.450980 0.595723 0.961121
0.470454 0.575785 1.067823
0.511082 0.514433 1.157511
0.617989 0.448790 1.189797
0.781577 0.418620 1.161325
0.950283 0.397194 1.125054
1.087075 0.374970 1.067940
0.414340 0.628159 0.815797
0.493085 0.681683 0.876082
0.560803 0.725192 0.938371
0.610266 0.744742 0.995943
0.639252 0.725280 1.048201
0.673307 0.662489 1.092484
0.768947 0.598302 1.107215
0.924023 0.570043 1.092467
1.069049 0.544872 1.055048
0.402732 0.708320 0.869885
0.500582 0.757174 0.906636
0.595322 0.803882 0.944313
0.679976 0.839691 0.974907
0.743288 0.856949 0.999650
0.779043 0.842632 1.024220
0.807739 0.784574 1.050123
0.903315 0.729164 1.058422
1.048412 0.703304 1.039297
0.337120 0.795389 0.931583
0.447561 0.830750 0.946793
0.555304 0.866917 0.965223
0.658097 0.896529 0.978196
0.749414 0.918865 0.987402
0.825238 0.932830 0.995832
0.877733 0.929288 1.007248
0.921605 0.891801 1.022597
1.025372 0.853592 1.020795
0.230217 0.907823 1.002121
0.350705 0.928863 1.000339
0.463154 0.952277 1.004013
0.571088 0.970081 1.004293
0.671316 0.983322 1.003316
0.764336 0.992746 1.002358
0.849914 0.998370 1.001567
0.927894 1.000512 1.000858
1.000000 0.999999 0.999999
